Luts/Fujifilm/FLog2C_to_PRO-Neg_Std_VLog.cube
TITLE "Generated by Resolve"
LUT_3D_SIZE 33
0 0 0
0 0 0
0 0 0
0 0 0
0.0178836 0.00422675 0.00370794
0.0618601 0.00852979 0.0170748
0.109117 0.0190585 0.0284123
0.171191 0.0228122 0.0487221
0.260838 0.0316777 0.073579
0.377844 0.0412146 0.104005
0.529931 0.05066 0.14612
0.696086 0.0557259 0.203464
0.835691 0.0720836 0.283574
0.936309 0.0932937 0.386297
0.952422 0.139971 0.447227
0.961181 0.225025 0.476875
0.966094 0.257221 0.484733
0.966094 0.257221 0.484733
0.966094 0.257221 0.484733
0.966094 0.257221 0.484733
0.966094 0.257221 0.484733
0.966094 0.257221 0.484733
0.966094 0.257221 0.484733
0.966094 0.257221 0.484733
0.966232 0.260853 0.48217
0.967422 0.281666 0.468132
0.967987 0.30959 0.449943
0.970016 0.337774 0.426947
0.971511 0.369726 0.401389
0.97229 0.4047 0.37232
0.972793 0.442618 0.338689
0.974151 0.482673 0.297475
0.973754 0.525795 0.251865
0 0 0
0 0 0
0 0 0
0 0 0
0.0238193 0.00611887 0.00442512
0.0699321 0.00976577 0.018967
0.117723 0.0192416 0.0318151
0.17882 0.0238651 0.0505379
0.269596 0.032517 0.0758068
0.386221 0.0417487 0.106249
0.537392 0.0512703 0.148318
0.70135 0.0561837 0.205539
0.838865 0.0724651 0.285893
0.937224 0.0937362 0.388281
0.952575 0.141115 0.447547
0.961288 0.22591 0.477195
0.966094 0.257221 0.484733
0.966094 0.257221 0.484733
0.966094 0.257221 0.484733
0.966094 0.257221 0.484733
0.966094 0.257221 0.484733
0.966094 0.257221 0.484733
0.966094 0.257221 0.484733
0.966094 0.257221 0.484733
0.966476 0.2645 0.479438
0.967803 0.287968 0.463493
0.968109 0.314076 0.445731
0.970214 0.341466 0.42443
0.971466 0.372854 0.398825
0.972351 0.40708 0.370443
0.972854 0.444633 0.336889
0.974151 0.484276 0.295796
0.9738 0.527108 0.250355
0 0 0
0 0 0
0 0 0
0 0 0
0.030045 0.00775158 0.0056611
0.0783093 0.0117494 0.0209812
0.126772 0.0189364 0.0357519
0.187808 0.0247196 0.053315
0.278141 0.0333257 0.0779889
0.39205 0.0419928 0.10779
0.534661 0.0508125 0.147463
0.689174 0.0543679 0.20116
0.818418 0.0698711 0.270985
0.926497 0.0872358 0.359747
0.947524 0.114473 0.434989
0.957107 0.173266 0.458701
0.964538 0.240253 0.479835
0.966171 0.25687 0.485008
0.966094 0.257221 0.484733
0.966094 0.257221 0.484733
0.966094 0.257221 0.484733
0.966094 0.257221 0.484733
0.966094 0.257221 0.484733
0.966094 0.257221 0.484733
0.967071 0.270268 0.47483
0.968322 0.294087 0.458824
0.968215 0.318441 0.441657
0.970397 0.345098 0.421942
0.97142 0.375875 0.396353
0.972427 0.409384 0.368627
0.972915 0.446555 0.335195
0.974151 0.485878 0.294102
0.973861 0.528313 0.248966
0 0 0
0 0 0
0 0 0
0 0 0
0.0204013 0.00370794 0.0041352
0.0593881 0.00865187 0.0159457
0.100725 0.0143587 0.0273899
0.150042 0.0209506 0.0431525
0.219318 0.0282444 0.0628367
0.316045 0.0348516 0.0886244
0.43798 0.0443427 0.119219
0.586099 0.05066 0.161746
0.732616 0.0584115 0.220523
0.853025 0.0745708 0.296544
0.93695 0.0917983 0.384192
0.950164 0.12491 0.441917
0.956741 0.185916 0.4607
0.96556 0.24741 0.482704
0.966094 0.257221 0.484733
0.966094 0.257221 0.484733
0.966094 0.257221 0.484733
0.966094 0.257221 0.484733
0.966094 0.257221 0.484733
0.966415 0.258549 0.48394
0.96762 0.2757 0.470497
0.968795 0.299901 0.454368
0.968322 0.322667 0.437705
0.970581 0.348577 0.419562
0.971389 0.379004 0.39379
0.972488 0.411551 0.366934
0.972976 0.448569 0.333394
0.974151 0.48748 0.292409
0.973922 0.529503 0.247593
0.00163272 0.012192 0.000411994
0.00181582 0.0131991 0.000427253
0.00178531 0.0130312 0.000366217
0 0.00520333 4.57771e-05
0.00836194 0.00225834 0.00062562
0.0424201 0.00834669 0.00917067
0.0735637 0.0126497 0.0195315
0.115496 0.0173953 0.034165
0.172992 0.0243229 0.0497902
0.25153 0.0302586 0.0697948
0.353796 0.0396735 0.0972457
0.484718 0.0454566 0.133181
0.639216 0.0509804 0.179446
0.77261 0.0633097 0.245212
0.888716 0.0805066 0.322789
0.94406 0.0988785 0.411124
0.95349 0.145586 0.44947
0.961227 0.21442 0.470939
0.966003 0.256092 0.484306
0.966094 0.257221 0.484733
0.966094 0.257221 0.484733
0.966094 0.257221 0.484733
0.966094 0.257221 0.484733
0.967803 0.264515 0.480339
0.967346 0.282521 0.466392
0.968856 0.304845 0.450767
0.968582 0.326955 0.434348
0.970748 0.352071 0.417166
0.971344 0.382055 0.391302
0.972549 0.413855 0.365118
0.973037 0.450477 0.331685
0.974151 0.488975 0.290852
0.973968 0.530709 0.246204
0.0068513 0.0501869 0
0.00700389 0.0507973 0
0.00610361 0.0444953 0.000289921
0.00531014 0.0345922 0.000122072
0.00540169 0.0245212 0.000518807
0.0310674 0.0212253 0.00288396
0.0602121 0.0195468 0.00996414
0.0923171 0.0186618 0.0239872
0.139544 0.0226596 0.0380407
0.20444 0.0280613 0.0562905
0.295628 0.0339208 0.0811475
0.413184 0.0456855 0.111406
0.554726 0.0489967 0.152789
0.709117 0.0576944 0.211383
0.832486 0.0718242 0.280583
0.935851 0.088426 0.374823
0.949981 0.119905 0.441978
0.956451 0.188144 0.460517
0.965606 0.253468 0.483635
0.966094 0.257221 0.484733
0.966094 0.257221 0.484733
0.966018 0.257664 0.484565
0.966018 0.261448 0.482109
0.968688 0.270924 0.476219
0.967071 0.28896 0.462562
0.96875 0.309346 0.447547
0.969055 0.331579 0.431632
0.970855 0.355962 0.413764
0.971389 0.385016 0.388785
0.972595 0.416068 0.363348
0.973083 0.452354 0.330007
0.974151 0.490578 0.289158
0.974014 0.531899 0.244831
0.0125124 0.0793164 0
0.0125582 0.079942 0
0.0108492 0.0722515 0.00015259
0.00894179 0.0601358 0.000366217
0.00706493 0.0490883 0
0.0230869 0.0433967 0.000106813
0.0521248 0.0409094 0.00270085
0.0814679 0.0418708 0.00967422
0.126146 0.0417792 0.0220035
0.183871 0.0437476 0.042298
0.265003 0.0443427 0.0678111
0.367453 0.0467536 0.0959182
0.499397 0.0469673 0.136675
0.658534 0.0536507 0.186511
0.793088 0.0661784 0.254932
0.910475 0.082826 0.339757
0.947372 0.105226 0.428168
0.95581 0.165957 0.453574
0.963195 0.24062 0.479881
0.966094 0.257221 0.484733
0.966079 0.257313 0.484703
0.965499 0.260533 0.483436
0.966064 0.266545 0.478904
0.968154 0.279911 0.469749
0.967071 0.295232 0.45861
0.968658 0.313726 0.444419
0.969512 0.33608 0.428977
0.970947 0.359854 0.410361
0.971496 0.387991 0.386191
0.972457 0.418708 0.360769
0.973159 0.454292 0.328206
0.974151 0.492058 0.287587
0.97406 0.533104 0.243458
0.0162661 0.11635 3.0518e-05
0.0163272 0.116915 3.0518e-05
0.016022 0.10692 0.000564584
0.0128023 0.0889906 0.000198367
0.0110628 0.0729076 0.000167849
0.0179141 0.0649729 0.00077821
0.0443122 0.0635538 0.000442512
0.0767224 0.0635538 0.0037232
0.114122 0.0645609 0.00875868
0.167147 0.0652934 0.0224613
0.243595 0.0675975 0.0471656
0.338918 0.0711528 0.0735485
0.466972 0.0718395 0.110948
0.615274 0.0715801 0.154513
0.755566 0.0776226 0.221561
0.875319 0.0854963 0.305852
0.942641 0.103822 0.40264
0.954452 0.150118 0.447013
0.962631 0.220615 0.471153
0.965988 0.261769 0.481468
0.967636 0.262516 0.480491
0.966598 0.269078 0.477882
0.966628 0.275792 0.472938
0.967681 0.289998 0.462486
0.967712 0.302815 0.453391
0.968704 0.319341 0.44036
0.970062 0.341451 0.425818
0.971069 0.364477 0.406317
0.971633 0.391516 0.383124
0.972259 0.421912 0.35761
0.973281 0.456703 0.325841
0.974075 0.493904 0.285649
0.974121 0.534661 0.241611
0.0208133 0.165408 0.000640879
0.0207675 0.165545 0.000610361
0.0180362 0.145769 0.000137331
0.0175631 0.123873 0.000610361
0.0157778 0.10634 0.000564584
0.0135805 0.0954757 1.5259e-05
0.0374304 0.0922103 0.000411994
0.0671244 0.0892805 1.5259e-05
0.104936 0.0893416 0.00262455
0.156466 0.0908217 0.00914015
0.223758 0.0931106 0.0218814
0.314351 0.0966506 0.0467689
0.431189 0.10013 0.0787366
0.574166 0.100282 0.121233
0.716579 0.108705 0.176989
0.839612 0.116762 0.255573
0.940963 0.132845 0.348608
0.953811 0.16051 0.421469
0.962203 0.220523 0.447684
0.967559 0.275105 0.471519
0.967987 0.27747 0.470771
0.967483 0.282811 0.466941
0.968353 0.288914 0.462257
0.968063 0.300893 0.454795
0.968521 0.312306 0.446784
0.969192 0.327977 0.433951
0.970565 0.348287 0.420981
0.971206 0.370459 0.401083
0.971817 0.39617 0.379065
0.972015 0.426093 0.353506
0.973434 0.459861 0.322728
0.973953 0.49662 0.28275
0.974166 0.536599 0.2392
0.0224613 0.235874 6.10361e-05
0.0241855 0.220478 3.0518e-05
0.0219425 0.194568 0.000640879
0.0207065 0.168597 0.000198367
0.0197452 0.148775 0.000915541
0.0181125 0.135546 0.000289921
0.027451 0.12958 3.0518e-05
0.0590524 0.1252 7.62951e-05
0.0957656 0.125109 0
0.143175 0.122423 9.15541e-05
0.209293 0.124071 0.0055848
0.292866 0.127352 0.0171511
0.400046 0.131899 0.0411688
0.536156 0.13579 0.0800488
0.676982 0.144976 0.132265
0.802823 0.157092 0.200244
0.923033 0.168627 0.290745
0.951904 0.185702 0.383886
0.961837 0.229328 0.41973
0.967819 0.292424 0.454688
0.967498 0.298329 0.456138
0.968063 0.300694 0.454231
0.969451 0.305196 0.449989
0.96849 0.314 0.445533
0.969467 0.324239 0.437522
0.969787 0.338704 0.426017
0.970642 0.356771 0.412787
0.97142 0.378286 0.394339
0.972061 0.402274 0.373754
0.971695 0.431586 0.348119
0.973632 0.464012 0.318654
0.9738 0.500038 0.279103
0.974212 0.539208 0.235935
0.0236973 0.325078 0.000579843
0.0233005 0.292515 0.000411994
0.0240482 0.254078 0.00015259
0.0237125 0.224216 0.000595102
0.0223545 0.201633 0.000228885
0.0216678 0.188235 6.10361e-05
0.0228275 0.178225 1.5259e-05
0.0477607 0.172808 6.10361e-05
0.0873732 0.169284 1.5259e-05
0.135195 0.166796 0.000488289
0.194965 0.166842 1.5259e-05
0.275288 0.168887 0.000198367
0.377417 0.172503 0.00477607
0.500923 0.176577 0.0333104
0.636835 0.18526 0.0848707
0.766934 0.198199 0.143145
0.88629 0.211765 0.225803
0.953719 0.226658 0.324865
0.960922 0.251011 0.385138
0.96669 0.303517 0.421424
0.968368 0.321721 0.437919
0.969207 0.32224 0.4374
0.969085 0.324636 0.437034
0.969253 0.331258 0.432532
0.970016 0.33904 0.426276
0.970489 0.351995 0.416281
0.970764 0.367559 0.402594
0.97174 0.388022 0.386252
0.97229 0.410315 0.366796
0.971252 0.438849 0.340978
0.973892 0.469581 0.313176
0.973587 0.50454 0.274327
0.974273 0.542718 0.231586
0.0182193 0.410925 0.00015259
0.0201572 0.363104 0.000549325
0.022858 0.32108 0.000198367
0.023743 0.292241 0.000137331
0.0238193 0.269535 0.000656138
0.0243687 0.254627 0.000839246
0.0228885 0.245106 0.000335698
0.0302434 0.233387 9.15541e-05
0.0747539 0.229648 0.00015259
0.122255 0.225269 0.000259403
0.184543 0.220859 0
0.262272 0.2215 0
0.355108 0.221454 1.5259e-05
0.469642 0.227359 0.000244144
0.600916 0.235569 0.025742
0.731975 0.246052 0.0851759
0.852461 0.260487 0.157992
0.954421 0.275532 0.251377
0.961334 0.288502 0.335119
0.967895 0.32076 0.38262
0.970733 0.351324 0.416251
0.970581 0.349004 0.417929
0.96997 0.349447 0.416587
0.970535 0.353964 0.412909
0.970443 0.358724 0.410117
0.970794 0.368978 0.401968
0.97116 0.382467 0.391257
0.972076 0.400397 0.375814
0.972442 0.421057 0.357641
0.971115 0.447959 0.332174
0.974243 0.476677 0.306203
0.973312 0.510445 0.26804
0.97438 0.547417 0.225727
0.0148623 0.48716 0.000183108
0.0166629 0.438361 7.62951e-05
0.0186313 0.398856 0.000213626
0.0216831 0.370169 0.000137331
0.0223697 0.347967 0.000717174
0.0234836 0.332509 0.000289921
0.0233158 0.321599 0.00015259
0.0257877 0.310796 0.000228885
0.0576028 0.303334 0.000335698
0.10837 0.295872 7.62951e-05
0.169787 0.293019 0.000320439
0.247608 0.287755 0.00015259
0.33785 0.28838 0.000885023
0.44831 0.290501 0.000366217
0.568063 0.297353 0
0.697795 0.305394 0.0139773
0.816724 0.317388 0.0812543
0.928634 0.33022 0.170687
0.96144 0.341085 0.271626
0.966171 0.355261 0.326299
0.972015 0.383993 0.381811
0.971695 0.38323 0.389471
0.971237 0.379751 0.393927
0.971649 0.380804 0.392386
0.971115 0.384543 0.389578
0.97145 0.390829 0.383047
0.971771 0.401175 0.374823
0.971801 0.416312 0.361151
0.972717 0.434836 0.345586
0.971603 0.459525 0.321202
0.974151 0.486152 0.296132
0.972961 0.518242 0.259739
0.974502 0.55346 0.218219
0.0144808 0.548424 0.000274662
0.0151675 0.511818 0.000167849
0.0160067 0.48246 0.000167849
0.0158694 0.460807 0.000259403
0.0170138 0.441474 0.000274662
0.0170138 0.428153 9.15541e-05
0.0167849 0.41735 0.000320439
0.0185397 0.406058 0.000518807
0.0379797 0.394476 0.000503548
0.0866407 0.38555 0.000717174
0.150408 0.377432 0.000335698
0.228794 0.370428 0.000411994
0.319173 0.367056 0.000579843
0.425467 0.364553 4.57771e-05
0.542962 0.367712 4.57771e-05
0.663417 0.372961 0.000457771
0.784085 0.38027 0.00833143
0.896254 0.39147 0.0787213
0.961852 0.402701 0.179751
0.966659 0.40177 0.263355
0.970108 0.420066 0.325216
0.972229 0.42266 0.355734
0.972961 0.41706 0.3608
0.97351 0.413901 0.364874
0.972778 0.413794 0.36495
0.972625 0.418097 0.358984
0.972305 0.425147 0.352941
0.972808 0.436912 0.342504
0.973495 0.452979 0.327337
0.972122 0.474189 0.307057
0.973373 0.498573 0.282032
0.973007 0.528435 0.248386
0.97467 0.561425 0.208301
0.0128023 0.61384 0.000320439
0.0132906 0.58938 0.00047303
0.0139467 0.567681 9.15541e-05
0.0133516 0.55111 0.000228885
0.0131685 0.536538 0.00030518
0.0140841 0.523613 0.000106813
0.0150149 0.514611 1.5259e-05
0.0149691 0.504982 6.10361e-05
0.01944 0.494255 0.000213626
0.0590219 0.48336 0.00015259
0.128817 0.473655 0.000137331
0.211948 0.463584 0.000350958
0.301305 0.4551 0.000259403
0.40444 0.449943 0.000549325
0.518288 0.447974 0.000488289
0.637949 0.448402 0
0.753643 0.454643 0.000488289
0.863935 0.463539 0.00529488
0.959243 0.467491 0.0791943
0.966369 0.466178 0.176303
0.969604 0.466148 0.250355
0.972412 0.467765 0.314519
0.973587 0.458274 0.324346
0.973556 0.453056 0.328008
0.971283 0.450462 0.329549
0.973526 0.450294 0.332174
0.973037 0.454948 0.325963
0.973175 0.462684 0.317952
0.973709 0.475242 0.305409
0.972168 0.492927 0.287449
0.972717 0.514244 0.264363
0.973556 0.541634 0.233234
0.97438 0.57232 0.194232
0.0110323 0.68629 0.000259403
0.0119783 0.669657 0.000717174
0.0123903 0.655024 0.00062562
0.0123903 0.642191 0.000579843
0.0122683 0.631296 0.000991836
0.0122835 0.621683 0.000488289
0.0122988 0.613092 0.000198367
0.012314 0.605035 0.00062562
0.0153201 0.594949 0.000366217
0.0399023 0.584009 1.5259e-05
0.102724 0.574029 0.000396735
0.186801 0.562448 0.000640879
0.279133 0.55256 4.57771e-05
0.382712 0.542397 0.000228885
0.493904 0.537942 6.10361e-05
0.610376 0.534707 7.62951e-05
0.727596 0.535882 7.62951e-05
0.833753 0.540825 0
0.930739 0.542672 0.00157168
0.965133 0.541787 0.0684215
0.968399 0.527016 0.156313
0.972305 0.520027 0.242191
0.972976 0.50634 0.273075
0.974151 0.498299 0.280552
0.972564 0.492409 0.28806
0.97322 0.488838 0.292027
0.972732 0.490532 0.291417
0.972534 0.493965 0.286824
0.973587 0.50248 0.27776
0.973098 0.516609 0.262592
0.973358 0.53463 0.241962
0.973892 0.558221 0.213199
0.973678 0.586679 0.175357
0.00750744 0.762234 1.5259e-05
0.00703441 0.750439 0
0.00787366 0.740093 6.10361e-05
0.00862135 0.731167 0.000167849
0.00875868 0.723995 0.000411994
0.00895705 0.717052 0.000579843
0.009308 0.710323 0.000534066
0.00962844 0.702602 0.00047303
0.00929274 0.694728 0.00030518
0.020676 0.684001 0.000137331
0.066865 0.673823 6.10361e-05
0.155032 0.665064 4.57771e-05
0.251301 0.654459 0.000335698
0.358083 0.643183 9.15541e-05
0.46891 0.635172 4.57771e-05
0.586358 0.629099 0.000427253
0.700465 0.62327 4.57771e-05
0.806867 0.623224 0
0.902464 0.622095 0
0.96286 0.619684 0
0.967666 0.600214 0.0433051
0.97171 0.581872 0.138811
0.972702 0.561685 0.209903
0.974456 0.550866 0.223926
0.974273 0.54052 0.234562
0.97409 0.533974 0.242115
0.972778 0.531243 0.24683
0.972824 0.531029 0.245701
0.974075 0.535958 0.238972
0.973999 0.54551 0.228931
0.973388 0.560098 0.211307
0.973114 0.578714 0.185153
0.97261 0.604807 0.1505
0.00317388 0.83267 9.15541e-05
0.00430304 0.825864 9.15541e-05
0.00433356 0.820279 0.00047303
0.00434882 0.81529 0.000823987
0.00526436 0.80943 0.000534066
0.00621042 0.804013 0.000213626
0.00679026 0.798795 7.62951e-05
0.00648508 0.793301 0.000381476
0.00648508 0.786648 0.000732433
0.011841 0.778134 0.000274662
0.0473335 0.769497 6.10361e-05
0.120897 0.761654 3.0518e-05
0.22002 0.753506 4.57771e-05
0.326329 0.743084 0.000244144
0.44123 0.733516 0.000854505
0.557519 0.724453 0.000213626
0.673701 0.714275 1.5259e-05
0.779919 0.706218 0
0.876112 0.703792 0.000381476
0.951232 0.701747 0
0.963592 0.686259 4.57771e-05
0.968078 0.659464 0.0177005
0.971603 0.625345 0.118029
0.972473 0.608881 0.143954
0.972763 0.596979 0.163821
0.971695 0.58555 0.177691
0.972854 0.579187 0.185672
0.972747 0.575494 0.191699
0.973373 0.576272 0.190768
0.973129 0.581689 0.184085
0.972885 0.591409 0.170382
0.971862 0.606378 0.148791
0.97081 0.627451 0.116854
0.000274662 0.896239 7.62951e-05
0.000350958 0.891798 6.10361e-05
0.000503548 0.8878 6.10361e-05
0.000656138 0.884031 7.62951e-05
0.000762951 0.880812 0.000213626
0.000869764 0.877668 0.000427253
0.000976577 0.874617 0.000656138
0.00115969 0.871046 0.000808728
0.00178531 0.865278 0.000503548
0.00309758 0.85832 0.000137331
0.0197604 0.851408 0.000442512
0.0806897 0.845502 0.000320439
0.183261 0.839536 0.000183108
0.293126 0.830411 0.000442512
0.407568 0.821988 0.000137331
0.525414 0.812696 1.5259e-05
0.641901 0.801312 4.57771e-05
0.748898 0.789075 0.000213626
0.847105 0.776837 0
0.937224 0.768215 0.000106813
0.960601 0.760128 0
0.962997 0.739818 0.00015259
0.967391 0.699977 0.0107729
0.970123 0.673716 0.0489509
0.97084 0.658213 0.0706798
0.971145 0.644892 0.0941939
0.971862 0.634928 0.108919
0.971984 0.626993 0.119127
0.971603 0.624033 0.125521
0.971801 0.624353 0.123583
0.97171 0.629526 0.116091
0.970565 0.639628 0.101167
0.970413 0.65658 0.0732433
0 0.956222 0.00103761
1.5259e-05 0.953307 0.000747692
1.5259e-05 0.950469 0.000488289
3.0518e-05 0.947906 0.000213626
3.0518e-05 0.945296 0
3.0518e-05 0.942702 0
3.0518e-05 0.940185 0
3.0518e-05 0.937346 0
0.000396735 0.933501 0
0.00306706 0.928771 0
0.007187 0.923018 1.5259e-05
0.0607614 0.918334 0.00062562
0.142657 0.913008 0.000671397
0.25156 0.906004 0.000213626
0.369818 0.895338 0.000213626
0.489433 0.883589 0.000442512
0.608515 0.868574 6.10361e-05
0.719966 0.856138 0
0.819104 0.842344 9.15541e-05
0.909072 0.831403 0
0.959381 0.822171 1.5259e-05
0.960922 0.801953 6.10361e-05
0.963256 0.772152 1.5259e-05
0.966751 0.741833 0.000381476
0.96643 0.723873 0.000579843
0.968505 0.708064 0.0101472
0.968048 0.693843 0.013138
0.969024 0.683848 0.033875
0.971008 0.676707 0.0421912
0.970413 0.672847 0.0477455
0.96994 0.673198 0.0483253
0.969406 0.678492 0.0395209
0.968795 0.69073 0.0243076
0 0.996933 0.000320439
1.5259e-05 0.996765 0.000320439
1.5259e-05 0.996567 0.000320439
1.5259e-05 0.996368 0.000335698
1.5259e-05 0.996201 0.000335698
1.5259e-05 0.995254 0.00030518
1.5259e-05 0.993622 0.000244144
1.5259e-05 0.991714 0.000183108
0 0.989166 9.15541e-05
0.000854505 0.98613 0
0.00598154 0.982452 0
0.0141299 0.978012 1.5259e-05
0.104509 0.972503 0.000411994
0.21268 0.964614 0.000442512
0.332326 0.954589 0.000198367
0.45304 0.943755 6.10361e-05
0.573343 0.932097 0
0.687099 0.917128 0
0.789502 0.903029 1.5259e-05
0.880568 0.891142 0.000198367
0.955612 0.879057 0
0.958862 0.860197 0
0.959808 0.829618 3.0518e-05
0.961074 0.79881 0
0.963745 0.786038 0.000396735
0.964141 0.771511 7.62951e-05
0.966201 0.760342 4.57771e-05
0.967269 0.746502 0.00015259
0.966415 0.736263 9.15541e-05
0.966812 0.727687 0.00106813
0.967605 0.723461 0
0.967758 0.724498 0.00248722
0.965942 0.731365 0.000900282
0 1 0.000289921
0 1 0.000289921
0 1 0.000289921
0 1 0.000289921
0 1 0.000289921
0 1 0.000289921
0.000244144 1 0.000289921
0.000503548 1 0.000289921
0.000915541 1 0.000274662
0.00141909 1 0.000274662
0.00608835 0.999985 0.000289921
0.0347448 0.999878 0.000396735
0.0724193 0.999695 0.000503548
0.177447 0.998703 0.000167849
0.294316 0.997864 0.000183108
0.415763 0.996536 0.000228885
0.537133 0.988205 0.000457771
0.655833 0.972229 0.000198367
0.759625 0.95906 0
0.85005 0.944915 0
0.930602 0.92874 0.000213626
0.957473 0.909712 0
0.958572 0.883635 0.000381476
0.958801 0.851408 1.5259e-05
0.959091 0.82858 0
0.960998 0.816236 0.000289921
0.960571 0.805173 7.62951e-05
0.961975 0.796094 0.000228885
0.961242 0.787747 0
0.963287 0.782055 0.000137331
0.963607 0.775387 6.10361e-05
0.964721 0.772534 0.00030518
0.964157 0.775174 0
0 1 0.000289921
0 1 0.000289921
0 1 0.000289921
0 1 0.000289921
0 1 0.000289921
0 1 0.000289921
0 1 0.000289921
0.000717174 1 0.000289921
0.00181582 0.999985 0.000274662
0.00289921 0.999985 0.000274662
0.0039826 0.999969 0.000274662
0.0157473 0.999939 0.000335698
0.0722362 0.999847 0.000732433
0.144366 0.999725 0.00115969
0.25211 0.999298 0.000366217
0.368887 0.999207 1.5259e-05
0.489555 0.999603 1.5259e-05
0.60853 0.999481 0
0.718303 0.999405 0.000198367
0.811231 0.988403 0.000854505
0.893889 0.970474 0
0.954879 0.953689 0
0.955261 0.932586 0
0.956344 0.903822 6.10361e-05
0.957549 0.875425 0.000228885
0.958495 0.863005 0
0.959121 0.85156 6.10361e-05
0.958892 0.839841 0
0.959655 0.829374 1.5259e-05
0.960098 0.820493 0.00030518
0.960433 0.812589 0.000167849
0.960815 0.807965 0
0.960433 0.804532 4.57771e-05
0.000274662 0.999985 0.000274662
0.000274662 0.999985 0.000274662
0.000335698 0.999985 0.000274662
0.000396735 0.999985 0.000274662
0.000396735 0.999985 0.000274662
0.000457771 0.999985 0.000274662
0.000503548 0.999985 0.000274662
0.0028687 0.999969 0.000274662
0.0120699 0.999924 0.000274662
0.0238804 0.999878 0.000274662
0.0396429 0.999817 0.000274662
0.0601358 0.999741 0.000259403
0.094667 0.999695 0.000289921
0.163287 0.999832 0.000442512
0.249607 0.999969 0.000595102
0.344244 0.999832 0.000411994
0.448707 0.99971 0.00015259
0.558572 0.999603 0.000213626
0.667277 0.999527 0.000259403
0.76492 0.999542 1.5259e-05
0.851026 0.999252 0.000259403
0.929137 0.991791 1.5259e-05
0.955184 0.972885 4.57771e-05
0.955535 0.947662 0
0.956359 0.919097 0
0.956542 0.9037 0
0.95668 0.893278 0
0.957916 0.88275 0.000213626
0.958129 0.872908 0.000183108
0.957778 0.863127 9.15541e-05
0.958358 0.854643 0.000167849
0.95816 0.846967 0
0.958923 0.842145 0.000244144
0.00794995 0.999832 0.000534066
0.00866712 0.999817 0.000564584
0.0093843 0.999802 0.000579843
0.0100862 0.999786 0.000610361
0.0108034 0.999771 0.000640879
0.0114748 0.999771 0.000656138
0.0121767 0.999756 0.000686656
0.0130465 0.999725 0.000717174
0.0220645 0.999741 0.000762951
0.0418097 0.999771 0.000823987
0.0674907 0.999817 0.000915541
0.101015 0.999863 0.00103761
0.144701 0.999939 0.00120546
0.199069 0.999908 0.00120546
0.263264 0.999588 0.000762951
0.341283 0.999268 0.000259403
0.427787 0.999313 7.62951e-05
0.523339 0.999573 0
0.6224 0.999893 0.000350958
0.719341 1 0.000808728
0.807736 0.999969 0.000137331
0.88539 0.999878 0.000518807
0.944717 0.99942 3.0518e-05
0.954665 0.987411 0.000122072
0.954925 0.962768 0
0.9552 0.942123 9.15541e-05
0.956603 0.931701 0.000106813
0.955947 0.922393 0.000106813
0.957198 0.911925 0
0.957015 0.902358 0.000137331
0.956863 0.89453 0.000183108
0.957427 0.886702 0
0.957443 0.880079 0.000198367
0.0739452 0.999985 0.00015259
0.0791333 0.999985 0.00015259
0.0838331 0.999985 0.000137331
0.0885481 0.999985 0.000137331
0.0932631 0.999985 0.000122072
0.0979629 0.999985 0.000122072
0.102678 0.999985 0.000106813
0.108324 0.999985 9.15541e-05
0.115862 0.999985 9.15541e-05
0.128481 0.999969 7.62951e-05
0.14551 0.999969 7.62951e-05
0.169055 0.999969 6.10361e-05
0.199084 0.999954 4.57771e-05
0.238529 0.999954 3.0518e-05
0.286809 0.999939 3.0518e-05
0.345815 0.999954 1.5259e-05
0.417411 0.999924 0
0.496178 0.999634 3.0518e-05
0.585519 0.999298 1.5259e-05
0.677699 0.999496 0
0.763394 0.999924 0.000320439
0.843534 0.999283 7.62951e-05
0.914244 0.99971 0.000198367
0.949767 0.999893 0.000183108
0.953002 0.996628 0
0.955139 0.978241 6.10361e-05
0.953872 0.969009 0.000122072
0.955245 0.95903 0.000137331
0.955001 0.949203 0.00015259
0.9552 0.940719 0.000122072
0.956466 0.93167 9.15541e-05
0.956436 0.922255 0.000198367
0.95697 0.915343 0.00030518
0.138384 0.999527 7.62951e-05
0.143008 0.999512 7.62951e-05
0.147524 0.999496 6.10361e-05
0.152102 0.999481 7.62951e-05
0.157061 0.999466 6.10361e-05
0.16112 0.999466 7.62951e-05
0.166094 0.999435 6.10361e-05
0.17203 0.99942 6.10361e-05
0.179477 0.99939 6.10361e-05
0.189624 0.999359 6.10361e-05
0.202594 0.999374 9.15541e-05
0.218967 0.99939 0.00015259
0.241642 0.99942 0.000213626
0.270024 0.999466 0.000320439
0.309087 0.999512 0.000457771
0.355734 0.999588 0.000549325
