Luts/Fujifilm/FLog2C_to_CLASSIC-CHROME_VLog.cube
TITLE "Generated by Resolve"
LUT_3D_SIZE 5
0.000183108 9.15541e-05 6.10361e-05
0.103227 0.0037232 0.00306706
0.960189 0.304906 0.406287
0.958251 0.391974 0.442405
0.952834 0.662318 0.612924
0 0.0986496 3.0518e-05
0.0550851 0.0575875 6.10361e-05
0.957366 0.217426 0.250217
0.957504 0.443061 0.422858
0.953231 0.669642 0.614145
0.021088 0.747402 0.0102541
0.0164187 0.691386 0.005066
0.724559 0.633783 0.0463722
0.952087 0.646342 0.400351
0.954147 0.712871 0.618509
0.0478676 0.967224 0.0339208
0.049012 0.967285 0.0340887
0.354665 0.963333 0.0738689
0.963607 0.961517 0.201434
0.96524 0.891524 0.561288
0.51989 0.961303 0.647242
0.527077 0.961517 0.647578
0.576059 0.962905 0.650401
0.818784 0.974334 0.628855
0.978378 0.985016 0.616602
0.000122072 0.000350958 0.0670787
0.113451 0.000518807 0.0364538
0.960723 0.284901 0.394629
0.958282 0.391501 0.442588
0.952819 0.662242 0.612909
6.10361e-05 0.136324 0.146731
0.0605173 0.061677 0.0601816
0.941421 0.20766 0.265126
0.957519 0.442573 0.423041
0.953231 0.669657 0.614221
0.0232853 0.766613 0.0151217
0.0184024 0.716304 0.00874342
0.711528 0.648142 0.0594339
0.952087 0.646174 0.400488
0.954162 0.712886 0.618585
0.0478676 0.967224 0.0339208
0.0483101 0.967269 0.0341039
0.355413 0.963195 0.0739605
0.963607 0.961456 0.201389
0.96524 0.891524 0.56144
0.521111 0.961334 0.647272
0.528298 0.961547 0.647623
0.577264 0.962951 0.650431
0.819165 0.97435 0.628763
0.978378 0.985016 0.616602
0.00291447 0.000442512 0.702663
0.0535897 6.10361e-05 0.47567
0.965667 0.159167 0.592798
0.959014 0.432731 0.594965
0.952819 0.661921 0.613062
0.00418097 0.166171 0.826688
0.0226902 0.0470588 0.596719
0.908415 0.14406 0.587259
0.956893 0.497322 0.621561
0.953216 0.669261 0.614374
0.0505074 0.798978 0.802441
0.0425574 0.752346 0.750896
0.67364 0.673991 0.673793
0.95494 0.681575 0.678843
0.954162 0.712566 0.618845
0.0607156 0.965576 0.35465
0.0606394 0.965774 0.356054
0.188861 0.961868 0.378668
0.972961 0.969207 0.504616
0.965225 0.891478 0.561929
0.49752 0.96141 0.701045
0.505776 0.961608 0.701366
0.561776 0.962966 0.703471
0.819364 0.975128 0.685054
0.978378 0.985031 0.617029
0.00570687 0 0.997772
0.00570687 0 0.997772
0.803326 0.00910964 0.974273
0.960433 0.340749 0.795285
0.9552 0.663645 0.799313
0.00570687 0 0.997772
0.00570687 0 0.997772
0.810956 0.00927749 0.974975
0.960418 0.402625 0.81323
0.95555 0.671672 0.802029
0.0513313 0.761349 0.957031
0.0326085 0.613947 0.964996
0.457465 0.563104 0.963561
0.955505 0.633143 0.859724
0.957626 0.718395 0.814557
0.0960555 0.949004 0.934447
0.096025 0.948348 0.934737
0.0932326 0.943908 0.935134
0.937911 0.940963 0.938704
0.975479 0.887343 0.869139
0.14818 0.957122 0.935699
0.156756 0.957153 0.93576
0.21915 0.957321 0.936278
0.708782 0.973739 0.956146
0.992737 0.995422 0.902495
0.100328 0.955962 0.930877
0.100328 0.955962 0.930877
0.100328 0.955962 0.930877
0.100328 0.955962 0.930877
0.956603 0.506203 0.963134
0.100328 0.955962 0.930877
0.100328 0.955962 0.930877
0.100328 0.955962 0.930877
0.100328 0.955962 0.930877
0.956374 0.513741 0.962676
0.100328 0.955962 0.930877
0.100328 0.955962 0.930877
0.100328 0.955962 0.930877
0.100328 0.955962 0.930877
0.955947 0.561639 0.961074
0.100328 0.955962 0.930877
0.100328 0.955962 0.930877
0.100328 0.955962 0.930877
0.100328 0.955962 0.930877
0.968429 0.818067 0.971191
0.100328 0.955962 0.930877
0.100328 0.955962 0.930877
0.100328 0.955962 0.930877
0.0999313 0.957183 0.934203
1 1 1
