Luts/Fujifilm/FLog2C_to_ETERNA-BB_VLog.cube
TITLE "Generated by Resolve"
LUT_3D_SIZE 33
0.000289921 0.000198367 0.000106813
0.000289921 0.000198367 0.000106813
0.000289921 0.000198367 0.000106813
0.000289921 0.000198367 0.000106813
0.000289921 0.000198367 0.000106813
0.000289921 0.000198367 0.000106813
0.0149386 0.00268559 0.000717174
0.0520943 0.00729381 0.010544
0.0860609 0.0164492 0.0175174
0.132296 0.0245518 0.0311131
0.211643 0.0393683 0.0526741
0.324575 0.0534218 0.0754711
0.436042 0.070634 0.102235
0.534768 0.100984 0.142702
0.613443 0.153124 0.193988
0.671366 0.22179 0.252415
0.709957 0.296483 0.313375
0.751598 0.37319 0.372564
0.753506 0.376837 0.375051
0.753506 0.376837 0.375051
0.753506 0.376837 0.375051
0.753506 0.376837 0.375051
0.753506 0.376837 0.375051
0.753506 0.376837 0.375051
0.765393 0.398291 0.383871
0.782925 0.431647 0.395193
0.801694 0.467399 0.415061
0.825437 0.51223 0.447517
0.848661 0.555688 0.480949
0.874144 0.596536 0.515084
0.895735 0.637705 0.551125
0.915282 0.677287 0.592081
0.934539 0.718715 0.640589
0.000289921 0.000198367 0.000106813
0.000289921 0.000198367 0.000106813
0.000289921 0.000198367 0.000106813
0.000289921 0.000198367 0.000106813
0.000289921 0.000198367 0.000106813
0.000289921 0.000198367 0.000106813
0.0228733 0.00343328 0.00268559
0.0565957 0.00732433 0.0120089
0.0906386 0.0171817 0.0187686
0.137942 0.0255589 0.0328832
0.21886 0.0402686 0.0540627
0.330114 0.0543221 0.0767071
0.439994 0.0712749 0.103624
0.537362 0.102174 0.144091
0.614862 0.154345 0.195163
0.671901 0.222782 0.253254
0.710475 0.297505 0.314168
0.751812 0.373602 0.372854
0.753506 0.376837 0.375051
0.753506 0.376837 0.375051
0.753506 0.376837 0.375051
0.753506 0.376837 0.375051
0.753506 0.376837 0.375051
0.755871 0.38085 0.37702
0.769451 0.406455 0.386419
0.786847 0.437949 0.398047
0.804059 0.472419 0.417548
0.827375 0.51696 0.449714
0.85034 0.558892 0.482353
0.87538 0.598932 0.51606
0.896452 0.639384 0.551705
0.915755 0.678538 0.592309
0.934676 0.719631 0.640864
0.000289921 0.000198367 0.000106813
0.000289921 0.000198367 0.000106813
0.000289921 0.000198367 0.000106813
0.000289921 0.000198367 0.000106813
0.000289921 0.000198367 0.000106813
0.000289921 0.000198367 0.000106813
0.0306554 0.00448615 0.00463874
0.0617075 0.00881972 0.01355
0.0952316 0.0175784 0.0204776
0.143313 0.0264744 0.0345464
0.226047 0.0411994 0.0554665
0.335668 0.0552071 0.0779431
0.443534 0.0718547 0.10486
0.539818 0.103304 0.145388
0.61622 0.15552 0.196307
0.67245 0.223774 0.254108
0.710979 0.298482 0.314946
0.752071 0.37409 0.373205
0.753506 0.376837 0.375051
0.753506 0.376837 0.375051
0.753506 0.376837 0.375051
0.753506 0.376837 0.375051
0.753506 0.376837 0.375051
0.759854 0.387564 0.380346
0.773251 0.414084 0.3888
0.790616 0.444007 0.400778
0.806561 0.477653 0.420157
0.829328 0.521706 0.451911
0.852049 0.561913 0.483665
0.876585 0.601404 0.516945
0.897292 0.64126 0.552407
0.916274 0.679805 0.59263
0.934829 0.720546 0.641138
0.000289921 0.000198367 0.000106813
0.000289921 0.000198367 0.000106813
0.000289921 0.000198367 0.000106813
0.000289921 0.000198367 0.000106813
0.000289921 0.000198367 0.000106813
0.00517281 0.00103761 3.0518e-05
0.0385748 0.00602731 0.00663767
0.0666667 0.0104067 0.0150454
0.0996567 0.0179599 0.0221408
0.14873 0.0274205 0.0362402
0.232853 0.0420844 0.0567788
0.341283 0.0561227 0.0791791
0.447135 0.0724498 0.106126
0.541985 0.104311 0.146548
0.617517 0.156634 0.197375
0.670176 0.220798 0.251453
0.698741 0.273777 0.295766
0.732631 0.339117 0.34699
0.753262 0.37644 0.374777
0.753506 0.376837 0.375051
0.753506 0.376837 0.375051
0.753506 0.376837 0.375051
0.755779 0.380529 0.377295
0.764553 0.396612 0.383261
0.777432 0.421683 0.391669
0.7935 0.450462 0.403021
0.809567 0.483757 0.423423
0.831434 0.525582 0.453849
0.853925 0.564721 0.484977
0.87776 0.603876 0.517769
0.897963 0.642802 0.552926
0.916777 0.681117 0.592859
0.934951 0.72137 0.641382
0.000289921 0.000198367 0.000106813
0.000289921 0.000198367 0.000106813
0.000289921 0.000198367 0.000106813
0.000137331 0.000183108 0.000106813
9.15541e-05 0.00062562 0.000183108
0.011017 0.00280766 6.10361e-05
0.0438849 0.00721752 0.00817884
0.0693217 0.011902 0.0157931
0.100633 0.0180362 0.0240177
0.14789 0.0280919 0.0370031
0.224674 0.0404517 0.0532235
0.324483 0.0512856 0.0754559
0.422507 0.0672618 0.0978408
0.512154 0.0916152 0.132509
0.58735 0.128923 0.171771
0.646265 0.18381 0.220401
0.681117 0.240986 0.268421
0.714168 0.303471 0.319127
0.750072 0.370413 0.37084
0.753506 0.376837 0.375051
0.753506 0.376837 0.375051
0.753979 0.37731 0.375525
0.75935 0.386755 0.380118
0.769116 0.40557 0.385962
0.781491 0.428916 0.394491
0.796338 0.457191 0.405249
0.812589 0.489876 0.426703
0.833646 0.529671 0.455894
0.855909 0.567742 0.486351
0.878843 0.606165 0.518502
0.898772 0.644678 0.553567
0.917235 0.682277 0.593103
0.935119 0.722286 0.641718
0.00463874 0.0269474 0.00799573
0.00476081 0.0275731 0.00830091
0.00489815 0.028397 0.00865187
0.00502022 0.0290837 0.00898756
0.00515755 0.0298466 0.00932326
0.0077821 0.0256199 0.00605783
0.0342107 0.0240787 0.00935378
0.0602426 0.0244755 0.0140688
0.0878157 0.0229496 0.0196384
0.12398 0.0257725 0.0296483
0.181537 0.0366979 0.0467384
0.274647 0.0447852 0.0658427
0.376547 0.0623026 0.0870527
0.472343 0.07776 0.113466
0.556054 0.111131 0.153384
0.62031 0.159335 0.19823
0.669459 0.220417 0.251072
0.700008 0.27837 0.299519
0.740032 0.350668 0.356802
0.753506 0.376837 0.375051
0.75375 0.37731 0.375265
0.756985 0.382879 0.378149
0.76434 0.39588 0.383337
0.773312 0.414496 0.38854
0.785321 0.435935 0.397177
0.798932 0.463371 0.407324
0.815518 0.495766 0.429877
0.835721 0.533486 0.457801
0.85774 0.570489 0.487663
0.880064 0.608637 0.519402
0.899519 0.646357 0.554208
0.917723 0.683528 0.593332
0.935225 0.723125 0.641962
0.0116121 0.0559548 0.0182498
0.0117189 0.0563973 0.0184329
0.0117952 0.056733 0.0185702
0.0118868 0.0570535 0.0187533
0.0119783 0.057435 0.0189212
0.00910964 0.0495918 0.01178
0.0298772 0.0476234 0.0143435
0.0575265 0.0482795 0.0180514
0.0836957 0.0477607 0.0214847
0.116381 0.0484474 0.0287022
0.165469 0.0504005 0.0398871
0.246021 0.0557412 0.0572366
0.344427 0.061326 0.076997
0.442069 0.0734417 0.103777
0.529824 0.09897 0.141756
0.601617 0.140612 0.184558
0.660624 0.202411 0.236591
0.691432 0.260594 0.28452
0.727169 0.32871 0.339971
0.75407 0.379034 0.376577
0.757641 0.384665 0.378622
0.761929 0.392386 0.382239
0.769757 0.406119 0.387182
0.777295 0.423087 0.391058
0.788907 0.443427 0.399756
0.801572 0.469352 0.409506
0.818357 0.501503 0.432944
0.837812 0.537346 0.459754
0.859556 0.573251 0.488975
0.881178 0.610986 0.520134
0.900236 0.64802 0.554788
0.918242 0.684779 0.593668
0.935363 0.724041 0.642237
0.0161288 0.0780194 0.0259556
0.0162051 0.0783703 0.0261082
0.0162966 0.0787671 0.026276
0.0163729 0.079118 0.0264439
0.0153506 0.0774701 0.0251011
0.0133669 0.0687419 0.0167849
0.0250401 0.066743 0.0177768
0.0554208 0.0672465 0.0245518
0.0787976 0.0673533 0.0262303
0.110369 0.0685435 0.0314031
0.152422 0.0699931 0.0382239
0.222477 0.0733959 0.0501259
0.319585 0.0767529 0.0687724
0.417075 0.0844892 0.0924392
0.508431 0.104799 0.129046
0.586252 0.140658 0.173831
0.648859 0.198215 0.226734
0.689082 0.257145 0.275669
0.723156 0.32221 0.32752
0.761242 0.390936 0.380835
0.764584 0.396414 0.382757
0.769085 0.405509 0.385107
0.776303 0.418677 0.391989
0.78294 0.432883 0.395117
0.793042 0.452033 0.402747
0.804959 0.476219 0.412558
0.821653 0.508324 0.436423
0.840223 0.541802 0.461982
0.861708 0.576532 0.490471
0.882567 0.613886 0.521157
0.901137 0.650095 0.55552
0.918883 0.686427 0.593988
0.935546 0.725139 0.642573
0.0231632 0.106233 0.0372778
0.0232395 0.106615 0.0373846
0.0233158 0.10695 0.0374914
0.0233921 0.107256 0.037583
0.0212406 0.0995499 0.0305638
0.0180362 0.0908827 0.0237583
0.0265049 0.087068 0.0233921
0.0527352 0.0875105 0.0285344
0.0777295 0.0855573 0.0320745
0.104082 0.0879377 0.0331884
0.143114 0.0886091 0.0396429
0.205203 0.0909438 0.0488289
0.295018 0.0940261 0.0609445
0.391608 0.0993362 0.0820478
0.487556 0.114794 0.115114
0.572076 0.151598 0.167452
0.639094 0.205722 0.218067
0.694881 0.273442 0.273671
0.7252 0.329854 0.32311
0.765698 0.399893 0.379324
0.77377 0.415579 0.38941
0.777264 0.421836 0.390753
0.783764 0.432105 0.39588
0.790661 0.444984 0.400961
0.798474 0.463066 0.406058
0.809216 0.48484 0.416419
0.82504 0.515801 0.439689
0.843503 0.547738 0.464775
0.864622 0.580941 0.492531
0.884337 0.617594 0.522393
0.902388 0.652949 0.556573
0.919676 0.688441 0.5944
0.935744 0.726513 0.642985
0.0321355 0.145602 0.0497902
0.0322118 0.145968 0.0499123
0.0322881 0.146304 0.0500038
0.0320439 0.145113 0.0493935
0.0269322 0.128481 0.0366217
0.0236515 0.116243 0.0279545
0.024918 0.108995 0.0277104
0.050248 0.109087 0.032639
0.0776074 0.107515 0.0369421
0.100435 0.1084 0.0401007
0.135866 0.10898 0.0415503
0.19028 0.111467 0.0500801
0.273335 0.113664 0.0607767
0.367697 0.117571 0.0769513
0.463752 0.130816 0.102403
0.554742 0.166018 0.155734
0.630884 0.217365 0.212375
0.702281 0.292607 0.273716
0.731655 0.346319 0.320607
0.769467 0.409628 0.372213
0.788067 0.438285 0.399237
0.788357 0.44271 0.398917
0.792157 0.450172 0.402106
0.798428 0.461692 0.404868
0.805325 0.476814 0.409689
0.815381 0.49749 0.422354
0.829541 0.525765 0.444083
0.848127 0.555627 0.467842
0.867994 0.587243 0.49485
0.886778 0.622644 0.524132
0.903883 0.656382 0.557763
0.920729 0.691066 0.595041
0.936065 0.728435 0.643626
0.0460059 0.213123 0.0695811
0.046128 0.213642 0.0697337
0.0462043 0.213993 0.0698405
0.0393988 0.18703 0.0534981
0.0343786 0.164431 0.0420996
0.0311437 0.150927 0.0369268
0.0308843 0.142702 0.0354925
0.0514076 0.139834 0.0383459
0.0775311 0.137118 0.0430304
0.102693 0.135393 0.048249
0.131304 0.135744 0.051606
0.179492 0.136919 0.0530709
0.254734 0.138964 0.0623178
0.347997 0.143938 0.0779278
0.442908 0.154025 0.10045
0.539544 0.184192 0.138628
0.622553 0.241901 0.204364
0.700755 0.314488 0.271427
0.745235 0.376089 0.322087
0.776104 0.42533 0.368429
0.799374 0.464912 0.405432
0.801434 0.468559 0.405859
0.80322 0.472862 0.408362
0.807492 0.481422 0.410574
0.814038 0.494987 0.415702
0.823804 0.515053 0.430747
0.836011 0.53872 0.449271
0.853956 0.565591 0.471794
0.871519 0.596109 0.4972
0.889525 0.629099 0.526314
0.905974 0.661173 0.559487
0.922087 0.694514 0.595728
0.936461 0.730999 0.644388
0.0676738 0.317388 0.0996262
0.0677501 0.317662 0.099733
0.0591745 0.284932 0.0798047
0.0497139 0.245533 0.0590066
0.0450752 0.220508 0.0543679
0.0409247 0.201953 0.0478828
0.0396277 0.191165 0.0460822
0.0543679 0.18436 0.0484474
0.0836652 0.178058 0.0519875
0.105486 0.174105 0.0568093
0.133669 0.172061 0.0617838
0.172503 0.171847 0.0643626
0.241138 0.17406 0.067216
0.330098 0.177676 0.0830243
0.427497 0.189029 0.107225
0.527077 0.218021 0.142458
0.617487 0.273381 0.194766
0.703593 0.345953 0.262669
0.768719 0.421546 0.330114
0.789792 0.452018 0.367254
0.812085 0.492058 0.407492
0.816205 0.499077 0.415625
0.816815 0.501625 0.415869
0.81915 0.506752 0.418311
0.824475 0.517922 0.425635
0.832593 0.534737 0.439033
0.84477 0.5552 0.45536
0.860975 0.578378 0.476921
0.876005 0.607309 0.50016
0.892546 0.637156 0.528893
0.908766 0.667414 0.56144
0.923919 0.699199 0.596628
0.937011 0.734386 0.645472
0.112306 0.446647 0.146105
0.0898756 0.39292 0.112551
0.07364 0.347082 0.090547
0.0654459 0.316533 0.0789502
0.0585184 0.293462 0.0711833
0.0553902 0.275395 0.0661479
0.0538796 0.262364 0.0624247
0.0630198 0.252903 0.062501
0.0912795 0.243702 0.0672007
0.114473 0.235004 0.0710155
0.140124 0.228244 0.0742962
0.176059 0.225986 0.0818799
0.234257 0.226734 0.0871748
0.321492 0.228779 0.0964523
0.418845 0.240742 0.120272
0.521172 0.26981 0.157855
0.620111 0.321218 0.206592
0.710201 0.390555 0.260471
0.788739 0.469154 0.331716
0.808225 0.496635 0.371633
0.825284 0.524742 0.409705
0.830335 0.534813 0.425513
0.831418 0.533394 0.424903
0.833265 0.538262 0.428214
0.838163 0.546227 0.43714
0.845319 0.557855 0.447822
0.856458 0.575586 0.462837
0.869596 0.594842 0.483574
0.882139 0.620478 0.504479
0.896529 0.647776 0.532357
0.912322 0.675319 0.563622
0.926421 0.705028 0.598245
0.938018 0.738643 0.646708
0.130083 0.497169 0.150881
0.111589 0.453086 0.129351
0.098085 0.42121 0.117128
0.0892195 0.395575 0.105959
0.0823529 0.375036 0.098436
0.0768292 0.358404 0.0931716
0.0738994 0.347112 0.0887922
0.082536 0.336706 0.0874189
0.107927 0.327077 0.0912642
0.132586 0.31841 0.0955062
0.15639 0.309255 0.0987716
0.189837 0.302022 0.105119
0.241276 0.29836 0.116976
0.319615 0.304402 0.126894
0.415854 0.31548 0.144457
0.522728 0.340871 0.183337
0.631357 0.388327 0.229007
0.726604 0.452735 0.28191
0.801785 0.519661 0.331899
0.83299 0.553613 0.377966
0.843061 0.564553 0.409308
0.851743 0.575143 0.433539
0.850248 0.571923 0.436042
0.852415 0.572671 0.440452
0.853986 0.578515 0.448218
0.861646 0.58616 0.458045
0.869078 0.59913 0.470008
0.879042 0.615579 0.48893
0.890135 0.636393 0.510201
0.902296 0.660822 0.535958
0.917113 0.685954 0.566629
0.929488 0.712261 0.600107
0.940078 0.743893 0.64799
0.153231 0.546838 0.17142
0.140505 0.520928 0.158755
0.130755 0.498375 0.148928
0.121813 0.478691 0.139971
0.115297 0.462806 0.132799
0.111238 0.450538 0.128023
0.107256 0.440009 0.122988
0.115846 0.430442 0.123186
0.1364 0.421195 0.126192
0.159716 0.41146 0.129244
0.181582 0.401923 0.132982
0.212741 0.393057 0.137758
0.262196 0.38883 0.149783
0.33518 0.391989 0.167834
0.425589 0.403937 0.190021
0.53315 0.428534 0.217899
0.645136 0.470985 0.263584
0.740902 0.524498 0.312764
0.812985 0.579644 0.353613
0.857801 0.619196 0.383948
0.864912 0.617456 0.414359
0.870573 0.619562 0.439521
0.872709 0.615869 0.44712
0.872206 0.61416 0.451606
0.875196 0.614237 0.45922
0.877852 0.618753 0.466377
0.882383 0.627192 0.478065
0.889204 0.640436 0.494972
0.898833 0.65684 0.516335
0.909804 0.676844 0.540124
0.92047 0.698772 0.569528
0.933608 0.721859 0.602731
0.942718 0.750729 0.649699
0.178622 0.608957 0.19765
0.172229 0.591562 0.190829
0.165377 0.576257 0.185
0.159503 0.562997 0.17969
0.155718 0.550988 0.174746
0.152102 0.542382 0.170565
0.151141 0.534981 0.167559
0.159945 0.528084 0.167865
0.17908 0.520867 0.170565
0.201541 0.512886 0.173999
0.220691 0.503853 0.176272
0.248127 0.494652 0.180911
0.293614 0.490455 0.19176
0.363378 0.493675 0.211276
0.448646 0.503685 0.233661
0.551705 0.526726 0.261555
0.662715 0.562387 0.300938
0.755062 0.604349 0.342229
0.827344 0.644572 0.372152
0.877012 0.680461 0.392554
0.884672 0.677668 0.417136
0.88864 0.670665 0.444099
0.89044 0.66244 0.459724
0.88838 0.657786 0.462928
0.889601 0.655314 0.469169
0.891234 0.65594 0.476692
0.895537 0.660853 0.48658
0.899901 0.669032 0.502678
0.907851 0.680888 0.52192
0.915496 0.695781 0.544884
0.924041 0.714763 0.572946
0.936126 0.733761 0.606241
0.94583 0.759472 0.651652
0.202289 0.67042 0.221378
0.199191 0.659724 0.218235
0.196109 0.652232 0.214862
0.192966 0.645075 0.21181
0.189242 0.637415 0.208789
0.188327 0.63183 0.206912
0.190661 0.626627 0.205783
0.197833 0.62182 0.206104
0.220478 0.617914 0.211093
0.240421 0.612573 0.214343
0.260594 0.606455 0.217502
0.287617 0.600717 0.223087
0.329976 0.597177 0.232914
0.395483 0.60061 0.251331
0.479255 0.608957 0.274968
0.578027 0.628916 0.308415
0.679316 0.655985 0.339757
0.769787 0.684779 0.365225
0.837964 0.713558 0.388128
0.888304 0.739406 0.40441
0.90071 0.741756 0.413626
0.903944 0.727962 0.443
0.903853 0.712978 0.464637
0.903105 0.704234 0.471733
0.90367 0.699458 0.476509
0.903365 0.696361 0.483543
0.906142 0.696727 0.495079
0.909743 0.700587 0.507424
0.915816 0.708522 0.526925
0.922713 0.719509 0.550256
0.928893 0.734371 0.576455
0.939025 0.749004 0.610147
0.94786 0.771221 0.652522
0.220157 0.720897 0.239872
0.218555 0.716487 0.238224
0.217288 0.712306 0.236774
0.21651 0.7084 0.235462
0.216419 0.704753 0.234226
0.216281 0.701198 0.233005
0.225177 0.699916 0.235157
0.24004 0.699229 0.239246
0.256718 0.697902 0.243168
0.273075 0.695506 0.245212
0.293462 0.691798 0.250309
0.321447 0.689448 0.256809
0.364599 0.690166 0.267399
0.428367 0.694179 0.286183
0.507088 0.703349 0.310048
0.598367 0.720012 0.332845
0.692119 0.738674 0.356664
0.782605 0.760372 0.3794
0.846769 0.778561 0.39733
0.893126 0.794461 0.409888
0.91725 0.800687 0.414862
0.916503 0.784558 0.434211
0.915984 0.763943 0.462516
0.914092 0.750973 0.475532
0.914794 0.743801 0.481575
0.915923 0.739193 0.489372
0.916411 0.736629 0.499779
0.919341 0.737469 0.513695
0.923003 0.740398 0.531853
0.928115 0.746853 0.553811
0.93547 0.755917 0.580484
0.942092 0.767819 0.612222
0.950561 0.785504 0.654505
0.235447 0.761257 0.253697
0.234501 0.759091 0.253132
0.2336 0.757214 0.252613
0.235859 0.755673 0.252872
0.244343 0.755245 0.254826
0.25243 0.75465 0.256626
0.260258 0.754055 0.258381
0.27042 0.754284 0.260853
0.283986 0.754269 0.264073
0.30071 0.754543 0.26836
0.320775 0.754543 0.273823
0.348775 0.754345 0.281514
0.390478 0.757458 0.292866
0.448737 0.765713 0.307134
0.522454 0.777981 0.325124
0.607309 0.791836 0.344274
0.697078 0.80798 0.364614
0.779873 0.822583 0.384573
0.846204 0.83415 0.398154
0.891524 0.843381 0.408408
0.924361 0.850217 0.414832
0.925765 0.836301 0.416678
0.925048 0.814496 0.450996
0.924269 0.795834 0.473716
0.924971 0.787381 0.48246
0.924651 0.780636 0.491234
0.924865 0.776379 0.501045
0.926299 0.77377 0.515953
0.93051 0.773144 0.533562
0.934508 0.776669 0.556329
0.938933 0.78114 0.583627
0.944152 0.788617 0.614374
0.954208 0.802029 0.65922
0.248615 0.790875 0.266468
0.250065 0.790082 0.266331
0.25153 0.789136 0.266148
0.256214 0.789105 0.267185
0.266621 0.790295 0.270222
0.276783 0.791531 0.273213
0.286564 0.792737 0.276097
0.298283 0.794125 0.279545
0.309529 0.794522 0.282902
0.323354 0.79498 0.287037
0.342123 0.796628 0.291524
0.367025 0.800259 0.29601
0.407477 0.806424 0.306004
0.461753 0.815869 0.317983
0.529366 0.828214 0.332128
0.608957 0.842847 0.349477
0.694972 0.856947 0.367971
0.773907 0.869368 0.383627
0.839216 0.876875 0.395972
0.888304 0.883497 0.405478
0.924193 0.887388 0.411994
0.933516 0.880125 0.413993
0.930816 0.860121 0.426581
0.931151 0.839246 0.466239
0.931243 0.828016 0.47895
0.931334 0.820661 0.488136
0.933577 0.814618 0.498436
0.933562 0.810147 0.513497
0.935515 0.807736 0.532921
0.939315 0.807126 0.555367
0.942199 0.808515 0.583551
0.94873 0.811963 0.613581
0.956161 0.821317 0.659434
0.277256 0.819898 0.280995
0.284489 0.82092 0.282673
0.291478 0.821851 0.284276
0.297795 0.822736 0.28574
0.303746 0.823362 0.287098
0.309407 0.824048 0.288426
0.314977 0.824674 0.289708
0.321706 0.825406 0.291279
0.33048 0.826535 0.29337
0.342977 0.828962 0.296193
0.358648 0.832166 0.299687
0.383352 0.836332 0.304601
0.41883 0.841779 0.311269
0.470268 0.851057 0.322866
0.532433 0.862898 0.336126
0.605524 0.876539 0.351141
0.686 0.891356 0.366827
0.76286 0.901686 0.381659
0.828946 0.910628 0.394354
0.877333 0.91487 0.403845
0.916533 0.916564 0.409689
0.938872 0.912932 0.414466
0.937133 0.898222 0.413687
0.93518 0.878126 0.440314
0.935546 0.863706 0.470909
0.935805 0.856672 0.48217
0.936522 0.851316 0.494255
0.937118 0.844846 0.508858
0.939559 0.840253 0.528801
0.942611 0.838041 0.551476
0.946181 0.836484 0.582132
0.951553 0.837049 0.614588
0.959503 0.842863 0.661631
0.304845 0.842344 0.291752
0.31162 0.844068 0.293278
0.317952 0.845701 0.294713
0.323583 0.847089 0.295964
0.328405 0.84828 0.297017
0.333227 0.849454 0.29807
0.338003 0.850629 0.299107
0.343572 0.852064 0.300313
0.351171 0.853971 0.301976
0.361212 0.856458 0.304097
0.378271 0.859892 0.307347
0.399512 0.864088 0.311437
0.432074 0.870436 0.318334
0.477134 0.879393 0.328405
0.535103 0.890578 0.338979
0.599802 0.902754 0.350805
0.67332 0.915175 0.364294
0.749157 0.924971 0.380606
0.814572 0.933806 0.390051
0.865507 0.937118 0.398611
0.903807 0.937591 0.407309
0.93315 0.935332 0.414267
0.94023 0.926345 0.415702
0.939223 0.910765 0.415366
0.939025 0.894469 0.45211
0.93962 0.887419 0.469596
0.939818 0.881559 0.484047
0.940215 0.876753 0.500038
0.942397 0.871778 0.519814
0.945556 0.866835 0.545769
0.949554 0.864637 0.575723
0.952865 0.861662 0.61268
0.958694 0.865003 0.660136
0.333852 0.851652 0.296925
0.337453 0.852796 0.297688
0.340749 0.853849 0.298375
0.345113 0.855024 0.299397
0.349416 0.856168 0.30042
0.353658 0.857298 0.301442
0.357824 0.858412 0.302434
0.363134 0.859831 0.303685
0.369985 0.861662 0.305318
0.378927 0.864073 0.307439
0.391821 0.867491 0.310445
0.412985 0.872816 0.315282
0.44007 0.879591 0.321538
0.477028 0.888609 0.328557
0.525826 0.900496 0.336828
0.58352 0.913893 0.348608
0.650294 0.92755 0.360616
0.722026 0.939956 0.374411
0.790021 0.948928 0.385504
0.845228 0.953582 0.396292
0.889021 0.953628 0.405798
0.919142 0.952956 0.413184
0.938888 0.948135 0.417319
0.940444 0.936584 0.416663
0.940093 0.921782 0.419425
0.941024 0.912657 0.451087
0.942336 0.907683 0.471229
0.942306 0.902556 0.488869
0.944396 0.896757 0.510597
0.945068 0.892973 0.53608
0.949371 0.889693 0.569009
0.952682 0.886 0.607752
0.95758 0.886748 0.659754
0.362264 0.858717 0.301732
0.364965 0.859434 0.30222
0.368231 0.860319 0.302907
0.371832 0.861311 0.303807
0.375677 0.862364 0.304753
0.3794 0.863386 0.305669
0.38291 0.864363 0.306538
0.387381 0.865583 0.307637
0.393362 0.867216 0.309102
0.401144 0.869352 0.311009
0.411627 0.87219 0.313542
0.42652 0.87602 0.316976
0.449134 0.881392 0.321859
0.477958 0.888304 0.327977
0.516106 0.897551 0.335485
0.563745 0.909209 0.344762
0.621546 0.922621 0.355367
0.687892 0.936141 0.36791
0.756222 0.948547 0.37969
0.819394 0.958587 0.391363
0.867658 0.962814 0.402243
0.904555 0.965148 0.411475
0.932906 0.963623 0.416556
0.941512 0.957061 0.417426
0.941085 0.944961 0.416876
0.940368 0.934157 0.424994
0.942107 0.929 0.445182
0.943481 0.924407 0.471778
0.944503 0.919631 0.496117
0.946822 0.914977 0.521431
0.948974 0.911894 0.555795
0.953689 0.908156 0.599954
0.957244 0.907195 0.656031
0.38706 0.865522 0.309651
0.38941 0.866194 0.310246
0.39234 0.866972 0.310872
0.395834 0.867903 0.31162
0.399054 0.868757 0.312306
0.402167 0.869566 0.312963
0.40528 0.870405 0.313634
0.409201 0.871443 0.314458
0.414191 0.87277 0.315511
0.421134 0.874617 0.316976
0.430396 0.877089 0.318929
0.442283 0.880262 0.321401
0.458976 0.884352 0.324712
0.482536 0.889616 0.329198
0.512474 0.896269 0.334905
0.550988 0.905257 0.342351
0.598138 0.916426 0.351659
0.654688 0.92903 0.361898
0.716426 0.941115 0.373632
0.780377 0.952483 0.384329
0.8365 0.959533 0.395087
0.88098 0.964767 0.405463
0.916518 0.967941 0.412879
0.937911 0.968414 0.418265
0.941039 0.96289 0.418051
0.941604 0.953399 0.417075
0.940673 0.94754 0.421424
0.942657 0.943175 0.439536
0.944778 0.939086 0.473198
0.946014 0.935225 0.501411
0.948653 0.93135 0.535637
0.952117 0.927581 0.5832
0.955581 0.927108 0.645594
0.412329 0.872038 0.314473
0.414939 0.872709 0.315007
0.417273 0.873274 0.31545
0.419791 0.873884 0.315938
0.422202 0.874479 0.316411
0.42472 0.87509 0.316899
0.427329 0.875715 0.317388
0.430289 0.876448 0.317952
0.434241 0.877409 0.318715
0.439857 0.878798 0.319799
0.446937 0.880522 0.321157
0.456687 0.882902 0.323033
0.46923 0.885969 0.325429
0.486061 0.890074 0.328817
0.509117 0.895659 0.333639
0.538643 0.9028 0.339849
0.576181 0.911635 0.347387
0.622614 0.922179 0.356481
0.677287 0.934005 0.365805
0.737789 0.94519 0.376669
0.798108 0.955749 0.387564
0.850385 0.961563 0.39823
0.891875 0.965408 0.408316
0.921874 0.967849 0.414496
0.939101 0.968978 0.418051
0.94136 0.967468 0.419226
0.941512 0.963378 0.418418
0.941421 0.96025 0.420127
0.942046 0.955505 0.430381
0.94519 0.952255 0.474083
0.947753 0.948165 0.51075
0.951858 0.944961 0.557153
0.955444 0.945006 0.625284
0.440894 0.87985 0.321004
0.442512 0.880232 0.321294
0.444526 0.880705 0.32166
0.44654 0.881178 0.322026
0.448295 0.88159 0.322362
0.450477 0.882109 0.322759
0.452079 0.88249 0.323049
0.454612 0.883085 0.323522
0.457618 0.883787 0.324071
0.461723 0.884764 0.324819
0.46743 0.886122 0.325872
0.474968 0.887907 0.327276
0.484764 0.890227 0.329076
0.497398 0.893233 0.331395
0.514855 0.897292 0.334844
0.537667 0.902434 0.339529
