Luts/Fujifilm/FLog2C_to_WDR_VLog.cube
TITLE "Generated by Resolve"
LUT_3D_SIZE 9
0 0 0
0 0 0
0.107042 0.0128023 0.0128023
0.32575 0.0387884 0.0390326
0.650477 0.060914 0.0611429
0.842008 0.0676585 0.0735485
0.845258 0.0680858 0.112749
0.943328 0.332799 0.276371
1 0.666911 0.610132
0 0 0
0 0 0
0.131121 0.0157015 0.0161288
0.333532 0.0396429 0.0401465
0.649516 0.0608835 0.0608835
0.84152 0.0675975 0.0675975
0.844373 0.0679637 0.102037
0.953368 0.362493 0.270085
1 0.671977 0.609628
0.0263371 0.125048 0.0263371
0.026688 0.126741 0.026688
0.102754 0.122774 0.0333104
0.331716 0.0998398 0.0478981
0.635813 0.0602426 0.0602426
0.84152 0.0675975 0.0675975
0.84329 0.0678264 0.0888685
0.964584 0.39321 0.261479
1 0.678096 0.608881
0.0572366 0.322591 0.0572366
0.0569619 0.319799 0.0569619
0.0562448 0.313069 0.0562448
0.307774 0.321248 0.0666819
0.662242 0.285084 0.0705272
0.898466 0.224979 0.0699321
0.913161 0.274098 0.0682689
0.986984 0.466117 0.235294
1 0.695354 0.607004
0.0704967 0.609583 0.0704967
0.0705119 0.606363 0.0705119
0.0705425 0.602319 0.0705425
0.0729686 0.590463 0.070573
0.583993 0.601358 0.0499886
0.922316 0.571481 0.009308
0.998245 0.558984 0.0028687
1 0.611093 0.191211
1 0.740902 0.602121
0.0570382 0.839887 0.0570382
0.0576181 0.837018 0.0576181
0.0582895 0.833631 0.0582895
0.060029 0.824887 0.060029
0.442481 0.849744 0.000595102
0.795316 0.823987 0
1 0.799969 0
1 0.79295 0.133837
1 0.831144 0.592309
0.117311 0.995727 0.00637827
0.147921 0.997177 0.00430304
0.18999 0.998001 0.0030518
0.300725 1 0
0.480415 0.998978 0
0.713741 0.989639 0
0.934554 0.96997 0
1 0.9505 0.11574
1 0.947188 0.583978
0.609705 1 0
0.613169 1 0
0.617395 1 0
0.629511 1 0
0.666163 1 0
0.751141 1 0
0.888212 1 0.0257725
1 1 0.281758
1 1 0.604791
0.844923 1 0.563851
0.845823 1 0.563989
0.846967 1 0.563973
0.850401 1 0.564355
0.861128 1 0.565209
0.891279 1 0.568215
0.957946 1 0.578729
1 1 0.613352
1 1 0.725353
0 0 0
0 0 0
0.122225 0.0146181 0.0146181
0.33193 0.0394293 0.0397192
0.652949 0.0610361 0.0612497
0.842023 0.0676585 0.073579
0.845289 0.0680858 0.113008
0.943252 0.33254 0.276402
1 0.666911 0.610132
0 0 0
0 0 0
0.144717 0.0173342 0.0176242
0.339544 0.0402838 0.0408026
0.651942 0.0609903 0.0609903
0.84152 0.0675975 0.0675975
0.844404 0.0679789 0.102281
0.953292 0.36228 0.270146
1 0.671977 0.609628
0.026215 0.124437 0.026215
0.0261387 0.124086 0.0261387
0.121538 0.122332 0.03505
0.337621 0.0967269 0.0478828
0.638331 0.0603647 0.0603647
0.84152 0.0675975 0.0675975
0.843305 0.0678264 0.0890516
0.964523 0.392981 0.261707
1 0.678096 0.608881
0.0572213 0.322332 0.0572213
0.0568246 0.318471 0.0568246
0.0561379 0.311986 0.0561379
0.316518 0.320867 0.0669108
0.664317 0.284184 0.0705272
0.898283 0.224384 0.0699474
0.913069 0.273762 0.0682841
0.986938 0.465934 0.235554
1 0.695338 0.607126
0.0704967 0.609018 0.0704967
0.0705272 0.605707 0.0705272
0.0705425 0.601663 0.0705425
0.0734264 0.589853 0.070573
0.586984 0.601038 0.0496986
0.922942 0.571237 0.00929274
0.99823 0.558785 0.00289921
1 0.610925 0.191257
1 0.740795 0.602136
0.0571298 0.839445 0.0571298
0.0576944 0.836622 0.0576944
0.058381 0.833219 0.058381
0.06009 0.824552 0.06009
0.445502 0.84976 0.000183108
0.796033 0.823819 0
1 0.799954 0
1 0.792844 0.134188
1 0.831144 0.592309
0.120882 0.996201 0.00572213
0.153048 0.997284 0.0041352
0.194491 0.998093 0.00289921
0.303792 1 0
0.482048 0.998932 0
0.714244 0.989609 0
0.934661 0.969955 0
1 0.9505 0.11574
1 0.947188 0.583978
0.610285 1 0
0.613748 1 0
0.617792 1 0
0.629908 1 0
0.666514 1 0
0.751431 1 0
0.888319 1 0.0260929
1 1 0.282002
1 1 0.604791
0.845029 1 0.563851
0.845945 1 0.563989
0.847089 1 0.563973
0.850507 1 0.564355
0.86125 1 0.565209
0.891386 1 0.568215
0.957946 1 0.578729
1 1 0.613352
1 1 0.725353
0.00474556 0.00474556 0.0964828
0.0047303 0.0047303 0.096025
0.122942 0.0188296 0.109239
0.336767 0.0429389 0.131945
0.659342 0.0627298 0.148531
0.847379 0.0683452 0.13872
0.845304 0.0680858 0.113329
0.943084 0.332036 0.276493
1 0.666896 0.610254
0.00474556 0.00474556 0.0962234
0.0047303 0.0047303 0.0961013
0.144457 0.0214389 0.112322
0.344854 0.0436255 0.132189
0.658106 0.0626535 0.146685
0.846525 0.0682383 0.128206
0.844419 0.0679789 0.102602
0.953216 0.362051 0.270375
1 0.671977 0.609628
0.0281682 0.117586 0.111315
0.0281987 0.117769 0.11104
0.11664 0.11667 0.116899
0.337652 0.0868849 0.129305
0.643702 0.0618296 0.133135
0.84535 0.0680858 0.113817
0.84332 0.0678416 0.0893568
0.964431 0.392767 0.261769
1 0.677943 0.609018
0.0580606 0.320424 0.11104
0.0576638 0.316579 0.109819
0.0569314 0.309773 0.106996
0.315755 0.317067 0.115007
0.664469 0.27924 0.104646
0.897154 0.219333 0.0777447
0.912871 0.273106 0.0683146
0.986893 0.465751 0.23563
1 0.695338 0.607126
0.0705119 0.606088 0.0705119
0.0705272 0.602853 0.0705272
0.0705425 0.598917 0.0705425
0.0728466 0.587045 0.070573
0.586267 0.598215 0.0504768
0.922576 0.569467 0.00985733
0.998215 0.55874 0.00291447
1 0.610925 0.19147
1 0.740795 0.602136
0.057557 0.837308 0.057557
0.0581369 0.834424 0.0581369
0.0587778 0.831159 0.0587778
0.0604868 0.822538 0.0604868
0.44593 0.84828 0
0.796246 0.822965 0
1 0.799924 0
1 0.792828 0.134188
1 0.831052 0.592325
0.123201 0.996567 0.00521859
0.157458 0.997345 0.00404364
0.199023 0.998169 0.00277714
0.306325 1 0
0.483558 0.998764 0
0.714763 0.989563 0
0.934874 0.96994 0
1 0.950484 0.11574
1 0.947188 0.5841
0.610864 1 0
0.614328 1 0
0.618357 1 0
0.630671 1 0
0.667033 1 0
0.75172 1 0
0.888426 1 0.0260777
1 1 0.282002
1 1 0.604791
0.845258 1 0.563851
0.846174 1 0.563989
0.847318 1 0.564111
0.850629 1 0.564355
0.861357 1 0.565209
0.891493 1 0.568215
0.958022 1 0.578729
1 1 0.613352
1 1 0.72546
0.0120699 0.0120699 0.245121
0.0120851 0.0120851 0.245182
0.114961 0.0243687 0.256977
0.34052 0.0477455 0.285435
0.668467 0.0654002 0.317891
0.861936 0.0697642 0.32459
0.859815 0.0695964 0.296513
0.942855 0.331243 0.276921
1 0.666758 0.610269
0.0120699 0.0120699 0.245029
0.0120699 0.0120699 0.245106
0.137255 0.0270237 0.25948
0.349645 0.0484474 0.286519
0.667765 0.0653697 0.316945
0.861631 0.0697337 0.320439
0.859464 0.0695659 0.291966
0.952911 0.361181 0.270787
1 0.671824 0.609766
0.0278935 0.0878614 0.25742
0.0278935 0.087892 0.257145
0.102312 0.0793927 0.262318
0.331365 0.0558022 0.281682
0.653849 0.0648203 0.310414
0.861219 0.0697032 0.315068
0.859022 0.0695201 0.286198
0.964218 0.392096 0.262287
1 0.677806 0.609171
0.0606699 0.313405 0.294255
0.0603342 0.309682 0.293172
0.0596933 0.3028 0.291142
0.307485 0.307454 0.307561
0.666865 0.261738 0.319402
0.9028 0.192203 0.310887
0.919493 0.255039 0.281041
0.986801 0.465354 0.236149
1 0.695201 0.607263
0.0700389 0.605936 0.281971
0.0700999 0.602594 0.281254
0.0701762 0.598627 0.280385
0.0707561 0.586145 0.27744
0.585367 0.592035 0.26714
0.924987 0.558022 0.229587
1 0.549096 0.193988
1 0.61059 0.191775
1 0.740673 0.602274
0.0517433 0.837644 0.193957
0.05243 0.834775 0.193133
0.0531624 0.831449 0.192966
0.0552071 0.822461 0.190951
0.440848 0.841169 0.146166
0.79379 0.815702 0.129458
1 0.793851 0.0929122
1 0.792813 0.134768
1 0.831052 0.592462
0.109651 0.996246 0.0426184
0.144442 0.99707 0.0410468
0.187579 0.997909 0.0389563
0.29929 0.999435 0.0345464
0.47924 0.99498 0.0289464
0.712428 0.984115 0.0180972
0.933761 0.966171 0
1 0.950469 0.116106
1 0.947112 0.584115
0.610315 1 0.0574807
0.613794 1 0.0570535
0.617853 1 0.0569619
0.630213 1 0.0559854
0.666468 1 0.054139
0.751431 1 0.0469978
0.888792 1 0.03299
1 1 0.282246
1 1 0.604929
0.845716 1 0.563851
0.846632 1 0.563973
0.847776 1 0.564111
0.851194 1 0.56434
0.861814 1 0.565209
0.89192 1 0.568353
0.958282 1 0.578729
1 1 0.613474
1 1 0.72546
0.0220798 0.0220798 0.44828
0.0220798 0.0220798 0.44828
0.062974 0.0269627 0.452964
0.332433 0.0526894 0.496956
0.674052 0.0679332 0.546014
0.879194 0.0705577 0.565164
0.878355 0.0705425 0.552834
0.945541 0.282795 0.558663
1 0.666209 0.610574
0.0220798 0.0220798 0.44828
0.0220798 0.0220798 0.44828
0.0949111 0.0307927 0.456748
0.342901 0.0533913 0.498772
0.674693 0.0679484 0.545769
0.879042 0.0705577 0.562844
0.878202 0.0705425 0.550546
0.957534 0.316945 0.560098
1 0.671275 0.610086
0.0219883 0.0220035 0.446403
0.0219883 0.0220035 0.446281
0.0441138 0.0246281 0.448646
0.322377 0.051957 0.492805
0.660792 0.0675975 0.541192
0.878843 0.0705577 0.559869
0.877989 0.0705425 0.547585
0.970123 0.350851 0.560174
1 0.677363 0.609583
0.0612802 0.278065 0.513283
0.0609903 0.274693 0.512169
0.0602731 0.266896 0.509575
0.287602 0.262516 0.536797
0.653925 0.19968 0.559304
0.887404 0.0979477 0.556451
0.913252 0.18117 0.558251
0.993225 0.429358 0.554696
1 0.694804 0.607569
0.0690623 0.591501 0.554711
0.0691844 0.588067 0.553872
0.0693065 0.583947 0.553002
0.0696727 0.571176 0.550134
0.570397 0.570062 0.570184
0.919615 0.528206 0.567498
1 0.518456 0.556649
1 0.585122 0.538643
1 0.740414 0.602564
0.0364843 0.834302 0.541009
0.0372473 0.831342 0.540551
0.0381018 0.82797 0.540566
0.0403754 0.818998 0.539544
0.425681 0.822339 0.536126
0.787015 0.795911 0.531975
1 0.773281 0.52433
1 0.773922 0.513161
1 0.830839 0.592752
0.0682689 0.992416 0.504555
0.104662 0.991897 0.504311
0.153613 0.991257 0.504189
0.279637 0.989395 0.503822
0.467658 0.982544 0.502708
0.705119 0.968261 0.499641
0.928573 0.949752 0.493797
1 0.936416 0.486458
1 0.947097 0.584527
0.602502 1 0.491157
0.606027 1 0.491127
0.610132 1 0.491096
0.622461 1 0.490822
0.659358 1 0.490181
0.745312 1 0.488548
0.883558 1 0.484886
1 1 0.482444
1 1 0.605188
0.845228 1 0.618036
0.846143 1 0.618021
0.847288 1 0.618006
0.850614 1 0.617975
0.861402 1 0.617746
0.891463 1 0.617456
0.957824 1 0.617258
1 1 0.621317
1 1 0.725567
0.0297856 0.0297856 0.604669
0.0297856 0.0297856 0.604654
0.0297856 0.0297856 0.604593
0.284672 0.0534676 0.655177
0.662272 0.0690318 0.723247
0.891539 0.0704356 0.752728
0.891096 0.0704509 0.7458
0.933806 0.212833 0.761639
1 0.643336 0.790906
0.0297856 0.0297856 0.604669
0.0297856 0.0297856 0.604654
0.0297856 0.0297856 0.604562
0.297246 0.0543221 0.657893
0.66598 0.0691081 0.723781
0.891447 0.0704356 0.751431
0.89099 0.0704509 0.744152
0.949599 0.256992 0.771221
1 0.648615 0.790433
0.0297398 0.0297398 0.603601
0.0297398 0.0297398 0.603571
0.0297246 0.0297246 0.603464
0.283864 0.0533761 0.653651
0.653681 0.068864 0.720073
0.891325 0.0704509 0.74931
0.890852 0.0704662 0.741939
0.966262 0.297246 0.780529
1 0.654948 0.78996
0.0595254 0.227146 0.67039
0.0595712 0.227634 0.670527
0.0586252 0.218463 0.66688
0.217426 0.201373 0.688029
0.619699 0.108415 0.719875
0.890913 0.0704662 0.742855
0.901579 0.103853 0.744411
0.99295 0.383795 0.791241
1 0.672877 0.788342
0.0684825 0.57084 0.750225
0.0686198 0.567178 0.749325
0.0687724 0.563058 0.748257
0.0692454 0.549523 0.744732
0.552651 0.538125 0.790768
0.910292 0.492485 0.800366
1 0.480949 0.794598
1 0.551415 0.784085
1 0.719936 0.783902
0.0286564 0.819852 0.770535
0.0294804 0.816831 0.76994
0.030457 0.81326 0.769238
0.0330053 0.803861 0.767376
0.398398 0.799832 0.778134
0.773846 0.773434 0.773831
0.999527 0.748348 0.772107
1 0.748669 0.766445
1 0.812955 0.774365
0.0328527 0.975753 0.755367
0.0544442 0.974914 0.755291
0.106493 0.973922 0.755215
0.247486 0.97116 0.754971
0.450446 0.96376 0.754238
0.695415 0.948913 0.752743
0.922148 0.929778 0.750149
1 0.915984 0.746899
1 0.932143 0.76083
0.592187 1 0.738399
0.595773 1 0.738384
0.599939 1 0.738354
0.612665 1 0.738293
0.650172 1 0.738079
0.737423 1 0.737331
0.877317 1 0.735821
1 1 0.734279
1 1 0.753613
0.841138 1 0.769024
0.842069 1 0.769024
0.843214 1 0.769009
0.846677 1 0.768978
0.857404 1 0.768902
0.887602 1 0.768673
0.954299 1 0.768124
1 1 0.769024
1 1 0.791669
0.0350042 0.0350042 0.710475
0.0350042 0.0350042 0.710475
0.0350042 0.0350042 0.710475
0.0350042 0.0350042 0.710384
0.582513 0.0682994 0.832242
0.899474 0.0700084 0.881544
0.899229 0.0700236 0.877562
0.927169 0.159869 0.890578
1 0.621286 0.93901
0.0350042 0.0350042 0.710475
0.0350042 0.0350042 0.710475
0.0350042 0.0350042 0.710475
0.0349889 0.0349889 0.710353
0.587427 0.0684062 0.833127
0.899474 0.0700084 0.881544
0.899153 0.0700389 0.876097
0.944396 0.208957 0.905638
1 0.626642 0.938628
0.0350042 0.0350042 0.710475
0.0350042 0.0350042 0.710475
0.0350042 0.0350042 0.710475
0.0349889 0.0349889 0.710323
0.59263 0.0685283 0.833921
0.899397 0.0700084 0.880201
0.899046 0.0700389 0.874296
0.962203 0.25922 0.920974
1 0.633112 0.93817
0.0586404 0.198566 0.777523
0.0587472 0.199542 0.777935
0.0589761 0.201724 0.778836
0.0571908 0.184588 0.77116
0.548363 0.0822309 0.825467
0.893248 0.0700847 0.873945
0.901976 0.0804913 0.872053
0.992935 0.350301 0.94519
1 0.651453 0.936843
0.0679179 0.559411 0.883284
0.0679026 0.559564 0.883299
0.0679789 0.5579 0.882795
0.0685283 0.544182 0.878843
0.468482 0.522835 0.927794
0.890776 0.468498 0.955215
1 0.453895 0.950851
1 0.525185 0.94284
1 0.69958 0.933135
0.0223239 0.812863 0.926146
0.0232242 0.809735 0.925368
0.0243076 0.805982 0.924392
0.0274205 0.795026 0.921538
0.308385 0.783902 0.937285
0.759258 0.753063 0.935302
0.998642 0.727382 0.932647
1 0.727306 0.928527
1 0.794247 0.925109
0.0024567 0.961273 0.918379
0.00428779 0.960388 0.918303
0.00646983 0.959274 0.918227
0.136858 0.956237 0.918029
0.409079 0.948104 0.917479
0.680644 0.932311 0.916304
0.913634 0.913024 0.913466
1 0.898009 0.912291
1 0.915755 0.913115
0.5776 1 0.902647
0.581643 1 0.902632
0.586069 1 0.902617
0.599191 1 0.902556
0.638453 1 0.902373
0.72871 1 0.901869
0.871565 1 0.900908
1 1 0.899733
1 1 0.903181
0.837247 1 0.907759
0.838178 1 0.907744
0.839338 1 0.907744
0.84271 1 0.907713
0.85362 1 0.907652
0.883833 1 0.907454
0.950835 1 0.90695
1 1 0.906752
1 1 0.911864
0.0677195 0.317464 0.843503
0.0677348 0.317678 0.843595
0.0677348 0.317678 0.843595
0.0677348 0.317678 0.843595
0.0677348 0.317906 0.843671
0.768185 0.127871 0.897032
0.900618 0.0699168 0.900618
0.957794 0.242267 0.957794
1 0.618082 1
0.0677195 0.317464 0.843503
0.0677348 0.317678 0.843595
0.0677348 0.317678 0.843595
0.0677348 0.317678 0.843595
0.0677348 0.317906 0.843671
0.769879 0.127245 0.897108
0.900618 0.0699168 0.900618
0.97084 0.273381 0.97084
1 0.623316 1
0.0677195 0.317464 0.843503
0.0677348 0.317678 0.843595
0.0677348 0.317678 0.843595
0.0677348 0.317678 0.843595
0.0677348 0.317906 0.843671
0.771984 0.126436 0.8972
0.900618 0.0699168 0.900618
0.981231 0.30338 0.981231
1 0.629419 1
0.0677348 0.317678 0.843595
0.0677653 0.318349 0.843839
0.0678111 0.319463 0.844236
0.0679637 0.322805 0.845457
0.068452 0.333501 0.849363
0.786908 0.21622 0.924315
0.94049 0.197452 0.94049
0.997482 0.377447 0.997482
1 0.646342 1
0.0665751 0.580484 0.923629
0.0665446 0.580774 0.923705
0.0665293 0.581064 0.923766
0.0664836 0.581949 0.92398
0.0663005 0.585031 0.924712
0.743877 0.513695 0.999649
1 0.475471 1
1 0.529183 1
1 0.692348 1
0.0154269 0.824842 0.9897
0.0154269 0.824842 0.9897
0.0153964 0.824948 0.989715
0.0153201 0.825177 0.989776
0.0178836 0.816587 0.987854
0.623987 0.758618 1
0.990829 0.72253 1
1 0.7187 1
1 0.783993 1
0 0.981125 1
0 0.978668 1
0 0.975891 1
0 0.96846 1
0 0.952132 1
0.588312 0.927413 1
0.897353 0.902434 1
1 0.886397 1
1 0.904463 1
0.492195 1 1
0.498161 1 1
0.505486 1 1
0.525444 1 1
0.580041 1 1
0.695613 1 1
0.860105 1 1
1 1 1
1 1 1
0.828229 1 1
0.829282 1 1
0.830457 1 1
0.834073 1 1
0.845518 1 1
0.877653 1 1
0.947433 1 1
1 1 1
1 1 1
0.0256352 0.789944 0.981613
0.0256352 0.789944 0.981613
0.0256352 0.789944 0.981613
0.0256352 0.789944 0.981613
0.0256352 0.789944 0.981613
0.0255894 0.790051 0.981643
0.0254978 0.790417 0.98172
1 0.650843 1
1 0.729976 1
0.0256352 0.789944 0.981613
0.0256352 0.789944 0.981613
0.0256352 0.789944 0.981613
0.0256352 0.789944 0.981613
0.0256352 0.789944 0.981613
0.0255894 0.790051 0.981643
0.0254978 0.790417 0.98172
1 0.650813 1
1 0.732265 1
0.0256352 0.789944 0.981613
0.0256352 0.789944 0.981613
0.0256352 0.789944 0.981613
0.0256352 0.789944 0.981613
0.0256352 0.789944 0.981613
0.0255894 0.790051 0.981643
0.0254978 0.790417 0.98172
1 0.650797 1
1 0.735225 1
0.0256352 0.789944 0.981613
0.0256352 0.789944 0.981613
0.0256352 0.789944 0.981613
0.0256352 0.789944 0.981613
0.0256352 0.789944 0.981613
0.0255894 0.790051 0.981643
0.0254978 0.790417 0.98172
1 0.659342 1
1 0.743633 1
0.024567 0.793606 0.982483
0.0245365 0.793729 0.982513
0.0245365 0.793729 0.982513
0.0244297 0.794079 0.982589
0.0241245 0.795148 0.982849
0.0231785 0.798459 0.983642
0.0201114 0.809094 0.986175
1 0.703395 1
1 0.76791 1
0 0.897871 1
0 0.897871 1
0 0.897963 1
0 0.898054 1
0 0.898482 1
0 0.899931 1
0 0.904448 1
1 0.792081 1
1 0.825437 1
0 1 1
0 1 1
0 1 1
0 1 1
0 1 1
0 1 1
0 1 1
1 0.909377 1
1 0.917861 1
0 1 1
0 1 1
0 1 1
0 1 1
0 1 1
0 1 1
0 1 1
0.972427 1 1
1 1 1
0 1 1
0 1 1
0 1 1
0 1 1
0 1 1
0 1 1
0.801495 1 1
1 1 1
1 1 1
