Luts/Fujifilm/FLog2C_to_Velvia_VLog.cube
TITLE "Generated by Resolve"
#LUMIXPHOTOSTYLE VLOG
LUT_3D_SIZE 9
0 0 0
0.000762951 0 0
0.367926 0 0
0.999237 0.0192874 0.246937
0.999893 0.286793 0.492287
0.999893 0.286793 0.492287
0.999756 0.291524 0.490379
0.999695 0.413138 0.357763
0.999451 0.563592 0.120821
0.000518807 0.000518807 0.000518807
0 0 0
0.21265 1.5259e-05 0.00161746
0.852598 0.000259403 0.0752728
0.999359 0.156573 0.488273
0.999893 0.286793 0.492287
0.999588 0.317922 0.463111
0.999588 0.425727 0.342443
0.999405 0.56846 0.110994
0 0.144076 0
0.000122072 0.0644388 0.000656138
0.0572824 0.0374609 0.000640879
0.591974 0.01738 0
0.999496 0.11043 0.338994
0.999924 0.311208 0.470039
0.999069 0.349737 0.430533
0.99971 0.439719 0.322087
0.99942 0.574105 0.0990311
0.000198367 0.588403 0.00047303
0 0.427878 0
0 0.359045 0.000503548
0.375662 0.301366 3.0518e-05
0.996475 0.336629 0.000396735
0.999374 0.427497 0.326207
0.999405 0.428489 0.338079
0.999619 0.477348 0.269612
0.999603 0.589487 0.0639353
0 0.857801 0.000732433
1.5259e-05 0.824155 0.000671397
6.10361e-05 0.795316 7.62951e-05
0.00729381 0.74873 0.000289921
0.761868 0.637613 4.57771e-05
0.999039 0.63331 0
0.999374 0.578149 0.0905928
0.999115 0.572717 0.100298
0.999161 0.638102 0
0 1 0.000289921
0 1 0.000289921
0 1 0.000289921
0 1 0.000289921
0.311955 0.980865 0.000137331
0.998566 0.859998 0
0.998932 0.743954 0.000274662
0.999252 0.713405 0.000106813
0.999741 0.71165 0.000534066
0 1 0.000289921
0 1 0.000289921
0 1 0.000289921
0 1 0.000289921
0 1 0.000289921
0.705821 0.999985 0.000213626
0.999771 0.950607 0
0.999207 0.901106 0.000366217
0.999557 0.861936 0
0 1 0.000289921
0 1 0.000289921
0 1 0.000289921
0 1 0.000289921
0 1 0.000289921
0.162417 0.999557 0.000198367
0.970291 0.977188 0.000244144
0.998764 0.969085 0
0.998962 0.968048 0.000167849
0.316091 0.999435 3.0518e-05
0.323445 0.99942 3.0518e-05
0.33135 0.999405 1.5259e-05
0.351614 0.99939 0
0.400656 0.999435 0
0.551293 0.999557 0
0.826398 0.996017 0.000656138
0.998627 0.968948 0
0.998627 0.968948 0
0 0 0
0.00047303 0.000122072 0
0.331746 0.000122072 0.000289921
0.999695 0.00985733 0.21149
0.999893 0.286793 0.492287
0.999893 0.286793 0.492287
0.999756 0.291737 0.490288
0.999695 0.413336 0.357534
0.999451 0.563714 0.120577
0.000411994 0.00201419 0.000167849
0 0 0
0.178851 0.00015259 0.00166323
0.803128 3.0518e-05 0.0554208
0.999893 0.13756 0.485863
0.999893 0.286793 0.492287
0.999741 0.319875 0.462028
0.999588 0.425925 0.342214
0.999405 0.568582 0.11075
0 0.169284 0.000976577
1.5259e-05 0.0736858 0.00015259
0.0371252 0.043061 0.000320439
0.554696 0.0248112 4.57771e-05
0.999832 0.113359 0.288121
0.999496 0.318791 0.462516
0.99913 0.35021 0.430259
0.99971 0.439887 0.321813
0.99942 0.574197 0.0987869
0 0.61941 0.00015259
0.000198367 0.454215 0
0.000183108 0.377691 0.000671397
0.322698 0.319539 9.15541e-05
0.977737 0.347204 1.5259e-05
0.99942 0.431464 0.30544
0.999817 0.429694 0.335149
0.999619 0.47744 0.269459
0.999603 0.589487 0.0639353
0 0.8748 0.000396735
3.0518e-05 0.841184 0.000579843
3.0518e-05 0.812039 0.000549325
1.5259e-05 0.763821 0.000198367
0.717311 0.652308 0.000167849
0.999313 0.638788 3.0518e-05
0.999039 0.580758 0.0870222
0.999115 0.572717 0.100298
0.999161 0.638102 0
0 1 0.000289921
0 1 0.000289921
0 1 0.000289921
0 1 0.000289921
0.169207 0.996704 0.000350958
0.999588 0.871092 0
0.998856 0.747951 3.0518e-05
0.999252 0.713405 0.000106813
0.999741 0.71165 0.000534066
0 1 0.000289921
0 1 0.000289921
0 1 0.000289921
0 1 0.000289921
0 1 0.000289921
0.585245 0.999741 0.000137331
0.999664 0.957992 0.000122072
0.999207 0.901106 0.000366217
0.999557 0.861936 0
0 1 0.000289921
0 1 0.000289921
0 1 0.000289921
0 1 0.000289921
0 1 0.000289921
0 1 0.000289921
0.876204 0.988815 0.000274662
0.998627 0.968948 0
0.998962 0.968048 0.000167849
0.294881 0.999619 0.000122072
0.302174 0.999603 0.000106813
0.30988 0.999603 0.000106813
0.330083 0.999588 7.62951e-05
0.380591 0.999573 6.10361e-05
0.535164 0.999603 3.0518e-05
0.807614 0.997543 0.00015259
0.998627 0.968948 0
0.998627 0.968948 0
0 0.000274662 0.0386206
0.000167849 6.10361e-05 0.0154116
0.286915 1.5259e-05 0.00766003
0.985107 1.5259e-05 0.165316
0.999893 0.281758 0.492226
0.999893 0.286793 0.492287
0.999573 0.303853 0.476066
0.999603 0.423529 0.344976
0.999435 0.563836 0.120333
3.0518e-05 1.5259e-05 0.108659
0 6.10361e-05 0.0485389
0.162295 0.000106813 0.0346685
0.739818 0.000122072 0.0824445
0.999664 0.10573 0.479057
0.999893 0.286793 0.492287
0.999008 0.336919 0.443976
0.999344 0.435477 0.330022
0.999405 0.568582 0.11075
1.5259e-05 0.188128 0.23064
0.000274662 0.0813153 0.0892958
0.037232 0.04477 0.049836
0.533455 0.0184787 0.0546426
0.999496 0.0995804 0.305135
0.999542 0.333181 0.447639
0.999619 0.36968 0.407416
0.999542 0.449561 0.31014
0.99942 0.574197 0.0987869
9.15541e-05 0.636927 0.0607156
0.000106813 0.499397 0.000213626
1.5259e-05 0.428885 0.000518807
0.307271 0.345968 0.00047303
0.937453 0.33753 0.00497444
0.999573 0.436133 0.340093
0.999649 0.449317 0.308965
0.999634 0.488518 0.252232
0.999603 0.589593 0.0636912
0 0.907271 0.000411994
3.0518e-05 0.872999 0.000137331
0.000137331 0.845899 0.000579843
0.000167849 0.795483 0.000198367
0.677256 0.673594 0.00015259
0.999542 0.656962 0.00961318
0.999435 0.598932 0.13225
0.999512 0.586984 0.0720684
0.999161 0.638102 0
0 1 0.000289921
0 1 0.000289921
0 1 0.000289921
0 1 0.000289921
0.0150759 0.999237 0.000274662
0.995117 0.887953 0
0.999008 0.790967 0.000106813
0.999649 0.72192 0.000503548
0.999741 0.71165 0.000534066
0 1 0.000289921
0 1 0.000289921
0 1 0.000289921
0 1 0.000289921
0 1 0.000289921
0.470039 0.999435 0.000289921
0.999344 0.96495 4.57771e-05
0.999161 0.915801 0.000122072
0.999557 0.861936 0
0 1 0.000289921
0 1 0.000289921
0 1 0.000289921
0 1 0.000289921
0 1 0.000289921
0 1 0.000289921
0.818967 0.994827 0.000259403
0.998627 0.968948 0
0.998962 0.968048 0.000167849
0.279591 0.999695 0.000610361
0.28658 0.99968 0.000610361
0.293965 0.999664 0.00062562
0.31371 0.999649 0.00062562
0.364141 0.999588 0.000503548
0.51902 0.999435 0.000259403
0.79266 0.99942 0.000366217
0.998856 0.969177 0
0.998627 0.968948 0
0.000534066 0.000198367 0.280613
0.000457771 0 0.187839
0.305882 0.000198367 0.149523
0.975097 0.000228885 0.331701
0.999649 0.27013 0.517952
0.999969 0.28838 0.537652
0.999939 0.322972 0.5402
0.999664 0.446067 0.406851
0.999557 0.591012 0.0635843
0.0111391 1.5259e-05 0.492729
0.00299077 0.000289921 0.334737
0.182559 9.15541e-05 0.253986
0.719921 0.000122072 0.354406
0.999481 0.0255589 0.659602
0.999847 0.295613 0.591577
0.999664 0.354635 0.530434
0.999771 0.458137 0.397986
0.999557 0.595834 0.0535592
0.000411994 0.170947 0.762417
0.000335698 0.0635538 0.539284
0.0582742 0.0222629 0.400259
0.549386 1.5259e-05 0.404059
0.999817 0.0364691 0.571649
0.999222 0.352911 0.583215
0.99942 0.385824 0.5178
0.999557 0.472724 0.388724
0.999542 0.601633 0.0429999
0.000427253 0.621592 0.669047
0.000289921 0.49688 0.524132
0.000289921 0.42649 0.450126
0.317571 0.333333 0.361364
0.912932 0.305699 0.387076
0.999863 0.430915 0.533913
0.999725 0.459525 0.485115
0.999298 0.508614 0.362966
0.99939 0.618585 0.0173037
3.0518e-05 0.89546 0.322591
0.000137331 0.856886 0.282475
1.5259e-05 0.826841 0.250095
0.000244144 0.776898 0.20148
0.63772 0.672389 0.156237
0.999542 0.636027 0.336904
0.999847 0.594736 0.401617
0.999252 0.598138 0.284504
0.9991 0.667216 3.0518e-05
0 1 0.000289921
0 1 0.000289921
0 1 0.000289921
0 1 0.000289921
0.00782788 0.999985 0.000274662
0.964736 0.94435 0
0.998947 0.816434 0.15172
0.999176 0.771359 0.0511635
0.999557 0.731319 4.57771e-05
0 1 0.000289921
0 1 0.000289921
0 1 0.000289921
0 1 0.000289921
0 1 0.000289921
0.327291 0.999863 0.000442512
0.998978 0.966766 6.10361e-05
0.998947 0.923354 4.57771e-05
0.99913 0.885924 3.0518e-05
0 1 0.000289921
0 1 0.000289921
0 1 0.000289921
0 1 0.000289921
0 1 0.000289921
0 1 0.000289921
0.738399 0.999603 0.000244144
0.99939 0.969635 4.57771e-05
0.998962 0.969146 9.15541e-05
0.256413 1 4.57771e-05
0.263233 1 4.57771e-05
0.270039 1 3.0518e-05
0.28864 0.999985 4.57771e-05
0.338949 0.999832 0.000122072
0.494408 0.999359 0.000411994
0.761227 0.999344 0
0.998627 0.968612 0.000228885
0.998627 0.968948 0
0.0416876 0.000213626 0.743694
0.0223545 0.00015259 0.621012
0.363317 0.000106813 0.525505
0.962371 3.0518e-05 0.65745
0.999878 0.205707 0.684749
0.999695 0.278828 0.684565
0.999847 0.333577 0.677119
0.999481 0.461433 0.60351
0.999344 0.591272 0.444984
0.143832 0.000198367 0.906554
0.0787213 0.000244144 0.84271
0.240864 0.000183108 0.740063
0.710735 0.000274662 0.76788
0.999939 7.62951e-05 0.931136
0.999878 0.274708 0.729488
0.999908 0.369497 0.671717
0.999283 0.47216 0.600626
0.999344 0.595514 0.442115
0.0798657 0.100923 0.999466
0.0486 0.0158846 0.910384
0.145159 1.5259e-05 0.888869
0.593957 0.000183108 0.884611
0.999725 0.000122072 0.8916
0.999634 0.328359 0.732631
0.999786 0.4038 0.669825
0.99968 0.483986 0.598383
0.999359 0.600381 0.438544
0.000183108 0.571099 0.999588
0.000564584 0.461814 0.997787
0.000228885 0.397696 0.954803
0.378882 0.292927 0.852125
0.907332 0.251362 0.785458
0.999893 0.40499 0.745495
0.999557 0.476417 0.66215
0.999649 0.515419 0.586175
0.999435 0.614054 0.428367
0.000442512 0.851148 0.904494
6.10361e-05 0.827253 0.862715
0.00015259 0.798535 0.822812
0.000488289 0.74815 0.764874
0.627024 0.64155 0.666072
0.999771 0.606119 0.670909
0.999512 0.594553 0.628885
0.999832 0.593866 0.551705
0.999695 0.654734 0.397559
0.000213626 0.999496 0.524559
0.000198367 0.99942 0.516213
6.10361e-05 0.99971 0.508659
9.15541e-05 0.999695 0.489708
0.004654 0.999527 0.459907
0.893034 0.931579 0.404807
0.999542 0.795041 0.498222
0.999786 0.749401 0.4439
0.999313 0.760876 0.289158
0 0.999786 0.0368353
0 0.999878 0.0363928
0 0.999939 0.0358282
0 0.999649 0.0370489
0 0.999817 0.0408179
0.170443 0.999802 0.0137484
0.999084 0.999817 0.0501869
0.998978 0.989776 0.0960403
0.998947 0.960525 0.000595102
0 1 0.000289921
0 1 0.000289921
0 1 0.000289921
0 1 0.000289921
0 1 0.000289921
0 1 0.000289921
0.654002 0.999451 0.000320439
0.998962 0.970306 0.000350958
0.999039 0.968399 0.000228885
0.239734 0.999771 0.116304
0.245396 0.999771 0.115282
0.251392 0.999771 0.113695
0.267994 0.999756 0.109575
0.311376 0.999741 0.0979324
0.446998 0.99971 0.062089
0.697047 0.999908 0.00611887
0.999512 0.999466 0.0213169
0.998627 0.968612 0.000228885
0.277317 0.000244144 0.999634
0.215106 0.000213626 0.976837
0.41651 0.000167849 0.999756
0.851499 6.10361e-05 0.999405
1 0 0.99971
0.999985 0.155047 0.921324
0.999893 0.28513 0.849683
0.999786 0.444465 0.773617
0.999359 0.594705 0.692195
0.474983 4.57771e-05 0.999802
0.385748 9.15541e-05 0.999481
0.376349 9.15541e-05 0.999649
0.707362 6.10361e-05 0.999634
1 0 0.99971
0.999756 0.196094 0.945678
0.999603 0.321187 0.848096
0.999832 0.456748 0.772793
0.999298 0.598199 0.691142
0.451896 0.000106813 0.999557
0.378302 0.000122072 0.999466
0.350637 0.000350958 0.999557
0.647913 0.000198367 0.999817
1 0 0.99971
0.99968 0.212558 0.986664
0.999985 0.356725 0.845685
0.999924 0.470954 0.771969
0.99939 0.601968 0.690349
0.131289 0.426291 0.999939
0.14435 0.35346 0.999969
0.137133 0.296132 0.999863
0.493523 0.180331 0.999664
0.921508 0.126101 0.999191
0.999634 0.308675 0.999664
0.999573 0.436286 0.838026
0.999725 0.507088 0.768048
0.999649 0.612802 0.688075
0.00062562 0.745617 0.999985
0.000335698 0.728817 0.999878
0.000335698 0.713359 0.999908
0.0510719 0.669337 0.999908
0.65481 0.580575 0.999969
0.999832 0.535393 0.999634
0.999847 0.575387 0.827329
0.999527 0.593088 0.761257
0.999252 0.647623 0.676585
0.000564584 0.943816 0.999939
0.000457771 0.942153 0.999878
0.000427253 0.940291 0.999969
0.000274662 0.934508 0.995315
9.15541e-05 0.95024 0.978683
0.837339 0.855482 0.883284
0.999619 0.770642 0.807416
0.999847 0.730022 0.728359
0.999695 0.737499 0.630304
0.000167849 0.999863 0.669215
7.62951e-05 0.999908 0.66746
1.5259e-05 0.999939 0.666087
0.000289921 0.999695 0.66186
0.00015259 0.999634 0.650156
0.013138 0.999786 0.619547
0.988022 0.999252 0.535332
0.999527 0.950072 0.546593
0.999496 0.923873 0.466331
0.000320439 0.999832 0.536706
0.00030518 0.999832 0.53518
0.00030518 0.999847 0.533059
0.000289921 0.999771 0.52723
0.000228885 0.999481 0.511925
3.0518e-05 0.999878 0.477424
0.574685 0.999664 0.344961
0.9991 0.999573 0.209979
0.998856 0.999695 0.074052
0.232975 0.999359 0.644953
0.238804 0.999344 0.643992
0.244144 0.999329 0.64332
0.260121 0.999313 0.641093
0.304143 0.99939 0.635493
0.440681 0.999603 0.618036
0.650919 0.999557 0.566857
0.996475 0.999817 0.427741
0.999084 0.99942 0.172305
0.526757 0.000274662 0.999878
0.524254 0.000213626 0.999725
0.521126 0.000137331 0.999481
0.745541 0.00015259 0.999802
1 0 0.99971
1 0 0.99971
0.999741 0.201938 0.999405
0.999908 0.376974 0.995224
0.999802 0.552682 0.91078
0.534386 0.000411994 0.99971
0.532586 0.000259403 0.999939
0.528023 6.10361e-05 0.999802
0.73283 4.57771e-05 0.999603
1 0 0.99971
1 0 0.99971
0.999908 0.235554 0.999741
0.999893 0.389593 0.994766
0.999832 0.556542 0.910567
0.520012 0.000167849 0.999741
0.51873 0 0.999115
0.516289 0.000183108 0.99942
0.697093 0.000137331 0.999451
0.999893 0 0.99971
1 0 0.99971
0.99971 0.272175 0.999817
0.999603 0.40502 0.995026
0.999863 0.561196 0.910323
0.405829 0.13518 0.999649
0.415702 0.0791943 0.999634
0.420157 0.0508583 0.999176
0.595514 0.0257725 0.999573
0.953368 3.0518e-05 0.999054
0.999908 0.07393 0.998993
0.999969 0.352682 0.999542
0.99968 0.442252 0.993378
0.999969 0.574166 0.909575
0.0360876 0.552041 1
0.0428779 0.539086 0.999908
0.0626688 0.526284 0.999817
0.323445 0.491554 0.999847
0.677119 0.447395 0.999329
1 0.399863 0.999588
0.999893 0.498161 0.999893
0.999344 0.530175 0.990478
0.999832 0.614069 0.90486
0.000289921 0.836286 0.999969
0.000289921 0.833906 0.999847
0.000534066 0.830793 0.999954
0.000122072 0.823316 0.999832
0.250858 0.801114 0.999619
0.808865 0.729122 0.999329
0.999893 0.686122 0.999481
0.999817 0.682094 0.976059
0.999786 0.708171 0.891997
0.000549325 0.982177 0.999893
0.000534066 0.981842 0.999863
0.000518807 0.981445 0.999832
0.000244144 0.980621 0.999939
0.000335698 0.978073 0.99968
0.124224 0.997345 0.999725
0.937118 0.951965 0.97293
0.999741 0.899947 0.909514
0.999817 0.877028 0.838224
0.000213626 0.989364 0.999161
0.000198367 0.989395 0.9991
0.000183108 0.989441 0.999008
0.000213626 0.989883 0.998154
0.000457771 0.991882 0.994263
4.57771e-05 0.995407 0.970916
0.52845 0.999908 0.846433
0.999695 0.999619 0.71046
0.999329 0.999771 0.608408
0.090074 0.999496 0.999985
0.0918593 0.999542 1
0.093904 0.99971 1
0.104677 0.999802 0.999908
0.157504 0.99971 0.999542
0.319509 0.999466 0.998291
0.583352 0.999634 0.977966
0.962463 0.999481 0.901411
0.999222 0.999771 0.72372
0.31722 0.30251 1
0.368765 0.213657 0.999405
0.517082 0.000137331 0.999741
0.587274 4.57771e-05 0.999496
0.861082 3.0518e-05 0.999405
1 0 0.99971
1 0.0632639 0.999451
0.999542 0.24892 0.999008
0.999878 0.457389 0.999649
0.244007 0.397055 0.999985
0.348959 0.252979 0.999664
0.502708 0.000213626 0.999023
0.583474 7.62951e-05 0.999237
0.838544 7.62951e-05 0.999466
1 0 0.99971
1 0.0875105 0.999176
0.999634 0.262486 0.999176
0.999893 0.461555 0.999573
0.149111 0.481682 1
0.333669 0.282963 0.999939
0.482307 0.00341802 0.99942
0.576852 3.0518e-05 0.999771
0.814145 0.000106813 0.999634
1 0 0.99971
1 0.114946 0.9991
0.999802 0.277897 0.999451
0.999893 0.466514 0.99942
0.000274662 0.619181 0.999985
0.274174 0.362127 0.999908
0.393591 0.164126 0.998901
0.548135 0.00268559 0.999588
0.760418 7.62951e-05 0.999847
1 0 0.99971
0.999985 0.191836 0.99971
0.999985 0.318929 0.999405
0.999893 0.480751 0.998993
0.000350958 0.639368 0.999954
0.0382696 0.57435 0.999954
0.0986648 0.513619 1
0.349966 0.383612 1
0.636149 0.252476 0.999237
0.976181 0.261189 0.999527
0.999771 0.335851 0.999176
0.999878 0.415137 0.999329
0.999893 0.523079 0.998993
0.000549325 0.835874 0.999985
0.000335698 0.825467 0.999893
0.000396735 0.814145 0.999939
0.0010071 0.783841 0.999664
0.329152 0.684794 0.999954
0.745998 0.594568 0.999588
0.999435 0.576898 0.999771
0.999985 0.577859 0.999207
0.999481 0.618952 0.999176
0.000534066 0.980484 0.999939
0.000442512 0.979919 0.999939
0.000350958 0.979294 0.999954
0.000259403 0.975326 0.999786
0.000442512 0.963958 0.999939
0.242939 0.966903 0.999695
0.888014 0.85359 0.999664
0.999802 0.807034 0.999695
0.999557 0.799451 0.999664
0.000579843 0.986419 1
0.000579843 0.986419 1
0.000579843 0.986419 1
0.000579843 0.986419 1
0.000579843 0.986419 1
0.000579843 0.986709 0.99971
0.436683 0.999924 0.999619
0.992004 0.998993 0.999283
0.999634 0.988235 0.984924
0.0317082 0.998672 0.999969
0.0323491 0.998978 0.999969
0.0332189 0.999298 0.999985
0.0396277 0.999908 0.999985
0.0818341 0.999893 0.999908
0.21059 0.999863 0.999664
0.514916 0.999557 0.999725
0.917098 0.999985 0.999527
1 1 1
0.000259403 0.917967 0.99939
0.000259403 0.91812 0.999374
0.000579843 0.794141 1
0.0232242 0.581552 0.999924
0.537285 0.325109 0.999573
0.910521 0.0864576 0.999573
0.999786 0.0105592 0.999786
0.999985 0.0339971 0.999634
0.999802 0.268101 0.999313
1.5259e-05 0.926863 0.999176
1.5259e-05 0.927001 0.999176
0.00062562 0.791501 1
0.00134279 0.59707 0.999893
0.527016 0.347204 0.999603
0.899443 0.116243 0.999573
0.999725 0.0138552 0.999817
0.999969 0.0466926 0.999588
0.999832 0.273152 0.999329
3.0518e-05 0.935073 0.999405
0.000198367 0.921843 0.999603
0.000137331 0.789914 0.999863
0.00288396 0.61268 0.999664
0.513756 0.372442 0.999664
0.886076 0.152193 0.999573
0.999725 0.0315404 0.999832
0.999954 0.0614328 0.999527
0.999863 0.279423 0.999313
9.15541e-05 0.957122 0.999985
0.000274662 0.88014 0.99971
1.5259e-05 0.791531 0.999985
0.000122072 0.658167 0.999893
0.476844 0.442008 0.999802
0.849943 0.248173 0.999634
0.999939 0.114351 0.999863
0.999893 0.102495 0.999619
0.999939 0.296849 0.999298
0.000289921 0.894286 0.999969
0.00105287 0.855955 1
0.000320439 0.821424 0.999817
0.000686656 0.754879 0.999954
0.342779 0.595026 0.999512
0.770504 0.445792 0.999817
0.999893 0.319493 0.999237
0.999725 0.226993 0.999634
0.999985 0.348409 0.999786
0.000106813 0.929427 1
9.15541e-05 0.921813 1
0.00015259 0.91281 0.999924
0 0.889204 0.999863
0.00578317 0.837598 0.999863
0.601114 0.699489 0.999817
0.999557 0.587579 0.999252
1 0.477241 0.999374
0.999969 0.476509 0.999725
0.000549325 0.986633 0.999664
0.000549325 0.986587 0.999649
0.000534066 0.986542 0.999634
0.000564584 0.986099 0.999878
0.000213626 0.983719 0.999649
0.00556954 0.97081 0.999863
0.78439 0.903502 0.999191
0.999802 0.787335 0.999405
0.999741 0.699825 0.999832
0.000579843 0.986419 1
0.000579843 0.986419 1
0.000579843 0.986419 1
0.000579843 0.986419 1
0.000579843 0.986419 1
0.000579843 0.986435 0.999985
0.331441 0.999573 0.999954
0.963424 0.999603 0.998962
0.998291 0.982696 0.999893
0.00309758 0.989715 0.999863
0.00314336 0.989761 0.999863
0.00320439 0.989837 0.999878
0.00462348 0.990234 0.999893
0.0207828 0.992569 0.999908
0.0703441 0.999756 0.999985
0.435416 0.99968 0.999847
0.867842 0.999832 0.999863
1 1 1
