Luts/Fujifilm/FLog2C_to_ASTIA_VLog.cube
TITLE "Generated by Resolve"
LUT_3D_SIZE 5
0.000350958 0.000259403 7.62951e-05
0.122606 0.00309758 0.00341802
0.999924 0.0102693 0.523568
0.999878 0.122133 0.526345
0.999512 0.549523 0.567803
0 0.139773 0
0.0714885 0.0840162 0.000274662
0.999329 0.00733959 0.301274
0.99971 0.215549 0.465507
0.999725 0.560678 0.564279
4.57771e-05 0.840864 0.000228885
0.00015259 0.777508 0.000366217
0.718685 0.672007 0
0.999557 0.547845 0.283864
0.999573 0.62359 0.542794
0 1 0.000289921
0.0214847 0.999969 0.000350958
0.373831 0.999725 0.000518807
0.985992 0.980056 0.00808728
0.999557 0.89134 0.336996
0.500908 0.999649 0.503426
0.507057 0.999603 0.502159
0.549661 0.999298 0.494255
0.777478 0.999954 0.403281
0.989624 0.999969 0.377218
0.000244144 0.000503548 0.112062
0.134325 0.000411994 0.0574807
0.999985 7.62951e-05 0.519463
0.999863 0.121416 0.526787
0.999512 0.549538 0.567895
9.15541e-05 0.167285 0.179217
0.0770581 0.078584 0.0764935
0.999756 0.00842298 0.315022
0.999725 0.214801 0.465995
0.999725 0.560555 0.564401
0 0.859983 0.000488289
6.10361e-05 0.803326 0.000564584
0.703075 0.688762 1.5259e-05
0.999573 0.547509 0.284184
0.999573 0.623484 0.54284
0 1 0.000289921
0.0213016 0.999878 0.000289921
0.375677 0.999695 0.000610361
0.986007 0.979873 0.00798047
0.999573 0.891325 0.337209
0.501945 0.999649 0.503182
0.508049 0.999603 0.502129
0.550347 0.999283 0.494087
0.777691 0.999954 0.403159
0.989624 0.999985 0.377523
0.012665 0.000320439 0.881376
0.0628672 0.00030518 0.661509
0.999939 0 0.776455
0.99968 0.181155 0.692134
0.999512 0.548898 0.568276
9.15541e-05 0.155764 0.999557
0.0310369 0.0206455 0.808255
0.975708 9.15541e-05 0.761624
0.999649 0.290867 0.684062
0.99971 0.560052 0.564904
0.000427253 0.820569 0.918151
0.000259403 0.770336 0.850294
0.656428 0.656367 0.656275
0.999847 0.568673 0.644358
0.999588 0.623163 0.543282
0 0.99971 0.216709
1.5259e-05 0.999619 0.218982
0.213703 0.999649 0.199329
0.989593 0.999603 0.205035
0.999573 0.891157 0.337987
0.483955 0.999542 0.586496
0.49099 0.999588 0.585168
0.539101 0.999878 0.575952
0.773785 0.999451 0.482597
0.989624 0.999985 0.377844
0.0156863 0.00483711 0.936233
0.0156863 0.00483711 0.936233
0.837842 0.000213626 0.999664
0.999924 0.0172732 0.99971
0.999817 0.52842 0.840772
0.0156863 0.00483711 0.936233
0.0156863 0.00483711 0.936233
0.846723 0.000228885 0.999512
0.999756 0.114977 0.998062
0.999847 0.539834 0.840009
0.00030518 0.758389 0.999756
0.000442512 0.611124 0.999893
0.442679 0.53283 0.99968
0.99971 0.474617 0.966155
0.999924 0.606027 0.833326
0.000518807 0.972656 0.999893
0.000595102 0.972305 0.999969
0.000228885 0.9691 0.999924
0.927108 0.929107 0.927077
0.999954 0.842527 0.81207
0.132753 0.999725 0.999878
0.143923 0.999756 0.999847
0.220188 0.999969 0.99971
0.65713 0.999924 0.999496
0.993713 1 0.804685
0 0.973785 1
0 0.973785 1
0 0.973785 1
0 0.973785 1
1 0.289952 0.999939
0 0.973785 1
0 0.973785 1
0 0.973785 1
0 0.973785 1
1 0.300877 0.999878
0 0.973785 1
0 0.973785 1
0 0.973785 1
0 0.973785 1
0.999954 0.369482 0.999313
0 0.973785 1
0 0.973785 1
0 0.973785 1
0 0.973785 1
0.99968 0.730739 0.999893
0 0.973785 1
0 0.973785 1
0 0.973785 1
0.000595102 0.972702 0.999817
1 1 1
