Luts/Fujifilm/FLog2C_to_ACROS_VLog.cube
TITLE "Generated by Resolve"
LUT_3D_SIZE 5
0.000106813 0.000106813 0.000106813
0.0303349 0.0303349 0.0303349
0.507088 0.507088 0.507088
0.568887 0.568887 0.568887
0.739681 0.739681 0.739681
0.0694591 0.0694591 0.0694591
0.0631723 0.0631723 0.0631723
0.39881 0.39881 0.39881
0.601801 0.601801 0.601801
0.744656 0.744656 0.744656
0.46009 0.46009 0.46009
0.44564 0.44564 0.44564
0.553292 0.553292 0.553292
0.718318 0.718318 0.718318
0.773739 0.773739 0.773739
0.766018 0.766018 0.766018
0.77116 0.77116 0.77116
0.801389 0.801389 0.801389
0.896071 0.896071 0.896071
0.896529 0.896529 0.896529
0.890105 0.890105 0.890105
0.89073 0.89073 0.89073
0.895064 0.895064 0.895064
0.931105 0.931105 0.931105
0.958679 0.958679 0.958679
0.00860609 0.00860609 0.00860609
0.0322423 0.0322423 0.0322423
0.490898 0.490898 0.490898
0.568582 0.568582 0.568582
0.739696 0.739696 0.739696
0.109514 0.109514 0.109514
0.0751812 0.0751812 0.0751812
0.389563 0.389563 0.389563
0.601556 0.601556 0.601556
0.74461 0.74461 0.74461
0.508354 0.508354 0.508354
0.490898 0.490898 0.490898
0.573877 0.573877 0.573877
0.718212 0.718212 0.718212
0.773693 0.773693 0.773693
0.766583 0.766583 0.766583
0.771511 0.771511 0.771511
0.801755 0.801755 0.801755
0.896071 0.896071 0.896071
0.896544 0.896544 0.896544
0.890211 0.890211 0.890211
0.890837 0.890837 0.890837
0.895125 0.895125 0.895125
0.931151 0.931151 0.931151
0.958694 0.958694 0.958694
0.0731212 0.0731212 0.0731212
0.0653239 0.0653239 0.0653239
0.433082 0.433082 0.433082
0.587854 0.587854 0.587854
0.739406 0.739406 0.739406
0.225299 0.225299 0.225299
0.122835 0.122835 0.122835
0.388342 0.388342 0.388342
0.62591 0.62591 0.62591
0.744396 0.744396 0.744396
0.617609 0.617609 0.617609
0.590967 0.590967 0.590967
0.654322 0.654322 0.654322
0.751766 0.751766 0.751766
0.773541 0.773541 0.773541
0.822385 0.822385 0.822385
0.826734 0.826734 0.826734
0.853712 0.853712 0.853712
0.943099 0.943099 0.943099
0.896513 0.896513 0.896513
0.893629 0.893629 0.893629
0.89424 0.89424 0.89424
0.898466 0.898466 0.898466
0.933715 0.933715 0.933715
0.958709 0.958709 0.958709
0.142443 0.142443 0.142443
0.142489 0.142489 0.142489
0.323934 0.323934 0.323934
0.583032 0.583032 0.583032
0.751064 0.751064 0.751064
0.142535 0.142535 0.142535
0.14258 0.14258 0.14258
0.327626 0.327626 0.327626
0.620081 0.620081 0.620081
0.755871 0.755871 0.755871
0.641947 0.641947 0.641947
0.553979 0.553979 0.553979
0.616892 0.616892 0.616892
0.744457 0.744457 0.744457
0.786084 0.786084 0.786084
0.824918 0.824918 0.824918
0.828321 0.828321 0.828321
0.850172 0.850172 0.850172
0.948592 0.948592 0.948592
0.913832 0.913832 0.913832
0.893904 0.893904 0.893904
0.894652 0.894652 0.894652
0.899825 0.899825 0.899825
0.942443 0.942443 0.942443
0.98732 0.98732 0.98732
0.797848 0.797848 0.797848
0.797848 0.797848 0.797848
0.797848 0.797848 0.797848
0.797848 0.797848 0.797848
0.707042 0.707042 0.707042
0.797848 0.797848 0.797848
0.797848 0.797848 0.797848
0.797848 0.797848 0.797848
0.797848 0.797848 0.797848
0.710521 0.710521 0.710521
0.797848 0.797848 0.797848
0.797848 0.797848 0.797848
0.797848 0.797848 0.797848
0.797848 0.797848 0.797848
0.732921 0.732921 0.732921
0.797848 0.797848 0.797848
0.797848 0.797848 0.797848
0.797848 0.797848 0.797848
0.797848 0.797848 0.797848
0.870619 0.870619 0.870619
0.797848 0.797848 0.797848
0.797848 0.797848 0.797848
0.797848 0.797848 0.797848
0.871946 0.871946 0.871946
1 1 1
