Luts/Fujifilm/FLog2C_to_ETERNA-BB_VLog.cube
TITLE "Generated by Resolve"
LUT_3D_SIZE 5
0.000289921 0.000198367 0.000106813
0.0860609 0.0164492 0.0175174
0.709957 0.296483 0.313375
0.765393 0.398291 0.383871
0.934539 0.718715 0.640589
0.0231632 0.106233 0.0372778
0.0777295 0.0855573 0.0320745
0.639094 0.205722 0.218067
0.798474 0.463066 0.406058
0.935744 0.726513 0.642985
0.202289 0.67042 0.221378
0.220478 0.617914 0.211093
0.679316 0.655985 0.339757
0.90367 0.699458 0.476509
0.94786 0.771221 0.652522
0.38706 0.865522 0.309651
0.414191 0.87277 0.315511
0.598138 0.916426 0.351659
0.941039 0.96289 0.418051
0.955581 0.927108 0.645594
0.753155 0.961471 0.796872
0.756191 0.961776 0.797192
0.776928 0.963882 0.799725
0.891814 0.977218 0.785473
0.967056 0.984314 0.744152
0.011017 0.00608835 0.058381
0.0895247 0.014435 0.0589151
0.698878 0.273777 0.296147
0.765133 0.397742 0.383703
0.934524 0.718624 0.640558
0.0416419 0.133074 0.128084
0.0914321 0.0926986 0.0917372
0.632334 0.200839 0.226566
0.798215 0.462501 0.405921
0.935775 0.726513 0.643046
0.219837 0.698619 0.302541
0.245014 0.654597 0.279088
0.68365 0.673869 0.369314
0.903609 0.699275 0.476524
0.947875 0.771237 0.652583
0.387274 0.865507 0.310323
0.414328 0.872786 0.315602
0.598611 0.916625 0.351308
0.941039 0.96286 0.418036
0.955596 0.927123 0.645701
0.753658 0.961532 0.796902
0.756695 0.961837 0.797238
0.777432 0.963928 0.799771
0.891997 0.977234 0.785397
0.967056 0.984314 0.744152
0.102998 0.0333715 0.435477
0.10811 0.0284581 0.288899
0.68777 0.203693 0.415702
0.816892 0.470558 0.545251
0.934524 0.718288 0.640665
0.167987 0.193271 0.554604
0.13341 0.102693 0.388266
0.647044 0.200717 0.438697
0.858198 0.54641 0.603449
0.93576 0.726085 0.643137
0.302388 0.772229 0.719661
0.333898 0.738308 0.694881
0.73312 0.733364 0.733043
0.945907 0.738293 0.710216
0.947829 0.770901 0.652781
0.428397 0.897322 0.605966
0.449928 0.902449 0.610605
0.593668 0.93138 0.640757
0.957671 0.970275 0.644923
0.955642 0.927092 0.646052
0.753124 0.963119 0.827588
0.75642 0.963531 0.828153
0.778744 0.966323 0.831952
0.895109 0.978607 0.819944
0.967086 0.984329 0.744442
0.221759 0.0417639 0.611826
0.221759 0.0417639 0.611826
0.599588 0.0891585 0.639231
0.810636 0.398138 0.697246
0.942412 0.725399 0.832883
0.221759 0.0417639 0.611826
0.221759 0.0417639 0.611826
0.603586 0.0898909 0.640116
0.844099 0.470542 0.745159
0.945113 0.733959 0.836912
0.407675 0.771817 0.802609
0.395727 0.627787 0.754299
0.663539 0.624994 0.829557
0.941054 0.698878 0.874266
0.956146 0.781231 0.856916
0.436744 0.916152 0.850324
0.449638 0.918181 0.854856
0.55259 0.933944 0.884245
0.962249 0.963836 0.961593
0.980575 0.927657 0.912596
0.717815 0.963775 0.930541
0.720882 0.964065 0.931258
0.74313 0.966155 0.936385
0.888182 0.985183 0.970932
0.990936 0.99617 0.95198
0.345937 0.901289 0.825193
0.345937 0.901289 0.825193
0.345937 0.901289 0.825193
0.345937 0.901289 0.825193
0.917739 0.598825 0.901473
0.345937 0.901289 0.825193
0.345937 0.901289 0.825193
0.345937 0.901289 0.825193
0.345937 0.901289 0.825193
0.920073 0.60531 0.904402
0.345937 0.901289 0.825193
0.345937 0.901289 0.825193
0.345937 0.901289 0.825193
0.345937 0.901289 0.825193
0.934844 0.647944 0.921157
0.345937 0.901289 0.825193
0.345937 0.901289 0.825193
0.345937 0.901289 0.825193
0.345937 0.901289 0.825193
0.973327 0.881819 0.971069
0.345937 0.901289 0.825193
0.345937 0.901289 0.825193
0.345937 0.901289 0.825193
0.613428 0.950668 0.904372
1 1 1
