Luts/Fujifilm/FLog2C_to_WDR_VLog.cube
TITLE "Generated by Resolve"
LUT_3D_SIZE 5
0 0 0
0.107042 0.0128023 0.0128023
0.650477 0.060914 0.0611429
0.845258 0.0680858 0.112749
1 0.666911 0.610132
0.0263371 0.125048 0.0263371
0.102754 0.122774 0.0333104
0.635813 0.0602426 0.0602426
0.84329 0.0678264 0.0888685
1 0.678096 0.608881
0.0704967 0.609583 0.0704967
0.0705425 0.602319 0.0705425
0.583993 0.601358 0.0499886
0.998245 0.558984 0.0028687
1 0.740902 0.602121
0.117311 0.995727 0.00637827
0.18999 0.998001 0.0030518
0.480415 0.998978 0
0.934554 0.96997 0
1 0.947188 0.583978
0.844923 1 0.563851
0.846967 1 0.563973
0.861128 1 0.565209
0.957946 1 0.578729
1 1 0.725353
0.00474556 0.00474556 0.0964828
0.122942 0.0188296 0.109239
0.659342 0.0627298 0.148531
0.845304 0.0680858 0.113329
1 0.666896 0.610254
0.0281682 0.117586 0.111315
0.11664 0.11667 0.116899
0.643702 0.0618296 0.133135
0.84332 0.0678416 0.0893568
1 0.677943 0.609018
0.0705119 0.606088 0.0705119
0.0705425 0.598917 0.0705425
0.586267 0.598215 0.0504768
0.998215 0.55874 0.00291447
1 0.740795 0.602136
0.123201 0.996567 0.00521859
0.199023 0.998169 0.00277714
0.483558 0.998764 0
0.934874 0.96994 0
1 0.947188 0.5841
0.845258 1 0.563851
0.847318 1 0.564111
0.861357 1 0.565209
0.958022 1 0.578729
1 1 0.72546
0.0220798 0.0220798 0.44828
0.062974 0.0269627 0.452964
0.674052 0.0679332 0.546014
0.878355 0.0705425 0.552834
1 0.666209 0.610574
0.0219883 0.0220035 0.446403
0.0441138 0.0246281 0.448646
0.660792 0.0675975 0.541192
0.877989 0.0705425 0.547585
1 0.677363 0.609583
0.0690623 0.591501 0.554711
0.0693065 0.583947 0.553002
0.570397 0.570062 0.570184
1 0.518456 0.556649
1 0.740414 0.602564
0.0682689 0.992416 0.504555
0.153613 0.991257 0.504189
0.467658 0.982544 0.502708
0.928573 0.949752 0.493797
1 0.947097 0.584527
0.845228 1 0.618036
0.847288 1 0.618006
0.861402 1 0.617746
0.957824 1 0.617258
1 1 0.725567
0.0350042 0.0350042 0.710475
0.0350042 0.0350042 0.710475
0.582513 0.0682994 0.832242
0.899229 0.0700236 0.877562
1 0.621286 0.93901
0.0350042 0.0350042 0.710475
0.0350042 0.0350042 0.710475
0.59263 0.0685283 0.833921
0.899046 0.0700389 0.874296
1 0.633112 0.93817
0.0679179 0.559411 0.883284
0.0679789 0.5579 0.882795
0.468482 0.522835 0.927794
1 0.453895 0.950851
1 0.69958 0.933135
0.0024567 0.961273 0.918379
0.00646983 0.959274 0.918227
0.409079 0.948104 0.917479
0.913634 0.913024 0.913466
1 0.915755 0.913115
0.837247 1 0.907759
0.839338 1 0.907744
0.85362 1 0.907652
0.950835 1 0.90695
1 1 0.911864
0.0256352 0.789944 0.981613
0.0256352 0.789944 0.981613
0.0256352 0.789944 0.981613
0.0254978 0.790417 0.98172
1 0.729976 1
0.0256352 0.789944 0.981613
0.0256352 0.789944 0.981613
0.0256352 0.789944 0.981613
0.0254978 0.790417 0.98172
1 0.735225 1
0.024567 0.793606 0.982483
0.0245365 0.793729 0.982513
0.0241245 0.795148 0.982849
0.0201114 0.809094 0.986175
1 0.76791 1
0 1 1
0 1 1
0 1 1
0 1 1
1 0.917861 1
0 1 1
0 1 1
0 1 1
0.801495 1 1
1 1 1
