Luts/Fujifilm/FLog2C_to_ETERNA_VLog.cube
TITLE "Generated by Resolve"
LUT_3D_SIZE 33
0.0065156 0.00610361 0.00611887
0.0065156 0.00610361 0.00611887
0.0065156 0.00610361 0.00611887
0.0065156 0.00610361 0.00611887
0.0065156 0.00610361 0.00611887
0.0065156 0.00610361 0.00611887
0.037171 0.00770581 0.0101625
0.105119 0.00979629 0.0199283
0.166705 0.0181888 0.0264134
0.243305 0.0209354 0.0374151
0.342092 0.0374914 0.0501106
0.470161 0.0586404 0.0665904
0.611109 0.0888838 0.0812543
0.752621 0.122393 0.0982376
0.887541 0.16878 0.113146
0.936965 0.219043 0.125261
0.942657 0.274479 0.215534
0.944076 0.325933 0.268391
0.943984 0.328389 0.270512
0.943984 0.328389 0.270512
0.943984 0.328389 0.270512
0.943984 0.328389 0.270512
0.943984 0.328389 0.270512
0.943984 0.328389 0.270512
0.943725 0.343084 0.258976
0.941466 0.368063 0.243732
0.941009 0.394293 0.245426
0.940658 0.426551 0.268513
0.939513 0.459922 0.292622
0.941421 0.492988 0.324071
0.941741 0.528176 0.359655
0.944152 0.561593 0.403281
0.94757 0.600549 0.465095
0.0065156 0.00610361 0.00611887
0.0065156 0.00610361 0.00611887
0.0065156 0.00610361 0.00611887
0.0065156 0.00610361 0.00611887
0.0065156 0.00610361 0.00611887
0.0065156 0.00610361 0.00611887
0.0526894 0.00895705 0.0121614
0.114321 0.00932326 0.0211643
0.174685 0.0185855 0.0274052
0.25127 0.0217594 0.0384375
0.350179 0.0386053 0.0508431
0.476936 0.0599832 0.0675212
0.616648 0.0901961 0.0818341
0.756542 0.123491 0.0988022
0.890318 0.169787 0.113542
0.937026 0.219806 0.125536
0.942687 0.275227 0.216434
0.944045 0.326207 0.26865
0.943984 0.328389 0.270512
0.943984 0.328389 0.270512
0.943984 0.328389 0.270512
0.943984 0.328389 0.270512
0.943984 0.328389 0.270512
0.943862 0.33106 0.268132
0.942794 0.349386 0.255573
0.941238 0.372824 0.240818
0.940963 0.398352 0.245655
0.940566 0.430014 0.268574
0.939162 0.462531 0.292531
0.941421 0.494911 0.324041
0.941787 0.529702 0.359701
0.944152 0.562814 0.403296
0.947616 0.601419 0.465156
0.0065156 0.00610361 0.00611887
0.0065156 0.00610361 0.00611887
0.0065156 0.00610361 0.00611887
0.0065156 0.00610361 0.00611887
0.0065156 0.00610361 0.00611887
0.0065156 0.00610361 0.00611887
0.0669261 0.00982681 0.0141909
0.124529 0.0105745 0.0222477
0.183139 0.0183719 0.0285344
0.258885 0.0225071 0.0393988
0.358236 0.0397345 0.0515755
0.483696 0.061326 0.0684672
0.621576 0.0913863 0.0823529
0.760296 0.124559 0.099321
0.893004 0.170764 0.113909
0.937087 0.220539 0.12578
0.942718 0.275944 0.217273
0.94403 0.326558 0.268971
0.943984 0.328389 0.270512
0.943984 0.328389 0.270512
0.943984 0.328389 0.270512
0.943984 0.328389 0.270512
0.943984 0.328389 0.270512
0.943648 0.335531 0.264118
0.941909 0.355261 0.252415
0.941024 0.377401 0.23801
0.940932 0.402579 0.245914
0.940459 0.433494 0.268681
0.938949 0.46508 0.292454
0.941375 0.497032 0.324147
0.941848 0.531395 0.359854
0.944152 0.564034 0.403403
0.947662 0.602289 0.465232
0.0065156 0.00610361 0.00611887
0.0065156 0.00610361 0.00611887
0.0065156 0.00610361 0.00611887
0.0065156 0.00610361 0.00611887
0.0065156 0.00610361 0.00611887
0.0169375 0.00643931 0.00743114
0.0799725 0.0102388 0.0162966
0.134432 0.0119326 0.0232853
0.191257 0.0181735 0.029633
0.266545 0.0233005 0.0403754
0.36585 0.0407874 0.0522621
0.490578 0.0626841 0.069398
0.626627 0.092607 0.0829023
0.763607 0.12549 0.099794
0.895521 0.171679 0.11426
0.936889 0.217929 0.122896
0.941299 0.259159 0.194537
0.945373 0.303044 0.248646
0.944045 0.328069 0.270268
0.943984 0.328389 0.270512
0.943984 0.328389 0.270512
0.943984 0.328389 0.270512
0.943603 0.330739 0.267872
0.943526 0.342641 0.259113
0.941421 0.361089 0.248463
0.940703 0.382254 0.23566
0.940795 0.40705 0.246098
0.940368 0.43679 0.268437
0.938994 0.467628 0.292561
0.941329 0.499153 0.324163
0.941894 0.532784 0.359869
0.944137 0.565316 0.403388
0.947707 0.603082 0.465293
0.0065156 0.00610361 0.00611887
0.0065156 0.00610361 0.00611887
0.0065156 0.00610361 0.00611887
0.00614939 0.00611887 0.00605783
0.00578317 0.00683604 0.00595102
0.0292058 0.00817884 0.00891127
0.089128 0.0103761 0.0175479
0.139086 0.0133364 0.0234073
0.193423 0.017731 0.030396
0.264683 0.0245975 0.0406958
0.355108 0.0388647 0.0506905
0.469108 0.0575875 0.0668193
0.5944 0.0837873 0.0811933
0.717891 0.113497 0.0946822
0.838926 0.149737 0.105974
0.930175 0.190997 0.115084
0.938674 0.234562 0.151995
0.942794 0.279927 0.222416
0.945739 0.323293 0.26717
0.943984 0.328389 0.270512
0.943984 0.328389 0.270512
0.943984 0.328389 0.270512
0.94345 0.334981 0.264317
0.943435 0.349767 0.254246
0.941039 0.366629 0.244556
0.940383 0.38732 0.233387
0.940658 0.411475 0.246235
0.940276 0.440253 0.268254
0.93901 0.470344 0.292607
0.941283 0.501091 0.324193
0.941939 0.534478 0.359915
0.944121 0.566445 0.403388
0.947753 0.603952 0.465461
0.00573739 0.0501869 0.00492866
0.00576791 0.0511482 0.00497444
0.00581369 0.0523995 0.00500496
0.00584421 0.0534524 0.00505074
0.00587472 0.054612 0.005066
0.0114595 0.0466163 0.000991836
0.0640726 0.0383612 0.00807202
0.115373 0.0334783 0.0161135
0.168017 0.0266117 0.0245975
0.228855 0.0260014 0.0357214
0.306081 0.0343633 0.0468299
0.414038 0.0444648 0.0605783
0.534066 0.0711986 0.0728313
0.661295 0.101488 0.085481
0.78613 0.132891 0.103014
0.902647 0.175006 0.112322
0.936843 0.216007 0.122698
0.941451 0.261707 0.199451
0.945907 0.310964 0.254383
0.943984 0.328389 0.270512
0.943923 0.32871 0.270237
0.943801 0.332052 0.267262
0.943664 0.341497 0.259892
0.942687 0.356313 0.250889
0.940688 0.371954 0.240803
0.940078 0.391959 0.231312
0.94052 0.415747 0.246448
0.940185 0.443473 0.268116
0.93904 0.472831 0.292729
0.941238 0.503212 0.3243
0.942 0.536004 0.360067
0.944121 0.567666 0.403403
0.947799 0.604746 0.465522
0.00627146 0.0970779 0.00192264
0.00628672 0.0979019 0.00192264
0.00628672 0.0985122 0.00192264
0.00630198 0.0991379 0.0019379
0.00631724 0.0998245 0.0019379
0.00526436 0.0873274 4.57771e-05
0.0435492 0.0782788 0.00114443
0.0990616 0.0725567 0.00727855
0.153277 0.0682841 0.0160067
0.210773 0.0632639 0.0251316
0.281163 0.0624857 0.0358434
0.376394 0.066743 0.0488441
0.491829 0.0748913 0.0645762
0.618509 0.0969253 0.081651
0.742763 0.122942 0.0969558
0.865003 0.160372 0.107759
0.934661 0.204334 0.116487
0.940902 0.249317 0.180499
0.945083 0.296666 0.242618
0.943969 0.328771 0.269123
0.943069 0.333593 0.26598
0.943496 0.338643 0.261463
0.943023 0.349157 0.255406
0.941894 0.362524 0.247913
0.940414 0.377371 0.236942
0.939818 0.396551 0.229541
0.940398 0.419928 0.246525
0.940093 0.446738 0.267903
0.939055 0.475319 0.292866
0.941176 0.505226 0.324285
0.942046 0.53753 0.360113
0.944121 0.568887 0.40351
0.947845 0.605615 0.465583
0.00666819 0.134951 0.000122072
0.00665293 0.135546 0.00015259
0.00663767 0.136233 0.000167849
0.00662242 0.136828 0.000183108
0.00607309 0.134371 7.62951e-05
0.00642405 0.120027 0.000350958
0.0233005 0.113558 0.000228885
0.0851606 0.106737 0.00123598
0.137407 0.102403 0.00820935
0.193561 0.0991531 0.0162356
0.258869 0.0980545 0.0263523
0.345525 0.0994125 0.0386969
0.457755 0.104677 0.0552377
0.582071 0.118837 0.0719921
0.707271 0.137133 0.0863508
0.830152 0.167819 0.0993668
0.933852 0.206668 0.108293
0.93756 0.248844 0.139422
0.942946 0.29482 0.21799
0.944244 0.337636 0.263645
0.943175 0.342596 0.259388
0.943481 0.348653 0.254078
0.941833 0.358663 0.250187
0.941283 0.369512 0.242939
0.940108 0.383566 0.232532
0.93959 0.402167 0.228168
0.940169 0.424994 0.246571
0.939986 0.450523 0.267613
0.939086 0.478279 0.292927
0.941131 0.507713 0.324407
0.942092 0.539406 0.360174
0.944121 0.570474 0.403525
0.947906 0.606668 0.465675
0.00633249 0.183398 0.000411994
0.00633249 0.183948 0.000411994
0.00633249 0.184436 0.000427253
0.00633249 0.184878 0.000427253
0.00688182 0.173175 0.000457771
0.00546273 0.158145 7.62951e-05
0.0152743 0.149889 0.00015259
0.0655222 0.144976 0
0.121889 0.136385 0.0009308
0.177234 0.13283 0.00840772
0.239872 0.130129 0.0174105
0.319844 0.130999 0.0298772
0.423209 0.135866 0.0439918
0.544411 0.146212 0.0604868
0.66836 0.162646 0.0754253
0.792889 0.187335 0.0888991
0.909773 0.221714 0.101549
0.93608 0.263508 0.102419
0.940703 0.301366 0.179126
0.942809 0.34551 0.245518
0.94139 0.356832 0.249897
0.942275 0.361517 0.2477
0.941176 0.368338 0.243473
0.940719 0.378073 0.235752
0.939727 0.391928 0.226413
0.9393 0.409216 0.22649
0.939712 0.430915 0.246235
0.939773 0.455558 0.26743
0.939116 0.482261 0.29308
0.941054 0.510887 0.324437
0.942184 0.542 0.360357
0.944106 0.572442 0.40354
0.947967 0.607965 0.465766
0.00682078 0.236179 0.00140383
0.0068513 0.236652 0.00140383
0.00686656 0.237079 0.00140383
0.00665293 0.235477 0.00138857
0.00573739 0.213581 3.0518e-05
0.00564584 0.19733 0
0.00596628 0.187304 0.000579843
0.0419013 0.181567 0.000366217
0.107073 0.174716 0.000411994
0.161639 0.170169 0.000991836
0.221958 0.166918 0.00915541
0.296239 0.166918 0.0204166
0.391897 0.169543 0.0339971
0.507713 0.177295 0.0501564
0.63209 0.189349 0.0663615
0.755352 0.210697 0.0806287
0.874846 0.241611 0.0932631
0.935576 0.282414 0.0957656
0.93814 0.315373 0.119265
0.940612 0.354025 0.211673
0.940566 0.37261 0.240497
0.941527 0.376104 0.238239
0.940505 0.382147 0.233692
0.940032 0.391012 0.227176
0.939223 0.402701 0.218387
0.938842 0.418662 0.22504
0.939101 0.438788 0.245823
0.939254 0.462348 0.26714
0.939315 0.487526 0.293065
0.940948 0.515236 0.324575
0.942275 0.545129 0.360464
0.944091 0.57499 0.403754
0.948074 0.609812 0.466011
0.00782788 0.306645 0.00148013
0.00782788 0.307118 0.00151064
0.00784314 0.307424 0.00151064
0.00796521 0.283833 0.000823987
0.0069276 0.260792 0.000228885
0.00686656 0.244724 3.0518e-05
0.00588998 0.235004 4.57771e-05
0.0228428 0.223758 0.000228885
0.0873274 0.217212 0.000335698
0.147127 0.210773 6.10361e-05
0.205615 0.206851 0.00141909
0.276402 0.203952 0.0110628
0.365621 0.204501 0.024979
0.476005 0.211139 0.0393072
0.596124 0.221653 0.0545205
0.718822 0.240314 0.0701762
0.838941 0.269322 0.082948
0.935317 0.306203 0.0908522
0.936828 0.336309 0.0875868
0.937789 0.367575 0.160052
0.938872 0.393744 0.223072
0.940185 0.395071 0.223789
0.938918 0.400015 0.219394
0.938903 0.407248 0.214237
0.938445 0.416831 0.210849
0.938155 0.431067 0.223713
0.93843 0.449149 0.244953
0.938613 0.470924 0.266972
0.939834 0.49424 0.292836
0.94081 0.520958 0.324575
0.942412 0.549477 0.360678
0.944076 0.578363 0.403784
0.948211 0.612253 0.466209
0.0084535 0.403769 0.000518807
0.00846876 0.404013 0.000518807
0.00727855 0.373953 0.000213626
0.00665293 0.339605 0.000198367
0.00704967 0.316136 0.00047303
0.00669871 0.298222 0.000350958
0.00656138 0.287678 7.62951e-05
0.0106813 0.278767 0.000411994
0.0682994 0.268391 0.000289921
0.131273 0.261112 0.000442512
0.190829 0.253925 0.000106813
0.258167 0.249607 0.00169375
0.34229 0.248432 0.0132601
0.446342 0.252445 0.0281224
0.562646 0.260426 0.0429847
0.682536 0.276905 0.0588846
0.802365 0.301717 0.072755
0.911009 0.334676 0.082826
0.934142 0.371008 0.0795453
0.934295 0.39028 0.0864118
0.937606 0.415961 0.187335
0.937697 0.419913 0.201358
0.937224 0.422858 0.20145
0.937041 0.42707 0.198718
0.937118 0.435248 0.204837
0.937484 0.446983 0.222156
0.937667 0.46244 0.24358
0.93843 0.481758 0.266255
0.94049 0.50277 0.292485
0.940627 0.528359 0.324178
0.942123 0.555276 0.360662
0.94403 0.58291 0.403784
0.948394 0.615488 0.46656
0.00877394 0.52491 0.000549325
0.00827039 0.475425 0.000228885
0.00669871 0.433295 0.000167849
0.00694286 0.404593 0.00015259
0.00675975 0.38265 0.000289921
0.0065919 0.366155 0.000335698
0.00611887 0.353597 0.000396735
0.00816358 0.34287 0.000442512
0.0461891 0.331792 0.000549325
0.115023 0.321233 0.000106813
0.17557 0.312612 0.00015259
0.241093 0.307332 0.000137331
0.321416 0.301915 0.002533
0.42002 0.302083 0.0155947
0.533288 0.308721 0.0317235
0.649897 0.320882 0.046067
0.767422 0.342596 0.060029
0.878782 0.373526 0.0710002
0.932601 0.410437 0.077348
0.931365 0.425071 0.0768139
0.933745 0.443626 0.116167
0.935393 0.448936 0.176196
0.936126 0.447807 0.177874
0.93492 0.451637 0.184298
0.93637 0.457206 0.201404
0.936904 0.466407 0.220905
0.937606 0.479393 0.241459
0.93872 0.495521 0.265034
0.940261 0.514549 0.291905
0.940383 0.538079 0.323857
0.941527 0.562661 0.36022
0.943938 0.588846 0.403738
0.94847 0.619715 0.466697
0.00764477 0.575387 0.000549325
0.00764477 0.533639 0.000167849
0.00723278 0.502113 0.000244144
0.00813306 0.477821 0.000244144
0.00793469 0.458717 0.00015259
0.00726329 0.443656 0.000259403
0.00720226 0.432303 0.000396735
0.00808728 0.42121 0.000381476
0.0278477 0.40943 0.00015259
0.0922408 0.39707 0.000244144
0.160571 0.38555 7.62951e-05
0.225635 0.376226 0.000167849
0.301457 0.368109 0.000869764
0.397238 0.366873 0.00251774
0.506081 0.369009 0.0176242
0.621088 0.377218 0.0324712
0.73518 0.395972 0.0470436
0.8448 0.42298 0.0598764
0.926467 0.455268 0.0720073
0.928985 0.471229 0.0724041
0.929671 0.478111 0.0742199
0.932647 0.484749 0.142489
0.933608 0.480674 0.159274
0.934051 0.480949 0.176608
0.935317 0.483986 0.195972
0.936797 0.489693 0.217655
0.937133 0.499718 0.238865
0.937896 0.512734 0.265141
0.939361 0.529946 0.291249
0.940154 0.550027 0.323308
0.940749 0.572595 0.359854
0.943786 0.596201 0.403494
0.948241 0.625376 0.466194
0.00807202 0.624598 0.000549325
0.00834669 0.597879 0.000640879
0.0074464 0.576165 0.000610361
0.00769055 0.557397 0.00030518
0.00851453 0.541451 0.00030518
0.0080415 0.529885 0.000198367
0.00759899 0.519875 0.000183108
0.00781262 0.508705 0.000366217
0.0161288 0.497017 0.000701915
0.066804 0.484993 0.000442512
0.142779 0.472694 0.000564584
0.210071 0.460136 0.000183108
0.286168 0.451392 0.000137331
0.37731 0.444755 6.10361e-05
0.48394 0.443702 0.00317388
0.596613 0.448417 0.0178531
0.707286 0.459861 0.0324407
0.811841 0.480003 0.0473793
0.904204 0.505776 0.0643931
0.928954 0.525856 0.0673838
0.928725 0.522515 0.0685435
0.930663 0.523354 0.0915084
0.933227 0.51754 0.145174
0.933989 0.515023 0.166812
0.934874 0.515175 0.189685
0.936477 0.517815 0.212619
0.936156 0.524865 0.235218
0.937377 0.534768 0.260792
0.939254 0.548272 0.289921
0.93991 0.564782 0.322499
0.941176 0.584482 0.358144
0.943603 0.605951 0.403357
0.947967 0.632746 0.465629
0.00973526 0.68423 0.000564584
0.00917067 0.666545 0.000335698
0.00862135 0.65124 0.000396735
0.00839246 0.638666 0.000488289
0.00759899 0.627741 0.000122072
0.0078584 0.618601 6.10361e-05
0.00814832 0.610239 4.57771e-05
0.00790417 0.601358 1.5259e-05
0.012604 0.590997 0.000122072
0.0519265 0.580118 0.000183108
0.12607 0.568643 0.000137331
0.195895 0.556313 6.10361e-05
0.272145 0.543664 6.10361e-05
0.361761 0.535943 0.000106813
0.462623 0.529564 0.000274662
0.572778 0.527977 0.00128176
0.680766 0.5346 0.0178683
0.78262 0.546654 0.0366064
0.877211 0.564294 0.0528115
0.92755 0.581735 0.0635538
0.927016 0.57644 0.063508
0.928069 0.569024 0.0671092
0.93022 0.56022 0.124346
0.931197 0.554192 0.151232
0.932143 0.551781 0.177646
0.93431 0.551217 0.203616
0.935103 0.554726 0.23003
0.93727 0.560632 0.256321
0.938537 0.571023 0.285832
0.939849 0.583642 0.320317
0.942031 0.599344 0.35581
0.943908 0.618189 0.403067
0.947631 0.642191 0.465019
0.00929274 0.747662 0.000350958
0.00921645 0.736202 0.00062562
0.00849927 0.727306 0.000274662
0.00808728 0.719219 0.000122072
0.00813306 0.711604 0.000335698
0.00834669 0.705608 0.000411994
0.00881972 0.699214 0.00030518
0.00927749 0.692287 0.000259403
0.00967422 0.683436 0.000289921
0.0364538 0.674586 0.000244144
0.0999313 0.664363 0.000137331
0.181384 0.65275 6.10361e-05
0.256214 0.64094 1.5259e-05
0.343618 0.630396 0.000259403
0.44506 0.621241 0.000411994
0.550546 0.616342 0.000564584
0.656672 0.61529 0.00686656
0.754681 0.619516 0.0234836
0.849561 0.627817 0.0451514
0.919921 0.640223 0.0586557
0.925612 0.63801 0.0595254
0.926284 0.622889 0.0610208
0.927214 0.606744 0.0819867
0.930312 0.597375 0.126711
0.931868 0.591608 0.159213
0.933013 0.588617 0.189837
0.934981 0.587884 0.22063
0.935836 0.590341 0.248554
0.938079 0.597269 0.280919
0.939696 0.60621 0.316945
0.941451 0.618128 0.35407
0.944198 0.633661 0.402335
0.947494 0.654856 0.465629
0.00953689 0.811429 0.000457771
0.00944533 0.80528 0.000442512
0.009308 0.799268 0.000595102
0.00917067 0.79379 0.000656138
0.00909438 0.789227 0.000564584
0.00903334 0.784802 0.000488289
0.00881972 0.780621 0.000350958
0.00849927 0.775494 0.000167849
0.0108339 0.768826 7.62951e-05
0.0186923 0.760357 0.000289921
0.0829786 0.751827 0.000198367
0.163363 0.742916 0.000122072
0.241062 0.732372 0.000122072
0.327092 0.721233 6.10361e-05
0.427344 0.709651 0.000167849
0.531792 0.701518 0.000335698
0.632609 0.695186 0.00115969
0.731563 0.692699 0.0159152
0.821637 0.696727 0.0358129
0.906584 0.701701 0.0527657
0.925292 0.701259 0.0562753
0.925673 0.682078 0.0581521
0.92578 0.659236 0.059617
0.927413 0.644068 0.0857252
0.929778 0.635599 0.132219
0.931868 0.62948 0.172
0.933974 0.6262 0.205936
0.936049 0.625193 0.240574
0.936965 0.627588 0.275334
0.938613 0.633692 0.311894
0.941421 0.641093 0.3514
0.943801 0.651804 0.399573
0.947402 0.670405 0.465873
0.0112917 0.872923 0.000411994
0.0108339 0.868955 0.000442512
0.0103914 0.865446 0.00047303
0.0100557 0.861814 0.000503548
0.00993362 0.858808 0.000518807
0.00976577 0.855619 0.000549325
0.00958267 0.852506 0.000564584
0.010193 0.848966 0.000595102
0.0111238 0.84358 0.00062562
0.0240787 0.837919 0.000579843
0.0606851 0.831205 0.000335698
0.137789 0.822629 0.00030518
0.223087 0.812696 0.00015259
0.308415 0.802441 7.62951e-05
0.4065 0.790936 0.000381476
0.509773 0.782162 7.62951e-05
0.611399 0.773205 7.62951e-05
0.707607 0.767269 0.00596628
0.797589 0.763699 0.0246738
0.879866 0.76347 0.0443122
0.925673 0.76228 0.0564126
0.926284 0.744045 0.0556954
0.925185 0.716045 0.0568246
0.925826 0.693874 0.0612192
0.926894 0.683177 0.0911421
0.930938 0.674327 0.143572
0.932769 0.667781 0.18529
0.935042 0.66363 0.226017
0.936477 0.662211 0.2636
0.938903 0.663722 0.303044
0.941817 0.66772 0.347311
0.943618 0.674479 0.398215
0.947448 0.688853 0.46479
0.0150912 0.926726 0.000411994
0.0146639 0.924605 0.000320439
0.0142061 0.922179 0.000213626
0.0139467 0.92015 0.000213626
0.0138552 0.917937 0.000366217
0.0137789 0.915908 0.000534066
0.0137026 0.91397 0.000717174
0.013611 0.911513 0.0009308
0.0152132 0.908553 0.000808728
0.0173648 0.904952 0.000579843
0.0483406 0.899092 0.000320439
0.125261 0.890623 0.000106813
0.205509 0.882536 6.10361e-05
0.29012 0.873777 6.10361e-05
0.384894 0.864118 0.000228885
0.488106 0.853849 4.57771e-05
0.58883 0.845182 1.5259e-05
0.68249 0.836072 0.00209049
0.770397 0.829618 0.0196536
0.85275 0.824292 0.0390784
0.922438 0.8215 0.0547036
0.926635 0.805905 0.054551
0.927214 0.775906 0.055436
0.925887 0.746349 0.0564431
0.926467 0.731609 0.0578317
0.927428 0.721538 0.0884718
0.930556 0.713039 0.153323
0.93312 0.705303 0.203647
0.935775 0.700221 0.247745
0.938552 0.698314 0.291585
0.941634 0.697963 0.338369
0.944305 0.700969 0.391485
0.947768 0.710338 0.459663
0.0178531 0.975875 0.00047303
0.0178073 0.974502 0.000518807
0.0177462 0.973068 0.000549325
0.0178225 0.97174 0.000579843
0.0180209 0.969863 0.000564584
0.018265 0.968261 0.000549325
0.0184939 0.966583 0.000534066
0.0187686 0.964431 0.000488289
0.0195926 0.961898 0.000427253
0.0294347 0.958801 0.000335698
0.040589 0.955291 0.000213626
0.0890669 0.949783 0.000457771
0.187411 0.942473 0.00129702
0.267674 0.935958 0.000427253
0.357977 0.92842 6.10361e-05
0.458274 0.918715 1.5259e-05
0.559838 0.908782 0.000167849
0.655222 0.899901 0.000503548
0.742916 0.892271 0.00973526
0.825269 0.885191 0.0297856
0.900801 0.877897 0.0491035
0.926787 0.865476 0.0528267
0.92668 0.835615 0.0536049
0.927199 0.803052 0.0554818
0.927474 0.779446 0.0554513
0.926406 0.769467 0.062089
0.929366 0.75903 0.0999466
0.931624 0.749752 0.169558
0.935195 0.742321 0.224292
0.938033 0.736767 0.273655
0.940627 0.733227 0.324804
0.944183 0.731517 0.38262
0.94786 0.736751 0.454643
0.0228122 0.999832 0.000198367
0.0228122 0.999832 0.000198367
0.0228122 0.999832 0.000198367
0.0226749 0.999832 0.000198367
0.0224765 0.999832 0.000183108
0.0222782 0.999832 0.000183108
0.0220645 0.999847 0.000167849
0.0218509 0.999847 0.000167849
0.0215305 0.999863 0.00015259
0.0257877 0.99971 0.000167849
0.0593271 0.99852 0.000350958
0.100633 0.997086 0.000579843
0.161715 0.993484 0.000823987
0.24506 0.987533 0.00108339
0.329412 0.981781 0.000869764
0.424399 0.974624 0.000381476
0.525734 0.966323 0.000442512
0.622354 0.957855 0.00030518
0.710811 0.948455 0.00477607
0.793652 0.939284 0.0209659
0.869154 0.928481 0.0403754
0.92636 0.916289 0.0547341
0.928542 0.892653 0.054612
0.927642 0.861128 0.0522774
0.927504 0.82919 0.0547646
0.927153 0.816312 0.0562142
0.927413 0.806668 0.059678
0.930159 0.795636 0.112993
0.933501 0.786053 0.187823
0.937118 0.777401 0.249332
0.939178 0.770535 0.307164
0.943496 0.765591 0.367681
0.948653 0.766949 0.444862
0.0228122 0.999832 0.000198367
0.0228122 0.999832 0.000198367
0.0228122 0.999832 0.000198367
0.0228122 0.999832 0.000198367
0.0228122 0.999832 0.000198367
0.0228122 0.999832 0.000198367
0.0228122 0.999832 0.000198367
0.0228122 0.999832 0.000198367
0.0228122 0.999832 0.000198367
0.0228122 0.999832 0.000198367
0.033875 0.999817 0.000198367
0.0854963 0.99971 0.000167849
0.150591 0.999542 7.62951e-05
0.218097 0.99939 4.57771e-05
0.294484 0.999329 0.000213626
0.38204 0.999634 0.000198367
0.478447 0.999634 9.15541e-05
0.577035 0.996124 0.000274662
0.667735 0.990387 0.000213626
0.751995 0.982147 0.0108186
0.829602 0.972168 0.0303197
0.900465 0.961166 0.0474098
0.93138 0.944381 0.0549325
0.928878 0.916487 0.055787
0.928649 0.883299 0.0537118
0.927932 0.863905 0.0529488
0.92697 0.853452 0.0542916
0.927382 0.842878 0.0559548
0.93135 0.831312 0.127825
0.936461 0.820188 0.210208
0.939879 0.81088 0.278569
0.943755 0.801907 0.348028
0.949157 0.799634 0.430518
0.0228122 0.999832 0.000198367
0.0228122 0.999832 0.000198367
0.0250401 0.999847 0.000198367
0.0312505 0.999847 0.000183108
0.0378576 0.999863 0.000167849
0.0440223 0.999863 0.000167849
0.0502327 0.999878 0.00015259
0.0576791 0.999893 0.000137331
0.0677501 0.999893 0.000122072
0.0808728 0.999924 9.15541e-05
0.0982376 0.999939 6.10361e-05
0.124224 0.999924 4.57771e-05
0.166384 0.999786 4.57771e-05
0.220539 0.999649 6.10361e-05
0.280552 0.999619 0.000167849
0.350851 0.999619 0.000320439
0.434958 0.999634 0.000122072
0.525505 0.99968 0.00030518
0.618128 0.99968 0.000427253
0.704341 0.99971 0.00222782
0.78526 0.999832 0.0194247
0.859724 0.996139 0.0421912
0.91873 0.986175 0.0544137
0.932204 0.965331 0.0571908
0.93106 0.936873 0.0546883
0.929885 0.909606 0.0543526
0.928832 0.898238 0.0546883
0.929076 0.888182 0.0544137
0.928573 0.877043 0.0599985
0.933135 0.86511 0.147189
0.938796 0.852689 0.237293
0.94255 0.841489 0.316594
0.948348 0.83566 0.409918
0.0380713 0.999817 0.000244144
0.03888 0.999802 0.000259403
0.0451362 0.999802 0.000274662
0.052781 0.999817 0.000289921
0.0599222 0.999817 0.00030518
0.0667735 0.999817 0.000320439
0.0736706 0.999817 0.000335698
0.082414 0.999817 0.000350958
0.0934157 0.999817 0.000366217
0.108827 0.999817 0.000396735
0.12929 0.999817 0.000442512
0.155703 0.999832 0.000503548
0.187442 0.999771 0.000488289
0.225071 0.999603 0.000335698
0.273045 0.99939 0.00015259
0.330816 0.99939 0.000213626
0.399619 0.999542 0.000411994
0.479118 0.999924 0.00030518
0.563943 0.999771 0.00030518
0.650111 0.99968 0.000289921
0.73225 0.999527 0.0075227
0.809796 0.999695 0.0324559
0.883223 0.999817 0.0610208
0.92929 0.996811 0.0729992
0.932387 0.983337 0.0612497
0.931441 0.957061 0.0558785
0.93106 0.942779 0.0541543
0.93077 0.931563 0.0562295
0.930556 0.920928 0.0543526
0.929992 0.90956 0.0635996
0.935317 0.896513 0.168261
0.941451 0.882597 0.272892
0.948287 0.874327 0.374426
0.085481 0.999817 0.000122072
0.090486 0.999802 0.000122072
0.0953078 0.999786 0.000122072
0.100465 0.999771 0.000122072
0.105867 0.999756 0.000137331
0.110979 0.999741 0.000137331
0.116289 0.999725 0.000137331
0.122591 0.99971 0.000137331
0.131029 0.999695 0.00015259
0.142931 0.999664 0.00015259
0.157763 0.999619 0.00015259
0.178393 0.999573 0.00015259
0.205051 0.999512 0.00015259
0.234379 0.999542 0.000137331
