Luts/Fujifilm/FLog2C_to_ASTIA_VLog.cube
TITLE "Generated by Resolve"
LUT_3D_SIZE 33
0.000350958 0.000259403 7.62951e-05
0.000350958 0.000259403 7.62951e-05
0.000350958 0.000259403 7.62951e-05
0.000350958 0.000259403 7.62951e-05
0.000350958 0.000259403 7.62951e-05
0.000350958 0.000259403 7.62951e-05
0.012604 0.000686656 1.5259e-05
0.0545815 0.00233463 0.00260929
0.122606 0.00309758 0.00341802
0.239322 0.004654 0.00384527
0.389654 0.00341802 0.00881972
0.557229 0.00062562 0.0242466
0.723583 0.000274662 0.0688945
0.882445 0.000137331 0.164569
0.993606 0.000213626 0.319677
0.999832 0 0.481834
0.999924 0.0102693 0.523568
0.999496 0.0959945 0.539483
0.999466 0.0997177 0.540078
0.999466 0.0997177 0.540078
0.999466 0.0997177 0.540078
0.999466 0.0997177 0.540078
0.999466 0.0997177 0.540078
0.999466 0.0997177 0.540078
0.999878 0.122133 0.526345
0.999756 0.166949 0.497078
0.999374 0.220966 0.475349
0.999771 0.279561 0.477455
0.999252 0.335546 0.48336
0.999817 0.390372 0.494453
0.999207 0.442908 0.511116
0.999527 0.495369 0.532052
0.999512 0.549523 0.567803
0.000350958 0.000259403 7.62951e-05
0.000350958 0.000259403 7.62951e-05
0.000350958 0.000259403 7.62951e-05
0.000350958 0.000259403 7.62951e-05
0.000350958 0.000259403 7.62951e-05
0.000350958 0.000259403 7.62951e-05
0.0204776 0.00102235 6.10361e-05
0.0637522 0.002533 0.00309758
0.132967 0.00314336 0.00364691
0.252537 0.00459297 0.00422675
0.400732 0.00326543 0.00924697
0.565652 0.000518807 0.0256657
0.729442 0.00030518 0.070985
0.886549 0.000137331 0.168246
0.994415 0.000213626 0.32311
0.999847 0 0.483406
0.999924 0.0105592 0.523796
0.999481 0.0964675 0.539559
0.999466 0.0997177 0.540078
0.999466 0.0997177 0.540078
0.999466 0.0997177 0.540078
0.999466 0.0997177 0.540078
0.999466 0.0997177 0.540078
0.999496 0.101991 0.538323
0.999893 0.133394 0.518791
0.999619 0.176303 0.491142
0.999222 0.229145 0.471977
0.999786 0.285679 0.475914
0.999146 0.339803 0.481956
0.999802 0.393729 0.493324
0.999237 0.445426 0.510353
0.999512 0.497139 0.531609
0.999542 0.55082 0.567391
0.000350958 0.000259403 7.62951e-05
0.000350958 0.000259403 7.62951e-05
0.000350958 0.000259403 7.62951e-05
0.000350958 0.000259403 7.62951e-05
0.000350958 0.000259403 7.62951e-05
0.000350958 0.000259403 7.62951e-05
0.027512 0.00129702 0.000183108
0.0725261 0.00271611 0.00347906
0.145525 0.00337224 0.00450141
0.26569 0.00447089 0.00482185
0.410773 0.0031281 0.00962844
0.571725 0.000442512 0.0266728
0.735424 0.000320439 0.0731365
0.890669 0.00015259 0.171939
0.995224 0.000213626 0.326513
0.999847 0 0.485466
0.999939 0.0108186 0.524025
0.999481 0.0970626 0.539651
0.999466 0.0997177 0.540078
0.999466 0.0997177 0.540078
0.999466 0.0997177 0.540078
0.999466 0.0997177 0.540078
0.999466 0.0997177 0.540078
0.999619 0.111101 0.531228
0.999756 0.143984 0.511482
0.999496 0.186755 0.484642
0.999054 0.237049 0.468757
0.999802 0.291676 0.474281
0.999023 0.344106 0.480568
0.999786 0.39707 0.492256
0.999283 0.447959 0.509514
0.999481 0.499046 0.531029
0.999557 0.552117 0.566964
0.000350958 0.000259403 7.62951e-05
0.000350958 0.000259403 7.62951e-05
0.000350958 0.000259403 7.62951e-05
0.000350958 0.000259403 7.62951e-05
0.000350958 0.000259403 7.62951e-05
0.00146487 7.62951e-05 1.5259e-05
0.035111 0.00158694 0.000808728
0.0824598 0.00282292 0.00328069
0.158175 0.00363165 0.00550851
0.278645 0.00436408 0.00534066
0.41915 0.00300603 0.00991836
0.580163 0.000335698 0.0280919
0.741421 0.000350958 0.0753033
0.894392 0.000167849 0.175265
0.996048 0.000198367 0.329946
0.999908 0 0.48336
0.999893 1.5259e-05 0.518654
0.999313 0.0567788 0.534661
0.999466 0.0992142 0.540032
0.999466 0.0997177 0.540078
0.999466 0.0997177 0.540078
0.999466 0.0997177 0.540078
0.999359 0.102678 0.538399
0.999557 0.121828 0.523919
0.999664 0.154971 0.504112
0.999451 0.195987 0.478889
0.999039 0.244984 0.465812
0.999817 0.297581 0.472099
0.999054 0.348379 0.479286
0.999756 0.400412 0.491035
0.999329 0.450492 0.508675
0.999466 0.500786 0.53048
0.999588 0.553429 0.566629
0.000350958 0.000259403 7.62951e-05
0.000350958 0.000259403 7.62951e-05
0.000350958 0.000259403 7.62951e-05
0.000350958 0.000259403 7.62951e-05
0.000350958 0.000259403 7.62951e-05
0.0101472 0.000595102 1.5259e-05
0.0436561 0.00198367 0.00157168
0.0906233 0.00280766 0.00273136
0.166079 0.00381476 0.0069276
0.279637 0.00422675 0.00587472
0.409964 0.00292973 0.00956741
0.560342 0.000457771 0.0246586
0.701808 6.10361e-05 0.0608072
0.84625 0.000137331 0.134722
0.97528 0.000289921 0.257069
0.99968 0 0.400977
0.999695 0.000106813 0.505852
0.999954 0.0144045 0.527077
0.999542 0.0931716 0.540459
0.999466 0.0997177 0.540078
0.999466 0.0997177 0.540078
0.999466 0.0997177 0.540078
0.999313 0.108202 0.535134
0.999359 0.134401 0.516014
0.999649 0.165225 0.49752
0.999527 0.205859 0.472709
0.999191 0.252888 0.464073
0.999817 0.303349 0.469612
0.9991 0.352758 0.477745
0.999741 0.403647 0.490105
0.999374 0.452842 0.507942
0.999435 0.502556 0.529946
0.999603 0.554589 0.566247
0.00047303 0.0230106 0
0.000457771 0.0235447 0
0.000427253 0.024094 0
0.000396735 0.0246891 0
0.000366217 0.0252842 0
0.0019379 0.0220645 3.0518e-05
0.0285039 0.0174868 0.000366217
0.0668956 0.0119631 9.15541e-05
0.127687 0.00819409 0.000869764
0.220005 0.00602731 0.00274662
0.342504 0.00445563 0.00819409
0.485649 0.00144961 0.0175174
0.635584 9.15541e-05 0.0383459
0.78204 4.57771e-05 0.0930037
0.916655 1.5259e-05 0.195026
0.997513 0 0.331136
0.999908 6.10361e-05 0.485069
0.999985 0.000213626 0.5196
0.999863 0.0684367 0.536843
0.999466 0.0997177 0.540078
0.999466 0.0997177 0.540078
0.999588 0.104829 0.536522
0.999771 0.121324 0.526802
0.999283 0.14612 0.508904
0.999649 0.175586 0.490837
0.999603 0.215442 0.466682
0.999329 0.260533 0.46244
0.999817 0.308995 0.46717
0.99913 0.357031 0.476402
0.999725 0.406882 0.489082
0.99942 0.45539 0.507164
0.99942 0.504341 0.529503
0.999634 0.555886 0.565835
0.000427253 0.0497749 0.000289921
0.000442512 0.05037 0.000274662
0.000442512 0.0509651 0.000274662
0.000457771 0.0516213 0.000259403
0.000457771 0.0522164 0.000259403
0.000213626 0.0448615 4.57771e-05
0.017792 0.0385595 0.000122072
0.0513008 0.0350805 0.000122072
0.107836 0.0309453 0.000717174
0.186847 0.0252079 0.000366217
0.301946 0.018555 0.00129702
0.436194 0.0117037 0.00257877
0.583612 0.00140383 0.0240787
0.72874 0.000350958 0.067689
0.869551 1.5259e-05 0.151949
0.994904 0 0.285679
0.999481 0.000198367 0.440146
0.999588 0 0.513771
0.999985 0.0422675 0.533455
0.999191 0.100923 0.540597
0.999512 0.109453 0.532753
0.999863 0.116976 0.528054
0.999786 0.133852 0.518593
0.999329 0.158267 0.501732
0.999664 0.186023 0.48426
0.999664 0.22472 0.460868
0.999481 0.268132 0.460472
0.999817 0.314611 0.4645
0.999176 0.361303 0.47512
0.999695 0.410086 0.487907
0.999466 0.457786 0.506371
0.999405 0.505974 0.529107
0.999649 0.557046 0.565454
1.5259e-05 0.0835889 3.0518e-05
1.5259e-05 0.0843214 4.57771e-05
1.5259e-05 0.0850385 4.57771e-05
1.5259e-05 0.0857862 4.57771e-05
1.5259e-05 0.0858778 3.0518e-05
0.000183108 0.070634 1.5259e-05
0.007187 0.0638132 0.000167849
0.039765 0.0578622 0
0.0873884 0.0525978 0.000488289
0.162188 0.0488594 0.000396735
0.266575 0.0437934 7.62951e-05
0.393835 0.0360723 0.000198367
0.541085 0.0268559 0.00224308
0.68893 0.0154879 0.0301518
0.829206 0.00201419 0.103166
0.961364 0.000671397 0.228107
0.999878 7.62951e-05 0.385351
0.999878 6.10361e-05 0.495277
0.99913 0.031693 0.514733
0.999741 0.115785 0.531243
0.999649 0.124407 0.52256
0.999939 0.135119 0.515511
0.999191 0.150271 0.50753
0.999359 0.172351 0.493248
0.999741 0.199161 0.476005
0.999664 0.235264 0.455695
0.999664 0.276997 0.458473
0.999832 0.321294 0.461524
0.999222 0.366339 0.473426
0.999664 0.414008 0.486656
0.999512 0.460746 0.505394
0.999374 0.508156 0.52845
0.99968 0.558602 0.565026
0 0.139773 0
0 0.140444 0
0 0.141222 0
0 0.141894 0
0 0.12932 0.000213626
3.0518e-05 0.111757 0.000488289
0.00251774 0.098024 0.000411994
0.0282444 0.0921187 0.00015259
0.0714885 0.0840162 0.000274662
0.139345 0.0786755 0.00015259
0.236088 0.0725567 0.000183108
0.359274 0.0662547 0.000106813
0.499596 0.0584268 4.57771e-05
0.64651 0.0477913 0.00233463
0.787015 0.0331731 0.0481575
0.91635 0.0206302 0.150927
0.999329 0.00733959 0.301274
0.999634 6.10361e-05 0.461814
0.999634 0.0421912 0.487816
0.999969 0.129992 0.510689
0.999878 0.149905 0.506539
0.999878 0.157961 0.502235
0.999649 0.170733 0.494759
0.999451 0.191699 0.481361
0.99971 0.215549 0.465507
0.999619 0.248585 0.4495
0.999527 0.287785 0.453956
0.999817 0.329931 0.457679
0.999283 0.372946 0.471382
0.999634 0.419135 0.484947
0.999588 0.464683 0.504082
0.999329 0.511025 0.527581
0.999725 0.560678 0.564279
0.000122072 0.220157 0.000122072
0.000122072 0.221088 0.000106813
0.000137331 0.221836 9.15541e-05
0.000137331 0.222522 7.62951e-05
0.000183108 0.187716 0.000274662
0.000198367 0.163058 9.15541e-05
0.000137331 0.147219 6.10361e-05
0.0135042 0.137682 1.5259e-05
0.0550393 0.128359 0.000122072
0.117113 0.120607 0.000228885
0.206271 0.112917 1.5259e-05
0.324041 0.107698 0.000259403
0.457176 0.098909 0.000244144
0.6056 0.0895399 0.000122072
0.745251 0.0785077 0.00440986
0.87335 0.0676432 0.0798657
0.999634 0.0510872 0.218387
0.999985 0.0338598 0.383474
0.999847 0.06392 0.451331
0.999969 0.142016 0.477348
0.999954 0.182574 0.487266
0.999802 0.188373 0.483192
0.999924 0.197986 0.477638
0.999557 0.21651 0.465537
0.999466 0.236881 0.451347
0.999634 0.265812 0.442222
0.999298 0.301472 0.448142
0.999664 0.340963 0.454307
0.99939 0.381689 0.46836
0.999588 0.426017 0.48278
0.99968 0.469932 0.50248
0.999283 0.514839 0.526528
0.999771 0.563394 0.563394
0 0.337011 0.000350958
0 0.337987 0.000350958
0 0.338659 0.000335698
6.10361e-05 0.304036 7.62951e-05
0.000289921 0.266072 0.000167849
3.0518e-05 0.237049 0.000167849
0.000366217 0.219654 0.000411994
0.00416571 0.201358 9.15541e-05
0.0382544 0.18851 1.5259e-05
0.0966964 0.178485 1.5259e-05
0.178576 0.168872 0.000137331
0.29218 0.158953 0.000198367
0.421378 0.151965 0
0.566583 0.144854 1.5259e-05
0.702144 0.137148 0.000228885
0.830655 0.129885 0.013138
0.955444 0.119921 0.116609
0.999969 0.102358 0.282185
0.999985 0.103334 0.403326
0.999313 0.163546 0.436225
0.999817 0.224399 0.45922
0.999924 0.227466 0.457862
0.999832 0.232502 0.454307
0.999725 0.24596 0.445594
0.999619 0.262852 0.434577
0.99971 0.288136 0.43331
0.999146 0.319036 0.440711
0.999466 0.355016 0.449821
0.999573 0.392706 0.463828
0.999542 0.434791 0.479759
0.999802 0.476661 0.500298
0.999222 0.51989 0.525017
0.999847 0.567025 0.562295
0 0.47129 0.000274662
0 0.472068 0.000274662
4.57771e-05 0.437278 0.000183108
0.000122072 0.388769 0.000686656
0.000259403 0.353216 0.000274662
0.00015259 0.327276 0.000167849
0.000122072 0.307378 0.000122072
0.000808728 0.290593 0.000274662
0.0203861 0.273426 0.000244144
0.0738231 0.258045 1.5259e-05
0.150179 0.246036 0.000442512
0.261677 0.231479 0.000411994
0.387823 0.222339 0.000427253
0.525505 0.214267 4.57771e-05
0.661555 0.20853 0.000335698
0.78764 0.20502 0.000122072
0.910658 0.198184 0.026566
0.999756 0.184039 0.165179
0.999893 0.169879 0.334813
0.999588 0.204898 0.381003
0.999573 0.26511 0.417426
0.999878 0.271336 0.427878
0.999573 0.27541 0.424796
0.999878 0.281468 0.421149
0.999512 0.29514 0.416556
0.999603 0.315663 0.421653
0.999252 0.341268 0.431861
0.999405 0.373007 0.44332
0.999817 0.406744 0.458106
0.999527 0.446067 0.475502
0.999741 0.485649 0.497017
0.99913 0.526528 0.523186
0.999939 0.571817 0.560739
7.62951e-05 0.620798 0.000534066
7.62951e-05 0.568566 0.00030518
1.5259e-05 0.51667 1.5259e-05
0.000228885 0.477485 0.000259403
4.57771e-05 0.449577 0.000640879
0.000106813 0.424399 0.000137331
6.10361e-05 0.406989 0.000228885
6.10361e-05 0.391165 0.000167849
0.00639353 0.372061 0.000106813
0.0466468 0.356451 0.000335698
0.123308 0.340993 0.000198367
0.227146 0.327779 0.000366217
0.354757 0.312596 0.000122072
0.485939 0.304982 1.5259e-05
0.620905 0.298238 0.000274662
0.745907 0.294255 7.62951e-05
0.866926 0.289662 0.000183108
0.982635 0.281956 0.0450141
0.999619 0.266941 0.213382
0.999374 0.269734 0.310002
0.999542 0.309697 0.362829
0.999512 0.323232 0.389624
0.999344 0.321218 0.390585
0.999893 0.325139 0.391028
0.999359 0.333562 0.397467
0.999771 0.348623 0.407996
0.999496 0.369009 0.420294
0.999588 0.395941 0.433753
0.999649 0.425086 0.450904
0.999512 0.460578 0.470192
0.999542 0.497093 0.492607
0.9991 0.534569 0.520241
0.999985 0.577966 0.55877
0.000167849 0.678386 0.000259403
0 0.633051 0.000396735
0 0.59881 0.000320439
0.000213626 0.56788 0.000381476
6.10361e-05 0.545296 4.57771e-05
6.10361e-05 0.525643 0.000137331
0.000106813 0.510521 0.00015259
0.000259403 0.495109 0.000259403
0.00149538 0.479072 0.000488289
0.0243992 0.460975 0.000335698
0.0905776 0.444389 0.000106813
0.194064 0.42826 0.000427253
0.31957 0.412741 0.00030518
0.450782 0.402319 0.000366217
0.586252 0.39443 0.000350958
0.708247 0.388479 3.0518e-05
0.826352 0.385412 3.0518e-05
0.944793 0.379232 0.000137331
0.998962 0.36495 0.0810254
0.99968 0.353216 0.224582
0.999619 0.366323 0.293706
0.999954 0.379385 0.346609
0.99913 0.37528 0.355627
0.999756 0.374121 0.366293
0.999374 0.37792 0.377768
0.999802 0.387655 0.390967
0.99968 0.403281 0.406073
0.999756 0.42385 0.422568
0.999054 0.44828 0.442008
0.999557 0.479103 0.462425
0.999268 0.511528 0.486961
0.999084 0.544976 0.516304
0.999954 0.586038 0.556115
7.62951e-05 0.724987 0.000335698
0 0.699229 0.000488289
1.5259e-05 0.677058 0.000518807
6.10361e-05 0.657618 0.000411994
0 0.64062 0.00047303
0 0.626429 0.000259403
0 0.614939 0.000198367
3.0518e-05 0.60264 0.000137331
0.000106813 0.586938 0.000183108
0.00982681 0.571237 0.000411994
0.0628672 0.553399 0.000259403
0.159487 0.535149 3.0518e-05
0.285191 0.519951 0.000167849
0.416648 0.50518 9.15541e-05
0.550179 0.495491 0.000198367
0.673732 0.488075 0
0.78764 0.482795 0.000122072
0.901701 0.47454 7.62951e-05
0.996109 0.462623 0.0087892
0.999466 0.44538 0.134127
0.999237 0.43772 0.220844
0.999619 0.442298 0.294697
0.999405 0.434455 0.323293
0.999481 0.428977 0.337148
0.999329 0.429206 0.351537
0.999573 0.432715 0.370779
0.999435 0.442832 0.388113
0.999329 0.45803 0.40621
0.999115 0.478096 0.428
0.999649 0.502144 0.452399
0.999359 0.530037 0.479606
0.999069 0.558312 0.511315
0.999893 0.596368 0.552575
0 0.781613 0.000259403
1.5259e-05 0.764752 0.000457771
3.0518e-05 0.750622 0.000320439
1.5259e-05 0.737774 0.000106813
3.0518e-05 0.72752 4.57771e-05
3.0518e-05 0.717556 0.00030518
0 0.708675 0.000595102
1.5259e-05 0.699245 0.000503548
0.000228885 0.688624 0.00047303
0.00297551 0.675944 0.000259403
0.0377813 0.662089 0.000350958
0.127581 0.64593 0.000640879
0.251667 0.630213 0.00030518
0.383673 0.615946 0.000274662
0.516793 0.602319 0.000274662
0.639597 0.591165 1.5259e-05
0.751339 0.584085 6.10361e-05
0.860349 0.575525 0.00015259
0.968688 0.5617 0
0.999451 0.54374 0.0255283
0.999542 0.523217 0.134936
0.999161 0.514641 0.225376
0.999146 0.49984 0.285771
0.999741 0.491279 0.303044
0.999283 0.484932 0.321263
0.999573 0.484886 0.342687
0.999161 0.489296 0.365438
0.999619 0.498589 0.386908
0.999649 0.512566 0.413275
0.999725 0.530495 0.441444
0.999527 0.553079 0.470237
0.999268 0.575586 0.503655
0.999817 0.609323 0.548241
4.57771e-05 0.840864 0.000228885
1.5259e-05 0.830655 0.000503548
3.0518e-05 0.8224 0.00077821
9.15541e-05 0.814252 0.000915541
0.000213626 0.807187 0.000564584
0.000259403 0.800366 0.000335698
0.000137331 0.794415 0.000320439
3.0518e-05 0.787106 0.000350958
0.00015259 0.777508 0.000366217
0.00108339 0.767651 0.000350958
0.0215763 0.756512 0.000198367
0.09514 0.743114 0.000213626
0.215793 0.729229 0.000396735
0.350134 0.714748 0.000137331
0.482628 0.700404 0.000350958
0.607706 0.68896 9.15541e-05
0.718685 0.672007 0
0.823835 0.65536 6.10361e-05
0.931136 0.650065 0
0.999268 0.639185 4.57771e-05
0.999283 0.61651 0.0351568
0.99968 0.595956 0.136965
0.999557 0.570626 0.229847
0.999664 0.556085 0.260609
0.999557 0.547845 0.283864
0.99939 0.542275 0.310079
0.999359 0.540475 0.338018
0.999695 0.542901 0.36611
0.999725 0.552041 0.394217
0.999588 0.564019 0.424842
0.999054 0.58056 0.457115
0.999481 0.596918 0.494545
0.999573 0.62359 0.542794
6.10361e-05 0.899443 0.000289921
3.0518e-05 0.893141 0.000167849
1.5259e-05 0.886915 0.000228885
0 0.881636 0.000289921
0 0.877348 0.000488289
0 0.873472 0.000686656
0 0.869352 0.000656138
0 0.864256 0.000427253
0 0.857633 0.000167849
0 0.849332 9.15541e-05
0.00691234 0.840131 0.000137331
0.0622721 0.82948 0.00015259
0.179767 0.816541 6.10361e-05
0.312901 0.803708 0.00015259
0.444923 0.786343 7.62951e-05
0.574426 0.764752 0.000244144
0.68545 0.744717 6.10361e-05
0.789029 0.726314 4.57771e-05
0.889845 0.71223 9.15541e-05
0.986404 0.709926 0
0.998947 0.705119 6.10361e-05
0.999176 0.678965 0.0323339
0.999634 0.643839 0.149523
0.999161 0.622614 0.208011
0.999466 0.61117 0.239399
0.999084 0.602228 0.271138
0.99939 0.595895 0.303105
0.999222 0.594003 0.335286
0.999359 0.594827 0.370642
0.999771 0.601663 0.405829
0.999268 0.610666 0.442542
0.999557 0.622034 0.485267
0.99942 0.642023 0.535073
1.5259e-05 0.959258 0.00047303
1.5259e-05 0.955093 0.000564584
3.0518e-05 0.951247 0.000640879
4.57771e-05 0.947677 0.000717174
4.57771e-05 0.944121 0.000747692
6.10361e-05 0.941115 0.00077821
6.10361e-05 0.937819 0.000808728
4.57771e-05 0.934112 0.000610361
1.5259e-05 0.928908 0.00030518
0.000610361 0.922667 0.000167849
0.00248722 0.915816 0.00047303
0.0428473 0.905943 0.000640879
0.137041 0.895537 0.000503548
0.270008 0.877974 0.000335698
0.405905 0.856291 0.000381476
0.53695 0.835233 0.000183108
0.651331 0.816068 1.5259e-05
0.755261 0.796674 0.000122072
0.854673 0.779416 0
0.961364 0.76463 1.5259e-05
0.999374 0.76965 6.10361e-05
0.99913 0.761151 0.000198367
0.999329 0.721431 0.0431983
0.99939 0.688548 0.145892
0.999451 0.673243 0.186694
0.999557 0.662226 0.224781
0.99942 0.652033 0.262196
0.998978 0.644434 0.301518
0.999344 0.641596 0.340902
0.999252 0.641367 0.381537
0.99942 0.645121 0.423194
0.999207 0.650675 0.469993
0.999619 0.666041 0.523354
0 0.998489 0.000320439
1.5259e-05 0.998215 0.00030518
1.5259e-05 0.997955 0.00030518
1.5259e-05 0.997711 0.000289921
1.5259e-05 0.997635 0.000289921
1.5259e-05 0.997436 0.000289921
0 0.997253 0.000289921
0 0.997192 0.000289921
0 0.995026 0.000213626
0 0.992004 0.000106813
0.00172427 0.987488 3.0518e-05
0.00614939 0.979797 3.0518e-05
0.097612 0.964172 0.000381476
0.225467 0.945342 0.000259403
0.364385 0.92398 6.10361e-05
0.499382 0.902205 0.000289921
0.616449 0.882063 0
0.722576 0.862943 0.000350958
0.819699 0.844907 1.5259e-05
0.920867 0.827268 3.0518e-05
0.996887 0.815534 1.5259e-05
0.999039 0.814954 0
0.999298 0.798306 0.000106813
0.998993 0.756817 0.0566873
0.999374 0.735058 0.118318
0.999542 0.720821 0.16347
0.999283 0.709697 0.20911
0.998947 0.698589 0.253864
0.998962 0.6907 0.300893
0.999405 0.685634 0.348669
0.999756 0.683162 0.398016
0.999847 0.683513 0.451621
0.999237 0.692454 0.509255
0 1 0.000289921
0 1 0.000289921
0 1 0.000289921
0 1 0.000289921
0 1 0.000289921
0 1 0.000289921
0 1 0.000289921
0 1 0.000289921
0 1 0.000289921
0.000183108 1 0.000289921
0.000427253 1 0.000289921
0.0176394 0.999924 0.000289921
0.0646677 0.999817 0.000350958
0.182666 0.999725 0.000289921
0.319631 0.988785 0.000457771
0.454047 0.969406 0.000137331
0.580392 0.948623 6.10361e-05
0.686717 0.928466 6.10361e-05
0.78616 0.910048 0.000350958
0.883803 0.892317 0
0.978683 0.874662 1.5259e-05
0.99762 0.85861 3.0518e-05
0.999023 0.844968 0.000122072
0.999329 0.827924 1.5259e-05
0.999207 0.79855 0.030808
0.999298 0.782116 0.0840467
0.999649 0.768643 0.139864
0.9991 0.754421 0.19501
0.999466 0.742321 0.250156
0.999313 0.733684 0.307897
0.999741 0.726207 0.365377
0.999451 0.721706 0.427405
0.999496 0.725521 0.494087
0 1 0.000289921
0 1 0.000289921
0 1 0.000289921
0 1 0.000289921
0 1 0.000289921
0 1 0.000289921
0 1 0.000289921
0 1 0.000289921
0 1 0.000289921
0 1 0.000289921
0 1 0.000289921
0 1 0.000289921
0.0420386 0.999893 0.000442512
0.134554 0.999588 0.000808728
0.266651 0.999741 0.000732433
0.405234 0.999557 0.000488289
0.534783 0.999817 0.000137331
0.648646 0.995743 0.000335698
0.748684 0.977172 0.000198367
0.841321 0.957153 0.00015259
0.936553 0.932937 0.000106813
0.992554 0.909529 0.000122072
0.995636 0.885161 3.0518e-05
0.997879 0.871397 0
0.999405 0.858183 0.000106813
0.998917 0.844572 0.0110475
0.999161 0.828748 0.0496529
0.999146 0.811856 0.117891
0.99968 0.798123 0.187198
0.99942 0.785168 0.254063
0.999176 0.773617 0.325185
0.999496 0.764279 0.392294
0.999451 0.762295 0.468315
0 1 0.000289921
0 1 0.000289921
0 1 0.000289921
0 1 0.000289921
0 1 0.000289921
0 1 0.000289921
0 1 0.000289921
0 1 0.000289921
0 1 0.000289921
0 1 0.000289921
0.00265507 1 0.000274662
0.0196384 0.999954 0.000198367
0.0408026 0.999878 9.15541e-05
0.108156 0.999847 4.57771e-05
0.221546 0.999832 3.0518e-05
0.343999 0.999786 0
0.474403 0.99968 0.000518807
0.590707 0.999619 0.000122072
0.695186 0.99939 3.0518e-05
0.789731 0.998322 4.57771e-05
0.881621 0.985977 0.000122072
0.966644 0.963088 0.000228885
0.990158 0.938247 4.57771e-05
0.993088 0.909712 1.5259e-05
0.995911 0.894499 3.0518e-05
0.997909 0.889128 0
0.99884 0.884108 0.00178531
0.999313 0.869764 0.0217746
0.999268 0.852766 0.106523
0.999329 0.83772 0.184634
0.999313 0.822599 0.266026
0.99913 0.808881 0.349432
0.999283 0.801663 0.436927
0 1 0.000289921
0 1 0.000289921
0 1 0.000289921
3.0518e-05 1 0.000274662
6.10361e-05 1 0.000274662
7.62951e-05 1 0.000274662
9.15541e-05 1 0.000274662
0.000122072 1 0.000274662
0.000137331 1 0.000274662
0.00015259 1 0.000274662
0.000122072 1 0.000274662
0.0119631 0.999985 0.000259403
0.0568551 0.999954 0.000183108
0.114031 0.999893 7.62951e-05
0.19733 0.999863 0.000167849
0.307866 0.999924 0.00030518
0.419318 0.99968 0.000198367
0.533028 0.999802 0.000106813
0.638178 0.999802 0.000350958
0.735103 0.999542 3.0518e-05
0.825422 0.999557 4.57771e-05
0.916426 0.999573 0.00138857
0.979583 0.985626 0.00834669
0.988373 0.961501 0.00173953
0.99115 0.931609 0
0.994751 0.91696 1.5259e-05
0.99556 0.915358 0.000198367
0.997452 0.915297 0.000259403
0.998962 0.910735 0.0119783
0.998764 0.891951 0.0913405
0.999161 0.872633 0.190051
0.999405 0.855848 0.289708
0.9991 0.844404 0.396033
0 1 0.000289921
0 1 0.000289921
0.00192264 1 0.000289921
0.00489815 1 0.00030518
0.00766003 0.999985 0.00030518
0.0105745 0.999985 0.000320439
0.0133059 0.999985 0.000320439
0.0168765 0.999969 0.000335698
0.0214847 0.999969 0.000350958
0.0275425 0.999954 0.000366217
0.0353857 0.999939 0.000381476
0.0456397 0.999924 0.000411994
0.0709087 0.999908 0.000381476
0.123613 0.999924 0.000274662
0.190326 0.999954 0.000137331
0.272816 0.999878 0.000228885
0.373831 0.999725 0.000518807
0.47744 0.999695 0.000610361
0.57847 0.999619 0.000106813
0.675456 0.99968 0.000549325
0.766644 0.999466 3.0518e-05
0.854154 0.999649 9.15541e-05
0.942153 0.999542 0.0074464
0.982803 0.996597 0.0195773
0.985992 0.980056 0.00808728
0.988998 0.952193 0.000167849
0.990295 0.942916 9.15541e-05
0.991226 0.942412 1.5259e-05
0.99379 0.94403 0.000213626
0.994583 0.945434 0.00234989
0.997635 0.928801 0.0887007
0.998993 0.907179 0.20885
0.999557 0.89134 0.336996
0.00030518 1 0.000274662
0.00189212 1 0.000274662
0.00633249 0.999969 0.000289921
0.0103151 0.999954 0.000289921
0.0143587 0.999939 0.00030518
0.0183261 0.999924 0.00030518
0.0223545 0.999908 0.000320439
0.0275273 0.999878 0.000320439
0.0339055 0.999847 0.000335698
0.0426795 0.999802 0.000350958
0.0549172 0.999741 0.000366217
0.0699016 0.99968 0.000381476
0.0898756 0.999588 0.000411994
0.125582 0.999588 0.000427253
0.180941 0.999725 0.00047303
0.251499 0.999893 0.000549325
0.328908 0.999847 0.000595102
0.420447 0.999802 0.000549325
0.517357 0.999924 0.000335698
0.611597 0.999786 6.10361e-05
0.703395 0.999863 0.000488289
0.789685 0.999695 0.000244144
0.876539 0.999893 0.000549325
0.958862 0.999496 0.0137942
0.983642 0.999985 0.0220188
0.9841 0.99202 0.0158236
0.986114 0.979355 0.00611887
0.986648 0.970611 0.000976577
0.988266 0.968673 0.000656138
0.989792 0.972732 0.00242618
0.991882 0.977188 0.00608835
