Luts/Fujifilm/FLog2C_to_CLASSIC-Neg._VLog.cube
TITLE "Generated by Resolve"
LUT_3D_SIZE 9
0.000137331 0.000122072 6.10361e-05
0.000137331 0.000122072 6.10361e-05
0.101671 0.0087892 7.62951e-05
0.711467 0.0638285 0
0.947707 0.217502 0.217929
0.951064 0.281895 0.277256
0.952056 0.297673 0.273915
0.958495 0.439689 0.34493
0.972488 0.640208 0.549065
0.000137331 0.000122072 6.10361e-05
1.5259e-05 0.000320439 6.10361e-05
0.124422 0.00973526 0.00015259
0.690089 0.060502 0.000198367
0.944045 0.173114 0.173617
0.951064 0.281895 0.277256
0.952117 0.322835 0.27187
0.959136 0.453269 0.349691
0.972595 0.644678 0.550698
0.00337224 0.116182 0.0296025
0.00289921 0.107958 0.0227054
0.0533913 0.078706 0.00497444
0.401785 0.0923171 0.000427253
0.930343 0.169909 0.0747997
0.952224 0.31191 0.272572
0.952651 0.350515 0.267903
0.959609 0.469642 0.355261
0.972732 0.649943 0.552499
0.0163119 0.48246 0.110857
0.00927749 0.313893 0.0525216
0.00761425 0.256306 0.0421149
0.220325 0.232181 0.00782788
0.852277 0.295644 0.00263981
0.952667 0.402441 0.227176
0.95523 0.428046 0.274311
0.960555 0.511223 0.366644
0.973037 0.665385 0.557931
0.0234226 0.739101 0.122683
0.0216983 0.701656 0.116625
0.0210422 0.670268 0.112276
0.0433509 0.617533 0.0992447
0.715969 0.619913 0.0061799
0.956298 0.645029 0.161166
0.960601 0.603159 0.30135
0.963867 0.619913 0.390585
0.973404 0.708949 0.571237
0.0295567 0.92195 0.154574
0.0297093 0.91754 0.153872
0.0298466 0.912764 0.1523
0.0284581 0.9028 0.150851
0.246403 0.892561 0.11841
0.931823 0.907042 0.043595
0.965637 0.825742 0.286091
0.969436 0.793942 0.404242
0.977295 0.799054 0.594156
0.0293126 0.944457 0.157107
0.0292973 0.944442 0.157092
0.0292973 0.944442 0.157092
0.0292973 0.944442 0.157092
0.0293431 0.944396 0.157168
0.619928 0.977691 0.0794842
0.942748 0.982742 0.0905776
0.964858 0.941054 0.310338
0.979141 0.914046 0.574029
0.0300603 0.945205 0.157855
0.0300298 0.945174 0.157824
0.029984 0.945144 0.157794
0.0298619 0.945022 0.157671
0.0295109 0.944656 0.157305
0.0903944 0.947433 0.14966
0.803388 0.989288 0.0563211
0.938827 0.995529 0.122423
0.953292 0.994202 0.390051
0.253941 0.952529 0.870527
0.257877 0.952804 0.869841
0.262898 0.95314 0.869108
0.27718 0.954101 0.86685
0.324224 0.957259 0.8598
0.459083 0.965515 0.829404
0.793606 0.985168 0.753475
0.967239 0.993194 0.664561
0.968795 0.993194 0.68574
0.000106813 0.00015259 0.000259403
0.000122072 0.000137331 6.10361e-05
0.1196 0.00946059 3.0518e-05
0.728786 0.0659953 1.5259e-05
0.94786 0.219532 0.219913
0.951064 0.281895 0.277256
0.952056 0.29749 0.273945
0.95848 0.439567 0.344945
0.972488 0.640208 0.549065
0.000106813 0.000137331 0.00015259
0.000137331 0.000122072 6.10361e-05
0.144366 0.0107424 6.10361e-05
0.711437 0.0630808 0.000183108
0.944228 0.175204 0.176242
0.951064 0.281895 0.277256
0.952117 0.322637 0.271885
0.959136 0.453071 0.349706
0.972595 0.644678 0.550698
0.00337224 0.115572 0.0297246
0.00299077 0.0995956 0.0180972
0.0682689 0.0774853 0.00309758
0.421805 0.0932784 0.000396735
0.931395 0.170245 0.0776837
0.952209 0.311513 0.272618
0.952636 0.350271 0.267948
0.959609 0.469612 0.355291
0.972732 0.649973 0.552605
0.0147555 0.445426 0.0948806
0.00888075 0.301411 0.049073
0.00767529 0.25211 0.0415808
0.230259 0.231678 0.00640879
0.854658 0.295964 0.00326543
0.952697 0.402411 0.227863
0.95523 0.428031 0.274357
0.960555 0.511254 0.366705
0.973037 0.665385 0.557931
0.0229038 0.732143 0.12195
0.0214084 0.697032 0.116014
0.0210727 0.666972 0.11191
0.0471351 0.615717 0.0983139
0.721279 0.619913 0.0056611
0.956313 0.64477 0.161593
0.960586 0.603143 0.301396
0.963867 0.619913 0.390585
0.973404 0.708949 0.571237
0.0295872 0.921309 0.154543
0.0297246 0.916823 0.153643
0.0297246 0.912261 0.1523
0.0284733 0.902281 0.150683
0.25211 0.892729 0.117632
0.932158 0.906889 0.0440681
0.965637 0.825711 0.286183
0.969436 0.793942 0.404242
0.977295 0.799054 0.594263
0.0292973 0.944457 0.157092
0.0292973 0.944442 0.157092
0.0292973 0.944442 0.157092
0.0292973 0.944442 0.157092
0.0293584 0.944381 0.157183
0.622553 0.977844 0.0791485
0.942794 0.982651 0.0910201
0.964858 0.940978 0.310445
0.979141 0.914046 0.574029
0.0300603 0.945205 0.157855
0.0300298 0.945174 0.157824
0.029984 0.945129 0.157778
0.0298619 0.945022 0.157656
0.0295109 0.944656 0.157305
0.091371 0.947494 0.149538
0.803677 0.989303 0.0562905
0.938827 0.995529 0.122423
0.953307 0.994202 0.390158
0.254475 0.95256 0.870451
0.258412 0.952834 0.869764
0.263325 0.95317 0.869017
0.278248 0.954177 0.866697
0.325185 0.957336 0.859632
0.459648 0.96556 0.829419
0.793957 0.985199 0.753368
0.967224 0.993194 0.664469
0.968795 0.993194 0.68574
0.0147097 0.00631724 0.0700236
0.0144503 0.0062562 0.0694133
0.118593 0.00737011 0.0255131
0.673167 0.0577707 0
0.946059 0.199664 0.201068
0.951064 0.281895 0.277256
0.952041 0.297215 0.273976
0.95848 0.439475 0.344915
0.972488 0.640085 0.54902
0.0145724 0.00628672 0.0697032
0.0106813 0.00407416 0.0585336
0.141527 0.00914015 0.0237125
0.66006 0.0550546 0
0.94403 0.160891 0.164233
0.951064 0.281895 0.277256
0.952132 0.322423 0.271885
0.959136 0.453025 0.34966
0.972595 0.644572 0.550652
0.00999466 0.154482 0.17261
0.00683604 0.118273 0.123613
0.078584 0.0906691 0.0758373
0.406226 0.0985885 0.0362097
0.921798 0.171557 0.0894636
0.951949 0.315587 0.27248
0.952621 0.350011 0.267994
0.959609 0.46949 0.355261
0.972732 0.649973 0.552605
0.0257115 0.520821 0.336919
0.0159915 0.356191 0.200427
0.0133974 0.292592 0.155871
0.236164 0.258824 0.102754
0.850446 0.307271 0.0739147
0.954116 0.410498 0.266087
0.955215 0.427665 0.274281
0.960555 0.511101 0.366644
0.973037 0.665385 0.557931
0.0296788 0.769131 0.274754
0.0286412 0.738323 0.244862
0.0260014 0.709651 0.225467
0.0430457 0.656596 0.195956
0.712276 0.6448 0.114199
0.958694 0.654368 0.222507
0.960586 0.60293 0.301396
0.963867 0.619745 0.390539
0.973404 0.708965 0.571328
0.0294652 0.928344 0.155596
0.0295109 0.924544 0.155077
0.0298619 0.920058 0.154345
0.0281529 0.909651 0.152438
0.221241 0.897612 0.123247
0.930739 0.908629 0.0950942
0.965637 0.82565 0.286259
0.969421 0.794003 0.404181
0.977295 0.799054 0.594263
0.0292973 0.944442 0.157092
0.0292973 0.944442 0.157092
0.0292973 0.944442 0.157092
0.0292973 0.944442 0.157092
0.0293889 0.944366 0.157214
0.62475 0.977981 0.0788586
0.942779 0.982681 0.0909285
0.964858 0.940978 0.310445
0.979156 0.914046 0.574151
0.030045 0.945205 0.157855
0.0300145 0.945174 0.157809
0.029984 0.945129 0.157778
0.0298619 0.945006 0.157656
0.0295109 0.944656 0.157305
0.0928054 0.94757 0.149355
0.804059 0.989334 0.0562448
0.938842 0.995529 0.12256
0.953307 0.994202 0.390158
0.255436 0.952636 0.870268
0.259373 0.952895 0.869688
0.264393 0.953231 0.868849
0.278676 0.954208 0.86659
0.325719 0.957366 0.859556
0.460594 0.965606 0.829175
0.794293 0.985214 0.753262
0.967224 0.993194 0.664469
0.968795 0.993194 0.68574
0.0782635 0.0380407 0.267735
0.0686503 0.0238651 0.223331
0.131853 0.0145876 0.129122
0.645457 0.0475471 0.0734722
0.947723 0.182376 0.257847
0.952346 0.288685 0.306737
0.95491 0.321004 0.334142
0.95845 0.438972 0.344839
0.972488 0.639994 0.549081
0.078172 0.0380102 0.267475
0.057496 0.0189517 0.19089
0.155734 0.0150454 0.1234
0.648936 0.0469978 0.0772106
0.946517 0.143725 0.251438
0.954894 0.306111 0.358801
0.955718 0.350347 0.34844
0.959121 0.452354 0.349569
0.972595 0.64448 0.550713
0.0742809 0.231495 0.505684
0.0491188 0.14786 0.329686
0.109178 0.108202 0.222675
0.431464 0.111162 0.155932
0.919142 0.171725 0.213611
0.957656 0.359045 0.395331
0.95758 0.382986 0.363531
0.959609 0.468986 0.355169
0.972732 0.649882 0.552651
0.0431067 0.604776 0.730007
0.0300298 0.431998 0.508659
0.0283207 0.352285 0.406317
0.279271 0.299153 0.294255
0.854231 0.328344 0.249546
0.961181 0.439628 0.414343
0.960388 0.462791 0.393942
0.960555 0.510857 0.366705
0.973037 0.665293 0.557992
0.0464637 0.799344 0.675502
0.0431067 0.77435 0.623819
0.0400702 0.750484 0.580011
0.0867323 0.705135 0.504967
0.723583 0.682445 0.371206
0.967865 0.678309 0.430564
0.966659 0.630686 0.442969
0.963882 0.619684 0.390661
0.973404 0.708858 0.571298
0.0450904 0.930053 0.546838
0.0447395 0.927398 0.537362
0.0440528 0.924498 0.528069
0.0420996 0.915602 0.505455
0.2112 0.904005 0.451286
0.931212 0.913603 0.376074
0.971679 0.833082 0.450401
0.969406 0.793652 0.404303
0.977295 0.798978 0.594354
0.0344854 0.9449 0.28069
0.0344549 0.944884 0.279652
0.0344244 0.944884 0.278157
0.034226 0.944854 0.274525
0.0344091 0.94432 0.2663
0.541604 0.973953 0.203647
0.949325 0.983444 0.225452
0.964889 0.940932 0.310719
0.979156 0.914046 0.574151
0.0323339 0.94464 0.202365
0.0322271 0.944656 0.200855
0.0320897 0.944671 0.198871
0.031693 0.944701 0.193057
0.0307164 0.944823 0.177508
0.0992447 0.947829 0.151034
0.804608 0.989425 0.0561532
0.938842 0.995544 0.122728
0.953323 0.994186 0.390356
0.257465 0.952773 0.869932
0.261402 0.953033 0.869368
0.2663 0.953368 0.86862
0.280705 0.954345 0.866377
0.327749 0.957504 0.85922
0.461982 0.965698 0.828794
0.79498 0.98526 0.753048
0.967224 0.993194 0.664393
0.968811 0.993194 0.685908
0.205875 0.0948501 0.649439
0.19443 0.0888838 0.623789
0.172381 0.0501717 0.394858
0.626642 0.0447395 0.270527
0.951812 0.134051 0.413565
0.957351 0.315908 0.428382
0.960586 0.3635 0.46923
0.965011 0.49015 0.502663
0.972457 0.639704 0.549142
0.205936 0.0949111 0.649561
0.169314 0.0771649 0.564721
0.194369 0.0477302 0.376761
0.652186 0.0450904 0.268757
0.951629 0.120317 0.408545
0.959304 0.314443 0.47013
0.962615 0.399405 0.492699
0.965484 0.502907 0.508629
0.97258 0.64419 0.550774
0.258137 0.304021 0.830839
0.192615 0.211048 0.718624
0.186145 0.13872 0.541054
0.512078 0.126207 0.405386
0.923568 0.174411 0.428153
0.96286 0.374426 0.516625
0.965042 0.43856 0.518853
0.966155 0.517906 0.516258
0.972702 0.64947 0.552682
0.186954 0.692531 0.990127
0.140948 0.533989 0.872404
0.147265 0.441596 0.779583
0.391119 0.364996 0.634211
0.874815 0.357595 0.530922
0.967285 0.461707 0.584573
0.968933 0.523995 0.569955
0.9682 0.558373 0.534737
0.973037 0.664866 0.558068
0.0588693 0.824887 0.98613
0.0575265 0.802945 0.956741
0.055436 0.781674 0.929915
0.190356 0.748074 0.859312
0.768231 0.721248 0.711849
0.977157 0.69778 0.67834
0.975464 0.673014 0.63859
0.972885 0.655863 0.572168
0.973404 0.708583 0.571481
0.059266 0.924804 0.938766
0.0583658 0.922591 0.932921
0.0589151 0.92076 0.927199
0.0580148 0.912047 0.909865
0.265293 0.906645 0.847791
0.932738 0.914733 0.715984
0.982391 0.843351 0.688472
0.978042 0.806302 0.612284
0.977279 0.798901 0.594537
0.052491 0.942519 0.73402
0.0525063 0.942458 0.734203
0.0525063 0.942382 0.734707
0.0525673 0.942077 0.735683
0.0531624 0.940948 0.741695
0.489387 0.967819 0.658137
0.967163 0.983841 0.581231
0.976852 0.939284 0.557931
0.979171 0.91397 0.574624
0.0504921 0.941436 0.688426
0.0504158 0.941451 0.686625
0.0503243 0.941482 0.684062
0.0500343 0.941543 0.677134
0.0498054 0.941802 0.65594
0.181796 0.950088 0.580468
0.795666 0.987305 0.393179
0.948455 0.994598 0.305348
0.953338 0.994186 0.390738
0.266972 0.953933 0.911604
0.271092 0.954192 0.910903
0.276234 0.954528 0.910033
0.291112 0.955459 0.907485
0.338857 0.958465 0.899351
0.503166 0.96762 0.871885
0.801968 0.986206 0.795636
0.967803 0.992981 0.674937
0.968826 0.993194 0.686076
0.590417 0.24921 0.905776
0.590524 0.249256 0.905791
0.405921 0.175647 0.847959
0.653544 0.122652 0.66833
0.952941 0.0932784 0.619348
0.962341 0.282185 0.56199
0.965179 0.352514 0.586099
0.97145 0.515267 0.637308
0.978241 0.680598 0.691585
0.590417 0.24921 0.905776
0.590356 0.249165 0.905745
0.370382 0.161715 0.83064
0.672145 0.121828 0.662074
0.954269 0.0939345 0.62002
0.964813 0.302998 0.598321
0.967315 0.388769 0.609613
0.972015 0.530327 0.645853
0.978286 0.684382 0.693217
0.642817 0.385916 0.941421
0.641764 0.388739 0.942092
0.419547 0.219699 0.866484
0.652186 0.163607 0.729961
0.93489 0.181842 0.67335
0.966171 0.337407 0.644129
0.968353 0.427771 0.632593
0.972793 0.547814 0.65626
0.978363 0.688945 0.695186
0.504463 0.69192 0.999741
0.510842 0.65771 0.999985
0.420356 0.556588 0.975479
0.593225 0.447791 0.879454
0.902098 0.394827 0.778851
0.973312 0.442237 0.736461
0.973465 0.521019 0.681392
0.974502 0.595132 0.679179
0.978592 0.701839 0.700816
0.228702 0.833173 0.999863
0.225437 0.821057 0.999863
0.228534 0.805905 0.999542
0.403418 0.784726 0.999573
0.829847 0.753841 0.912383
0.984741 0.704463 0.84979
0.981247 0.694179 0.762783
0.979934 0.699367 0.732799
0.980087 0.737057 0.716411
0.0659648 0.912108 0.999908
0.0653239 0.910109 0.999985
0.0635843 0.907347 0.999969
0.0676432 0.901473 0.999603
0.414618 0.907759 0.999695
0.933639 0.907942 0.905409
0.987686 0.856306 0.841428
0.985183 0.822019 0.789715
0.983063 0.811719 0.744121
0.062562 0.942382 0.996597
0.0624704 0.942306 0.996414
0.0623941 0.94229 0.996078
0.0621958 0.94226 0.995056
0.06215 0.942184 0.991913
0.460487 0.965454 0.934249
0.976516 0.977661 0.8374
0.988281 0.935897 0.800534
0.986877 0.91249 0.756741
0.061387 0.941955 0.972534
0.0614176 0.941924 0.971954
0.0614328 0.941909 0.971206
0.0614786 0.941833 0.969253
0.080354 0.942733 0.960418
0.308232 0.956359 0.915938
0.817166 0.986358 0.807874
0.968429 0.993072 0.685573
0.966827 0.992996 0.639643
0.293385 0.956603 0.998566
0.29691 0.956832 0.99852
0.30135 0.957122 0.998413
0.314183 0.957992 0.998169
0.355779 0.960769 0.997391
0.509544 0.969848 0.980148
0.829892 0.988602 0.924956
0.979736 0.993973 0.851713
0.974853 0.993393 0.789258
0.686763 0.300984 0.920211
0.686763 0.300984 0.920211
0.686763 0.300984 0.920211
0.67953 0.293782 0.919692
0.931746 0.222354 0.847822
0.969467 0.257298 0.759777
0.969512 0.334981 0.714076
0.974853 0.492576 0.745678
0.981476 0.674144 0.782818
0.686763 0.300984 0.920211
0.686763 0.300984 0.920211
0.686763 0.300984 0.920211
0.684337 0.294057 0.918975
0.933227 0.221393 0.84686
0.969467 0.257969 0.759258
0.971008 0.367041 0.730541
0.975296 0.507347 0.751812
0.981628 0.678782 0.784787
0.686763 0.300984 0.920211
0.686763 0.300984 0.920211
0.686763 0.300984 0.920211
0.701732 0.294163 0.916716
0.934264 0.223331 0.848035
0.970947 0.287785 0.790143
0.972732 0.403174 0.747127
0.97586 0.524071 0.758663
0.981811 0.684398 0.787167
0.649668 0.517601 0.963897
0.649271 0.518776 0.964202
0.648814 0.520165 0.964553
0.660258 0.464439 0.952331
0.917815 0.441825 0.912459
0.977127 0.418006 0.866163
0.976349 0.491432 0.783246
0.977935 0.56936 0.777203
0.982406 0.700099 0.793729
0.302403 0.833967 0.999466
0.308415 0.831693 0.999512
0.47747 0.750439 0.99971
0.522576 0.732082 0.999802
0.846601 0.732525 0.972702
0.987579 0.691798 0.942443
0.983185 0.660243 0.84387
0.982284 0.673564 0.816922
0.984268 0.741009 0.810468
0.166293 0.871489 0.999954
0.176761 0.870634 0.999985
0.202976 0.870848 1
0.293339 0.87219 0.999985
0.607263 0.882765 0.99968
0.931777 0.886168 0.986633
0.990997 0.83975 0.920882
0.988754 0.815579 0.87219
0.988067 0.819989 0.847654
0.066804 0.941085 0.999802
0.0668345 0.940948 0.999786
0.0668803 0.94081 0.999771
0.0666819 0.939956 0.999878
0.119738 0.941115 0.999878
0.57171 0.961563 0.999664
0.972168 0.963912 0.962051
0.993225 0.931594 0.920363
0.990692 0.911452 0.886091
0.09131 0.943572 0.999954
0.0932021 0.943664 0.999954
0.0991073 0.943999 0.999954
0.117388 0.945052 0.999908
0.174228 0.948455 0.999832
0.35552 0.960204 0.999634
0.835492 0.989609 0.968734
0.986862 0.995392 0.905974
0.981353 0.993545 0.864668
0.353063 0.959396 1
0.356558 0.95964 1
0.360479 0.959915 1
0.373632 0.96083 1
0.414374 0.963638 1
0.554147 0.971801 1
0.825833 0.988602 0.999176
0.987381 0.99736 0.970016
0.989029 0.995804 0.930159
0.540185 0.700633 0.999878
0.540185 0.700633 0.999878
0.540185 0.700633 0.999878
0.540185 0.700633 0.999878
0.540002 0.700816 0.999878
0.953643 0.324681 0.887572
0.976104 0.373709 0.854414
0.977646 0.453468 0.845899
0.983719 0.630518 0.866972
0.540185 0.700633 0.999878
0.540185 0.700633 0.999878
0.540185 0.700633 0.999878
0.540185 0.700633 0.999878
0.540002 0.700816 0.999878
0.95436 0.324804 0.88751
0.976074 0.373724 0.854414
0.977951 0.465797 0.849943
0.983978 0.635126 0.868467
0.540185 0.700633 0.999878
0.540185 0.700633 0.999878
0.540185 0.700633 0.999878
0.540185 0.700633 0.999878
0.540002 0.700816 0.999878
0.955047 0.32546 0.887541
0.97612 0.380514 0.856138
0.978698 0.480125 0.854536
0.984207 0.640543 0.870222
0.540185 0.700633 0.999878
0.539452 0.701366 0.999878
0.538567 0.702266 0.999878
0.535866 0.705013 0.999863
0.527443 0.713588 0.999847
0.95108 0.362936 0.894377
0.978592 0.447929 0.876814
0.980484 0.519844 0.867262
0.98439 0.655756 0.87512
0.189151 0.868254 0.99968
0.188586 0.868391 0.99968
0.188022 0.868513 0.999695
0.186084 0.868955 0.999695
0.180224 0.870298 0.99971
0.912367 0.595209 0.939727
0.984771 0.591836 0.920424
0.984192 0.617578 0.895293
0.986343 0.697917 0.887831
0.067277 0.942596 1
0.067277 0.942596 1
0.067277 0.942596 1
0.067277 0.942596 1
0.0914473 0.891066 0.999893
0.848173 0.809705 0.985885
0.991379 0.804807 0.965484
0.990097 0.772595 0.941207
0.989258 0.784695 0.91751
0.067277 0.942596 1
0.067277 0.942596 1
0.067277 0.942596 1
0.067277 0.942596 1
0.0667124 0.940551 0.999878
0.464775 0.941604 0.999741
0.951965 0.932052 0.992584
0.994476 0.908583 0.978668
0.993408 0.894255 0.952514
0.067277 0.942596 1
0.067277 0.942596 1
0.067277 0.942596 1
0.0676432 0.942672 1
0.0761425 0.943404 0.999969
0.26772 0.954269 0.999832
0.794263 0.986435 0.999817
0.999298 0.999725 0.999634
0.996246 0.99173 0.983261
0.270665 0.954818 1
0.273686 0.955001 1
0.277836 0.955245 1
0.28954 0.955962 1
0.326513 0.95819 1
0.458824 0.966934 1
0.787167 0.985565 0.999908
0.983642 0.998169 0.99826
1 1 1
0.067277 0.942596 1
0.067277 0.942596 1
0.067277 0.942596 1
0.067277 0.942596 1
0.067277 0.942596 1
0.067277 0.942596 1
0.067277 0.942596 1
0.985321 0.604822 0.931762
0.984939 0.627482 0.936156
0.067277 0.942596 1
0.067277 0.942596 1
0.067277 0.942596 1
0.067277 0.942596 1
0.067277 0.942596 1
0.067277 0.942596 1
0.067277 0.942596 1
0.985306 0.604761 0.931746
0.985046 0.630213 0.936553
0.067277 0.942596 1
0.067277 0.942596 1
0.067277 0.942596 1
0.067277 0.942596 1
0.067277 0.942596 1
0.067277 0.942596 1
0.067277 0.942596 1
0.985306 0.604639 0.931731
0.985183 0.633585 0.937057
0.067277 0.942596 1
0.067277 0.942596 1
0.067277 0.942596 1
0.067277 0.942596 1
0.067277 0.942596 1
0.067277 0.942596 1
0.067277 0.942596 1
0.98587 0.617639 0.933837
0.985595 0.64361 0.938552
0.067277 0.942596 1
0.067277 0.942596 1
0.067277 0.942596 1
0.067277 0.942596 1
0.067277 0.942596 1
0.067277 0.942596 1
0.067277 0.942596 1
0.987823 0.684855 0.945495
0.98761 0.673503 0.943038
0.067277 0.942596 1
0.067277 0.942596 1
0.067277 0.942596 1
0.067277 0.942596 1
0.067277 0.942596 1
0.067277 0.942596 1
0.067277 0.942596 1
0.992004 0.806546 0.964477
0.98912 0.751568 0.955459
0.067277 0.942596 1
0.067277 0.942596 1
0.067277 0.942596 1
0.067277 0.942596 1
0.067277 0.942596 1
0.067277 0.942596 1
0.067277 0.942596 1
0.995407 0.937072 0.986664
0.993103 0.872694 0.977035
0.067277 0.942596 1
0.067277 0.942596 1
0.067277 0.942596 1
0.067277 0.942596 1
0.067277 0.942596 1
0.067277 0.942596 1
0.067277 0.942596 1
0.954253 0.996536 0.999252
0.997223 0.99324 0.996323
0.067277 0.942596 1
0.067277 0.942596 1
0.067277 0.942596 1
0.067277 0.942596 1
0.067277 0.942596 1
0.067277 0.942596 1
0.151858 0.947326 1
0.946273 0.99588 0.999573
1 1 1
