Luts/Fujifilm/FLog2C_to_PROVIA_VLog.cube
TITLE "Generated by Resolve"
LUT_3D_SIZE 33
0.00047303 0.000289921 6.10361e-05
0.00047303 0.000289921 6.10361e-05
0.00047303 0.000289921 6.10361e-05
0.00047303 0.000289921 6.10361e-05
0.00047303 0.000289921 6.10361e-05
0.00047303 0.000289921 6.10361e-05
0.0205692 0.00177005 0.00062562
0.0765545 0.00344854 0.0087892
0.151446 0.00872816 0.0116732
0.266407 0.0087129 0.0278477
0.402502 0.0134585 0.0464942
0.566674 0.0168307 0.0737316
0.742443 0.0213016 0.117403
0.905623 0.0336309 0.196765
0.999664 0.0561685 0.309224
0.999451 0.0963607 0.428962
0.999603 0.173404 0.460548
0.999954 0.253468 0.479561
1 0.25713 0.480659
1 0.25713 0.480659
1 0.25713 0.480659
1 0.25713 0.480659
1 0.25713 0.480659
1 0.25713 0.480659
0.999283 0.276814 0.463142
0.999817 0.30837 0.439078
0.999603 0.341634 0.426596
0.999634 0.379797 0.434119
0.999664 0.419196 0.443061
0.999451 0.458915 0.459007
0.999451 0.499458 0.48014
0.999146 0.53904 0.506065
0.999908 0.582269 0.549706
0.00047303 0.000289921 6.10361e-05
0.00047303 0.000289921 6.10361e-05
0.00047303 0.000289921 6.10361e-05
0.00047303 0.000289921 6.10361e-05
0.00047303 0.000289921 6.10361e-05
0.00047303 0.000289921 6.10361e-05
0.0298924 0.00314336 0.000564584
0.0863813 0.00376898 0.010071
0.163622 0.00885023 0.0132753
0.278431 0.00886549 0.0300145
0.412985 0.0136416 0.0481575
0.57499 0.016968 0.0753338
0.749218 0.0215305 0.119722
0.909957 0.0340734 0.199664
0.999664 0.056672 0.31191
0.99942 0.0971695 0.430442
0.999588 0.174456 0.460838
0.999954 0.253864 0.479713
1 0.25713 0.480659
1 0.25713 0.480659
1 0.25713 0.480659
1 0.25713 0.480659
1 0.25713 0.480659
0.999893 0.260624 0.477089
0.999557 0.284611 0.456519
0.999802 0.314183 0.434272
0.999512 0.346532 0.424689
0.999619 0.383948 0.432883
0.999695 0.422217 0.441901
0.99942 0.461372 0.458076
0.999481 0.501305 0.479362
0.999146 0.540459 0.505562
0.999908 0.583276 0.549233
0.00047303 0.000289921 6.10361e-05
0.00047303 0.000289921 6.10361e-05
0.00047303 0.000289921 6.10361e-05
0.00047303 0.000289921 6.10361e-05
0.00047303 0.000289921 6.10361e-05
0.00047303 0.000289921 6.10361e-05
0.0400092 0.00373846 0.00169375
0.097322 0.00437934 0.0108797
0.176715 0.00851453 0.0158236
0.289906 0.00895705 0.0320897
0.423468 0.0138094 0.049836
0.583291 0.0171054 0.076936
0.755276 0.0217441 0.121798
0.914092 0.0345006 0.202411
0.999664 0.0571603 0.314473
0.999405 0.0979782 0.431937
0.999588 0.175433 0.461097
0.999969 0.254353 0.479881
1 0.25713 0.480659
1 0.25713 0.480659
1 0.25713 0.480659
1 0.25713 0.480659
1 0.25713 0.480659
0.99971 0.266499 0.471122
0.999817 0.29192 0.450385
0.999771 0.319753 0.429633
0.99942 0.351644 0.422782
0.999588 0.388128 0.431662
0.999725 0.42533 0.440726
0.999466 0.46389 0.457206
0.999496 0.50338 0.478599
0.999161 0.541894 0.50515
0.999908 0.584283 0.548775
0.00047303 0.000289921 6.10361e-05
0.00047303 0.000289921 6.10361e-05
0.00047303 0.000289921 6.10361e-05
0.00047303 0.000289921 6.10361e-05
0.00047303 0.000289921 6.10361e-05
0.00741588 0.000564584 0.000259403
0.0515755 0.00329595 0.00450141
0.107927 0.0049897 0.0116121
0.189288 0.00819409 0.0182803
0.301457 0.00909438 0.0341802
0.433356 0.0139925 0.0513924
0.591714 0.017258 0.0785687
0.761471 0.021973 0.123919
0.917739 0.0348821 0.204868
0.999664 0.0576333 0.316899
0.999466 0.0955673 0.428641
0.999481 0.151308 0.454292
0.999847 0.219562 0.471778
1 0.256733 0.480522
1 0.25713 0.480659
1 0.25713 0.480659
1 0.25713 0.480659
0.999573 0.260502 0.477836
0.999527 0.275761 0.464012
0.999741 0.29929 0.444404
0.999771 0.325795 0.425162
0.99942 0.356939 0.421118
0.999588 0.392233 0.42974
0.999756 0.428656 0.439734
0.999512 0.466407 0.456245
0.999512 0.505104 0.477836
0.999176 0.543374 0.504601
0.999924 0.585184 0.548348
0.00047303 0.000289921 6.10361e-05
0.00047303 0.000289921 6.10361e-05
0.00047303 0.000289921 6.10361e-05
0.000213626 0.000289921 6.10361e-05
1.5259e-05 0.00077821 6.10361e-05
0.0154574 0.00172427 0.000595102
0.0594797 0.00320439 0.00593576
0.112123 0.00569162 0.0116732
0.193561 0.00758373 0.0198825
0.297719 0.00978103 0.0340124
0.420218 0.013901 0.0477455
0.566125 0.0171054 0.073106
0.721782 0.0202182 0.111177
0.868269 0.0292668 0.17348
0.989013 0.0441596 0.262043
0.999741 0.0717632 0.37026
0.999908 0.116152 0.444862
0.999985 0.182864 0.461387
0.999985 0.25034 0.47985
1 0.25713 0.480659
1 0.25713 0.480659
1 0.25713 0.480659
0.999298 0.266178 0.472633
0.999374 0.285084 0.457069
0.999619 0.306325 0.438758
0.999756 0.332097 0.420615
0.99942 0.362188 0.419471
0.999588 0.396536 0.427802
0.999802 0.432212 0.438605
0.999542 0.468711 0.455344
0.999542 0.507179 0.476967
0.999176 0.544686 0.504128
0.999924 0.586191 0.547997
0.000335698 0.0272831 0.000259403
0.000335698 0.0277714 0.000244144
0.000335698 0.0284276 0.000213626
0.000350958 0.0289769 0.000198367
0.000350958 0.0296025 0.000183108
0.00282292 0.0262608 0.000244144
0.0353704 0.0211337 0.000335698
0.082887 0.0180972 0.00262455
0.153185 0.0148318 0.0104524
0.245319 0.0132143 0.0231937
0.354635 0.0140383 0.0399481
0.495598 0.0139773 0.0615549
0.647288 0.0187381 0.0899825
0.803677 0.0248569 0.139162
0.942458 0.0373083 0.220005
0.999603 0.0602121 0.322515
0.999451 0.0934615 0.431785
0.999512 0.1552 0.456214
0.999588 0.2309 0.472847
1 0.25713 0.480659
0.999954 0.257557 0.480262
0.999695 0.262135 0.476844
0.999283 0.274449 0.464622
0.999603 0.293385 0.451072
0.999527 0.313085 0.433265
0.999756 0.337896 0.416464
0.99942 0.367239 0.417975
0.999588 0.400549 0.426017
0.999832 0.435462 0.437659
0.999588 0.471244 0.454475
0.999557 0.509041 0.476295
0.999191 0.54612 0.503624
0.999924 0.587091 0.54757
0.00154116 0.057496 0.000457771
0.00155642 0.0582437 0.000442512
0.00157168 0.058793 0.000427253
0.00158694 0.0593729 0.000427253
0.0016022 0.0600137 0.000411994
0.000823987 0.0493629 0.000137331
0.0171054 0.04448 0.000213626
0.0607919 0.0406653 0.000549325
0.123278 0.0380102 0.000564584
0.212161 0.03505 0.00366217
0.317708 0.0315404 0.0199283
0.445991 0.029572 0.0385748
0.593652 0.0251164 0.0723888
0.75285 0.0260624 0.115496
0.896193 0.0339208 0.188525
0.996414 0.0513466 0.284489
0.999252 0.0814221 0.39942
0.999588 0.137255 0.450248
0.999863 0.209461 0.469459
0.999329 0.25771 0.480461
0.999176 0.264302 0.474022
0.999176 0.271122 0.469886
0.999496 0.283268 0.457206
0.999893 0.301244 0.445472
0.999542 0.320027 0.427298
0.999771 0.343664 0.412634
0.99942 0.372198 0.416358
0.999588 0.404639 0.424155
0.999863 0.438712 0.436713
0.999634 0.47361 0.453513
0.999588 0.510887 0.475517
0.999207 0.547539 0.503212
0.999924 0.588098 0.547097
0.00210575 0.0930495 0.000289921
0.00209049 0.0936294 0.00030518
0.00209049 0.094316 0.00030518
0.00207523 0.0949111 0.00030518
0.00183108 0.0929427 0.000411994
0.00106813 0.078584 4.57771e-05
0.000732433 0.0720836 1.5259e-05
0.0408484 0.06598 0.000106813
0.0975509 0.0625925 0.000244144
0.181094 0.0594492 0.000457771
0.282109 0.0570382 0.00198367
0.402945 0.0528573 0.0150607
0.549447 0.0505379 0.0430762
0.707546 0.0512093 0.0776532
0.855451 0.054078 0.140612
0.986847 0.0658579 0.23624
0.999924 0.0918135 0.349386
0.999908 0.13492 0.43357
0.999146 0.203784 0.451637
0.999207 0.269383 0.469703
0.999557 0.276036 0.464897
0.999802 0.283513 0.457069
0.999832 0.293858 0.448875
0.999847 0.310445 0.437461
0.999557 0.327947 0.420493
0.999817 0.350866 0.408896
0.999405 0.378225 0.414298
0.999588 0.409339 0.421958
0.999893 0.442603 0.435477
0.99968 0.476555 0.452476
0.999603 0.513191 0.474556
0.999207 0.549401 0.502556
0.999939 0.589303 0.546548
0.00288396 0.146517 0
0.00285344 0.14725 0
0.00280766 0.147936 1.5259e-05
0.00277714 0.148531 1.5259e-05
0.00271611 0.13431 3.0518e-05
0.00122072 0.116258 6.10361e-05
0.00164797 0.105821 0.000289921
0.0152895 0.10103 0.00030518
0.073991 0.0942397 7.62951e-05
0.147402 0.0911269 0.000442512
0.247105 0.0880446 0.000381476
0.364813 0.0845808 0.000183108
0.503502 0.0831464 0.00901808
0.657023 0.0818952 0.0379797
0.81181 0.0861372 0.0880293
0.950072 0.0979629 0.172442
0.999481 0.122225 0.281529
0.999756 0.157794 0.397681
0.999603 0.211749 0.42475
0.999924 0.279667 0.449912
0.999863 0.293355 0.449592
1 0.299001 0.446662
0.999924 0.308431 0.436942
0.999542 0.322011 0.426429
0.99968 0.338277 0.411185
0.999863 0.359915 0.404242
0.999283 0.385397 0.411307
0.999527 0.415503 0.419272
0.999954 0.447807 0.433921
0.999756 0.480339 0.451026
0.999649 0.51635 0.47332
0.999222 0.55169 0.501732
0.999939 0.590814 0.54583
0.00103761 0.220218 0.000259403
0.00103761 0.220874 0.000274662
0.00105287 0.221485 0.000274662
0.00112917 0.219608 0.000122072
0.0016022 0.188891 0
0.00166323 0.166705 0.000335698
0.00241093 0.151308 0.000534066
0.002121 0.143328 9.15541e-05
0.0439918 0.134493 1.5259e-05
0.113848 0.130251 7.62951e-05
0.210773 0.125017 0.000213626
0.325338 0.123445 0.000198367
0.457694 0.121492 0.000289921
0.610407 0.12076 0.00277714
0.76434 0.125597 0.0377356
0.909987 0.138674 0.106981
0.999222 0.157366 0.208499
0.999847 0.191165 0.328328
0.999664 0.230015 0.386679
0.999313 0.288411 0.418296
0.99971 0.314305 0.433677
0.999435 0.31931 0.429374
0.999985 0.326131 0.421027
0.999573 0.33724 0.412299
0.999924 0.351247 0.399115
0.999847 0.371389 0.398535
0.999115 0.394919 0.407385
0.999283 0.423484 0.415793
0.999924 0.454368 0.43151
0.999847 0.485481 0.449149
0.999695 0.520165 0.471717
0.999252 0.554665 0.500877
0.999939 0.592935 0.544961
0.000259403 0.317143 0.000122072
0.000259403 0.317784 0.000122072
0.000259403 0.318227 0.000106813
3.0518e-05 0.284596 3.0518e-05
0.000289921 0.253147 0.000320439
0.000396735 0.232441 0.000289921
0.00166323 0.21709 9.15541e-05
0.000991836 0.203281 0
0.014435 0.19324 0.000411994
0.0788586 0.184344 0.000122072
0.170489 0.179187 0.00077821
0.285435 0.17261 0.00015259
0.415015 0.169726 0.000244144
0.564218 0.171633 0
0.716182 0.176608 0.00180056
0.864088 0.187594 0.0331731
0.989044 0.206775 0.123384
0.999939 0.230716 0.24509
0.999634 0.260609 0.337865
0.998932 0.302937 0.378485
0.999741 0.340291 0.408682
0.999237 0.343633 0.406638
0.999924 0.347951 0.402029
0.999557 0.356741 0.394095
0.999741 0.368841 0.386297
0.999771 0.385824 0.39144
0.999207 0.40766 0.401999
0.998993 0.433524 0.411627
0.999741 0.462181 0.428046
0.999878 0.492271 0.446494
0.999771 0.525475 0.469535
0.999268 0.558602 0.499489
0.999954 0.595743 0.543648
4.57771e-05 0.436637 0.000198367
4.57771e-05 0.436957 0.000198367
1.5259e-05 0.400702 6.10361e-05
0 0.357076 7.62951e-05
0.000518807 0.328405 0
7.62951e-05 0.305653 4.57771e-05
0.000137331 0.290517 0.000274662
9.15541e-05 0.278035 0.00015259
0.000320439 0.264775 0.000503548
0.0364996 0.25359 0.000747692
0.123781 0.243793 0.000289921
0.239307 0.236957 0.000289921
0.369574 0.232822 0.00015259
0.515633 0.231922 0.000366217
0.667399 0.234867 0.000167849
0.819242 0.245624 0.000183108
0.953063 0.259968 0.0365759
0.99939 0.279316 0.148211
0.999954 0.307301 0.277806
0.999207 0.329198 0.32665
0.99971 0.367819 0.372168
0.999924 0.372381 0.380224
0.999435 0.375937 0.377081
0.999435 0.380728 0.37435
0.999573 0.391363 0.374182
0.999741 0.405264 0.383032
0.999588 0.424186 0.394858
0.9991 0.446479 0.406516
0.999512 0.472114 0.42359
0.999847 0.501015 0.442649
0.999725 0.532189 0.467201
0.999313 0.563928 0.497551
0.999969 0.599481 0.542031
4.57771e-05 0.578439 0.000122072
6.10361e-05 0.522026 0.000350958
9.15541e-05 0.471839 0.000213626
7.62951e-05 0.437354 0
3.0518e-05 0.411032 0.000183108
3.0518e-05 0.391028 0.000442512
0.000122072 0.376074 0.00030518
0.000167849 0.363302 0.000595102
0 0.348486 0.000320439
0.00433356 0.333806 0.000259403
0.0709087 0.322667 0.00015259
0.185428 0.31519 0.00030518
0.321492 0.306371 6.10361e-05
0.466331 0.302235 0.000274662
0.619684 0.304036 3.0518e-05
0.771466 0.309712 7.62951e-05
0.91165 0.320455 0
0.999329 0.337316 0.0459297
0.999924 0.358648 0.176822
0.999039 0.370642 0.262608
0.999908 0.399008 0.318151
0.999329 0.40885 0.347387
0.999481 0.408026 0.34905
0.999573 0.41149 0.351293
0.999695 0.418952 0.361334
0.999664 0.428763 0.373053
0.999466 0.444831 0.385626
0.999588 0.463188 0.400244
0.999557 0.485435 0.417517
0.999817 0.512505 0.437781
0.999603 0.540612 0.464256
0.999344 0.57055 0.494942
0.999924 0.604578 0.539788
0.000183108 0.635233 0.000732433
0.00015259 0.587701 0.000595102
0.000122072 0.55317 0.000457771
0 0.525261 0.000137331
3.0518e-05 0.502861 0.000320439
1.5259e-05 0.485023 0.000549325
0 0.47155 0.000350958
9.15541e-05 0.457374 0.000198367
0.000122072 0.442618 0.000396735
0.000167849 0.428244 0.000396735
0.012314 0.414572 0.000106813
0.118914 0.402121 0.000244144
0.261341 0.390555 0.000167849
0.412772 0.384131 0.000411994
0.569146 0.381445 0
0.726101 0.382437 0.000137331
0.867536 0.390188 6.10361e-05
0.979721 0.404089 0.000488289
0.999496 0.41915 0.0675059
0.999649 0.430091 0.1841
0.999725 0.439307 0.25211
0.999344 0.450797 0.309331
0.999374 0.448615 0.318639
0.999298 0.447318 0.330602
0.999344 0.451347 0.343481
0.999619 0.45745 0.358297
0.999466 0.469093 0.37348
0.999374 0.484764 0.388663
0.999802 0.502708 0.409644
0.999634 0.526909 0.43212
0.999451 0.551919 0.460456
0.99939 0.578775 0.491493
0.999725 0.611887 0.536553
6.10361e-05 0.690715 0.000274662
0.000137331 0.662669 0.000167849
1.5259e-05 0.637888 0.000549325
0.000106813 0.616266 0.000213626
0.000228885 0.598917 9.15541e-05
4.57771e-05 0.585611 0.000259403
0.000122072 0.573938 0.000381476
7.62951e-05 0.560906 0.000320439
0 0.54725 0.00047303
0.000228885 0.532738 0.000640879
0.000198367 0.517403 0.000244144
0.0356603 0.502113 0.000183108
0.185565 0.48896 4.57771e-05
0.34963 0.477302 0.000274662
0.512474 0.471107 6.10361e-05
0.674128 0.467384 0
0.822003 0.471077 0.000106813
0.944701 0.47715 0.000167849
0.999603 0.486442 0.00598154
0.999359 0.497337 0.100374
0.99939 0.493965 0.18407
0.999619 0.498131 0.261479
0.99968 0.49279 0.29099
0.999512 0.489219 0.30547
0.999573 0.488792 0.321645
0.999298 0.491691 0.338476
0.999207 0.499168 0.357641
0.999542 0.510887 0.375845
0.999588 0.525429 0.399405
0.999374 0.544762 0.425269
0.999649 0.566278 0.453223
0.999435 0.5897 0.487083
0.999481 0.621393 0.532448
7.62951e-05 0.758602 0.000335698
7.62951e-05 0.740597 9.15541e-05
3.0518e-05 0.723705 0.000442512
0 0.709102 0.000839246
0 0.696788 0.000732433
0 0.685908 0.000549325
1.5259e-05 0.676173 0.000366217
4.57771e-05 0.667079 0.000274662
0.000289921 0.654658 0.000457771
0.000259403 0.641138 0.000335698
3.0518e-05 0.627314 0.000106813
0.00442512 0.612848 0.000106813
0.0874037 0.597589 0.000122072
0.266316 0.583978 6.10361e-05
0.443961 0.57142 0.000488289
0.616312 0.56022 4.57771e-05
0.769635 0.557671 0.000244144
0.900557 0.560113 0.000122072
0.990967 0.562234 1.5259e-05
0.998917 0.568338 0.0139773
0.999466 0.559548 0.101137
0.999557 0.553216 0.195453
0.999771 0.54313 0.256733
0.999268 0.536049 0.274235
0.999405 0.531716 0.292439
0.999252 0.53109 0.314107
0.99942 0.534707 0.335973
0.999496 0.541772 0.359426
0.999786 0.552834 0.384375
0.999573 0.566461 0.41323
0.999954 0.584512 0.443565
0.999466 0.604501 0.481621
0.999191 0.633448 0.527413
0.000335698 0.829282 0.00062562
0.000183108 0.81825 0.00015259
0.000122072 0.808499 0.000457771
7.62951e-05 0.799298 0.000564584
3.0518e-05 0.789929 0.000396735
7.62951e-05 0.782788 0.000366217
0.000259403 0.775708 0.000564584
0.000350958 0.767941 0.000701915
0.000213626 0.758007 0.000640879
0.000106813 0.746929 0.000518807
3.0518e-05 0.735225 0.000320439
0 0.721569 0.000381476
0.00953689 0.706493 0.000244144
0.149996 0.691875 7.62951e-05
0.355047 0.674662 0.00015259
0.543297 0.66067 0.000381476
0.710704 0.650492 0.000411994
0.850233 0.642435 0.000488289
0.967605 0.637903 0.000167849
0.999222 0.643809 0.000289921
0.999084 0.635767 0.0155337
0.99942 0.619287 0.106203
0.999405 0.598672 0.203082
0.999878 0.587823 0.236011
0.99968 0.580652 0.256672
0.999557 0.576303 0.282383
0.999039 0.575128 0.308186
0.999786 0.577996 0.335424
0.999664 0.583474 0.366888
0.999725 0.593332 0.397391
0.99942 0.607614 0.432883
0.999496 0.623346 0.473991
0.999344 0.648524 0.523568
4.57771e-05 0.898161 6.10361e-05
0.000122072 0.891798 0.00015259
0.000228885 0.885451 0.000335698
0.000274662 0.879545 0.000503548
0.000167849 0.874159 0.000579843
6.10361e-05 0.86891 0.000640879
4.57771e-05 0.8645 0.000564584
0.000106813 0.859342 0.000381476
0.000198367 0.852445 0.000289921
0.000411994 0.843442 0.000488289
0.000213626 0.833478 0.00030518
7.62951e-05 0.822202 0.000366217
0.000106813 0.809308 0.000579843
0.0231632 0.795911 0.000198367
0.23064 0.779232 0.000106813
0.449195 0.759976 0.000122072
0.634638 0.738567 0.000137331
0.795422 0.718212 0.00015259
0.918547 0.705394 7.62951e-05
0.997086 0.702174 3.0518e-05
0.999023 0.714092 0.000228885
0.999237 0.693004 0.0148623
0.999283 0.66276 0.120317
0.999359 0.644007 0.183764
0.999374 0.633341 0.214023
0.999329 0.625605 0.244251
0.999283 0.620462 0.27512
0.99939 0.618875 0.306447
0.999481 0.619959 0.341115
0.999557 0.625986 0.377325
0.999741 0.635096 0.41796
0.999466 0.645701 0.460777
0.999466 0.666682 0.517357
0 0.960815 0.000259403
0 0.956573 0.000183108
0 0.952789 9.15541e-05
0 0.948959 4.57771e-05
0 0.945907 6.10361e-05
0 0.942641 7.62951e-05
0 0.939467 9.15541e-05
0 0.935943 9.15541e-05
0 0.930587 9.15541e-05
0 0.924849 0.000122072
0 0.91783 0.000228885
0 0.908888 0.000213626
7.62951e-05 0.898695 9.15541e-05
0.00222782 0.887022 0.000335698
0.0726787 0.872267 0.000213626
0.319829 0.850004 0.00030518
0.542611 0.819669 0.000564584
0.722515 0.794965 0.000137331
0.866209 0.776776 0
0.982467 0.763516 0.000106813
0.999283 0.766094 0.00015259
0.999268 0.767208 3.0518e-05
0.999344 0.73637 0.0216983
0.999512 0.704479 0.115709
0.999237 0.690745 0.156161
0.999557 0.680415 0.193454
0.999481 0.671473 0.230442
0.999191 0.665949 0.270665
0.999222 0.662928 0.309392
0.999435 0.663584 0.351705
0.999527 0.666865 0.396338
0.999512 0.674083 0.444968
0.999405 0.687312 0.506172
0 0.998505 0.000259403
0 0.998337 0.000274662
0 0.997971 0.000274662
0 0.997833 0.000274662
0 0.99765 0.000274662
0 0.99762 0.000259403
0 0.997574 0.000259403
0 0.997406 0.000259403
1.5259e-05 0.995163 0.000183108
3.0518e-05 0.992386 7.62951e-05
3.0518e-05 0.988128 1.5259e-05
0 0.982101 1.5259e-05
0 0.974472 0.000137331
0 0.966445 0.00030518
0.00402838 0.956359 0.000350958
0.147448 0.931746 0.000198367
0.412665 0.898405 6.10361e-05
0.633051 0.867872 0.000549325
0.799405 0.845319 0.000350958
0.930022 0.828946 4.57771e-05
0.997848 0.817197 7.62951e-05
0.999252 0.811353 0.000167849
0.998978 0.803067 6.10361e-05
0.999237 0.771191 0.0280003
0.99939 0.750622 0.0850233
0.999603 0.737591 0.129793
0.999512 0.726223 0.175219
0.999527 0.716381 0.221622
0.999634 0.710231 0.268269
0.999435 0.705638 0.317891
0.999634 0.704677 0.368658
0.999725 0.705592 0.424262
0.998962 0.714427 0.489418
0 1 0.000289921
0 1 0.000289921
0 1 0.000289921
0 1 0.000289921
0 1 0.000289921
0 1 0.000289921
0 1 0.000289921
0 1 0.000289921
0 1 0.000289921
0 1 0.000289921
0 1 0.000289921
0 1 0.000289921
0 1 0.000289921
0 0.999924 0.000274662
0 0.999924 0.000289921
0 1 0.000289921
0.229007 0.97406 0.000717174
0.502251 0.941176 0.000213626
0.713115 0.914214 0.000366217
0.869139 0.891997 0.000122072
0.98233 0.8748 0.000213626
0.999496 0.858106 0.00030518
0.999557 0.839445 7.62951e-05
0.999664 0.83154 3.0518e-05
0.999359 0.811078 0.00984207
0.999695 0.796323 0.0480201
0.999725 0.782925 0.102968
0.998566 0.770245 0.156985
0.999298 0.760098 0.216541
0.999451 0.752926 0.273899
0.999405 0.746441 0.333944
0.999664 0.742626 0.396994
0.999847 0.744945 0.470909
0 1 0.000289921
0 1 0.000289921
0 1 0.000289921
0 1 0.000289921
0 1 0.000289921
0 1 0.000289921
0 1 0.000289921
0 1 0.000289921
0 1 0.000289921
0 1 0.000289921
0 1 0.000289921
0 1 0.000289921
0 1 0.000289921
0 1 0.000289921
0 1 0.000289921
0 1 0.000289921
0.0178225 0.999664 0.000503548
0.309224 0.999771 0.000717174
0.585092 0.979492 6.10361e-05
0.783536 0.952071 3.0518e-05
0.919905 0.927825 6.10361e-05
0.996597 0.90576 0.000198367
0.999161 0.88452 0.000137331
0.999146 0.863325 0
0.999405 0.858045 4.57771e-05
0.999054 0.850965 4.57771e-05
0.999176 0.839628 0.0221256
0.999084 0.824887 0.08365
0.999023 0.812421 0.149615
0.999466 0.80061 0.219196
0.999527 0.790097 0.288746
0.999603 0.782345 0.362905
0.999298 0.780682 0.446265
0 1 0.000289921
0 1 0.000289921
0 1 0.000289921
0 1 0.000289921
0 1 0.000289921
0 1 0.000289921
0 1 0.000289921
0 1 0.000289921
0 1 0.000289921
0 1 0.000289921
0 1 0.000289921
0 1 0.000289921
0 1 0.000289921
0 1 0.000289921
0 1 0.000289921
0 1 0.000289921
0 1 0.000289921
0.0673075 0.999908 0.00030518
0.373053 0.999893 0.000106813
0.642374 0.995666 0.000457771
0.829816 0.977279 0.000320439
0.955077 0.953185 3.0518e-05
0.999634 0.929992 0
0.998932 0.904921 0.000198367
0.998917 0.884184 0.000320439
0.999435 0.881895 7.62951e-05
0.999176 0.88191 0.00015259
0.998779 0.878874 0.00856031
0.999527 0.864347 0.0655528
0.999268 0.849561 0.146777
0.99939 0.836881 0.231739
0.99942 0.82475 0.316808
0.999237 0.818952 0.41091
0 1 0.000289921
0 1 0.000289921
0 1 0.000289921
0 1 0.000289921
0 1 0.000289921
0 1 0.000289921
0 1 0.000289921
0 1 0.000289921
0 1 0.000289921
0 1 0.000289921
0 1 0.000289921
0 1 0.000289921
0 1 0.000289921
0 1 0.000289921
0 1 0.000289921
0 1 0.000289921
0 1 0.000289921
0 1 0.000289921
0.155276 1 0.000503548
0.464897 0.999817 0.000320439
0.69691 0.999771 4.57771e-05
0.865934 0.993835 0.000274662
0.973983 0.973022 0.00581369
0.99884 0.94992 0.00289921
0.99884 0.922316 6.10361e-05
0.99939 0.902312 1.5259e-05
0.999146 0.904814 4.57771e-05
0.999298 0.907057 0.000244144
0.998947 0.910246 0.00190738
0.999313 0.900816 0.0487221
0.998993 0.884962 0.151141
0.999374 0.869596 0.251835
0.999435 0.859663 0.362417
0 1 0.000289921
0 1 0.000289921
0 1 0.000289921
0 1 0.000289921
0 1 0.000289921
0 1 0.000289921
0 1 0.000289921
0 1 0.000289921
0 1 0.000289921
0 1 0.000289921
0 1 0.000289921
0 1 0.000289921
0 1 0.000289921
0 1 0.000289921
0 1 0.000289921
0 1 0.000289921
0 1 0.000289921
0 1 0.000289921
0.0352789 0.999863 0.000244144
0.270344 0.999863 0.000137331
0.552453 0.999573 0.000350958
0.755337 0.999573 0.000106813
0.899397 0.9944 0.000854505
0.980972 0.982589 0.0130312
0.995865 0.966567 0.00842298
0.998993 0.939773 0.00207523
0.999268 0.927092 6.10361e-05
0.999329 0.923354 7.62951e-05
0.999207 0.92903 0
0.999069 0.936477 0.000198367
0.999329 0.932662 0.0472572
0.999573 0.915343 0.167636
0.999405 0.902129 0.298848
0 1 0.000289921
0 1 0.000289921
0 1 0.000289921
0 1 0.000289921
0 1 0.000289921
0 1 0.000289921
0 1 0.000289921
0 1 0.000289921
0 1 0.000289921
0 1 0.000289921
0 1 0.000289921
0 1 0.000289921
0 1 0.000289921
0 1 0.000289921
0 1 0.000289921
0 1 0.000289921
0 1 0.000289921
0 1 0.000289921
0 1 0.000289921
0.0888838 0.999893 0.000213626
0.362066 0.999771 0.000244144
0.612009 0.999573 0.000259403
0.796216 0.99913 0.000183108
0.92459 0.991348 0.00422675
0.981292 0.985748 0.0155032
0.991806 0.976867 0.0136263
0.998291 0.964843 0.00830091
0.999054 0.955367 0.0053254
0.998489 0.947616 0.00015259
0.999344 0.950347 0.00407416
0.9991 0.960174 0.010193
0.998779 0.96173 0.0557412
0.999359 0.948669 0.205737
0 1 0.000289921
0 1 0.000289921
0 1 0.000289921
0 1 0.000289921
0 1 0.000289921
0 1 0.000289921
0 1 0.000289921
0 1 0.000289921
0 1 0.000289921
0 1 0.000289921
0 1 0.000289921
0 1 0.000289921
0 1 0.000289921
0 1 0.000289921
0 1 0.000289921
0 1 0.000289921
0 1 0.000289921
0 1 0.000289921
0.000106813 1 0.000274662
0.000503548 0.999985 0.000244144
0.140505 0.999939 0.00062562
0.431846 0.999985 0.000244144
0.660868 0.999832 0.000350958
0.831754 0.998337 0.000274662
0.944106 0.98999 0.00628672
0.982666 0.985672 0.0159152
0.986313 0.984344 0.0162509
0.990036 0.981308 0.0155032
0.993667 0.978195 0.014725
0.998215 0.972732 0.0125887
0.998169 0.972732 0.0152285
0.998947 0.985183 0.0291142
0.998566 0.992248 0.078294
0 1 0.000289921
0 1 0.000289921
0 1 0.000289921
0 1 0.000289921
0 1 0.000289921
0 1 0.000289921
0 1 0.000289921
0 1 0.000289921
0 1 0.000289921
