Luts/Fujifilm/FLog2C_to_Velvia_VLog.cube
TITLE "Generated by Resolve"
#LUMIXPHOTOSTYLE VLOG
LUT_3D_SIZE 33
0 0 0
0 0 0
0 0 0
0 0 0
0.000762951 0 0
0.0323339 0.000228885 0.00030518
0.0975509 0.000503548 0.000793469
0.212528 3.0518e-05 0.000442512
0.367926 0 0
0.540459 0 0.00614939
0.728084 0.000320439 0.037583
0.926452 1.5259e-05 0.109117
0.999237 0.0192874 0.246937
0.999649 0.0723125 0.413565
0.999619 0.150332 0.486534
0.999939 0.252018 0.49131
0.999893 0.286793 0.492287
0.999893 0.286793 0.492287
0.999893 0.286793 0.492287
0.999893 0.286793 0.492287
0.999893 0.286793 0.492287
0.999893 0.286793 0.492287
0.999893 0.286793 0.492287
0.999893 0.286793 0.492287
0.999756 0.291524 0.490379
0.999527 0.31603 0.463935
0.999588 0.347997 0.434806
0.999054 0.378286 0.396887
0.999695 0.413138 0.357763
0.999496 0.447791 0.311528
0.99942 0.484779 0.25951
0.998688 0.522637 0.19646
0.999451 0.563592 0.120821
0 0 0
0 0 0
0 0 0
0 0 0
0.00238041 0 0
0.0422522 0.000503548 0.000274662
0.112474 0.000350958 0.00128176
0.22707 1.5259e-05 0
0.381979 0 0
0.551675 0 0.00706493
0.737057 0.000335698 0.0396887
0.933059 1.5259e-05 0.112367
0.999222 0.0205997 0.251072
0.999649 0.0732586 0.416709
0.999619 0.151766 0.486625
0.999939 0.253025 0.491402
0.999893 0.286793 0.492287
0.999893 0.286793 0.492287
0.999893 0.286793 0.492287
0.999893 0.286793 0.492287
0.999893 0.286793 0.492287
0.999893 0.286793 0.492287
0.999893 0.286793 0.492287
0.999893 0.286793 0.492287
0.999695 0.296056 0.486809
0.999542 0.323095 0.456565
0.999695 0.352728 0.429313
0.999084 0.3823 0.391806
0.99968 0.416342 0.353872
0.999512 0.450141 0.308293
0.999359 0.486763 0.25658
0.998688 0.524071 0.193866
0.999435 0.564904 0.118196
0 0 0
0 0 0
0 0 0
0 0 0
0.00460822 3.0518e-05 0
0.053254 0.000976577 0.00015259
0.12874 0.000259403 0.00183108
0.243565 0 0
0.395544 0 4.57771e-05
0.559457 1.5259e-05 0.0077821
0.733745 0.000320439 0.0384375
0.916671 6.10361e-05 0.107256
0.999634 0.0124514 0.222553
0.999435 0.0607004 0.372244
0.999527 0.114565 0.477836
0.99968 0.190784 0.487282
1 0.269474 0.492164
0.999847 0.286519 0.492409
0.999893 0.286793 0.492287
0.999893 0.286793 0.492287
0.999893 0.286793 0.492287
0.999893 0.286793 0.492287
0.999893 0.286793 0.492287
0.999893 0.286793 0.492287
0.99968 0.302861 0.478431
0.999588 0.329915 0.449622
0.999817 0.357336 0.423972
0.999115 0.386236 0.386801
0.999649 0.419425 0.350134
0.999527 0.452399 0.30518
0.999283 0.48864 0.253819
0.998703 0.525505 0.191272
0.99942 0.566094 0.11577
0 0 0
0 0 0
0 0 0
0 0 0
0.00155642 0.000350958 3.0518e-05
0.0290227 0.000747692 0.000122072
0.0852674 0.00108339 0.000686656
0.170611 0.000320439 0.00265507
0.29955 7.62951e-05 0.00030518
0.457099 1.5259e-05 0.0037995
0.616419 0.00047303 0.0137179
0.795682 0 0.0514687
0.974609 0 0.134661
0.999969 0.0281071 0.268498
0.999466 0.0710765 0.409613
1 0.129488 0.484413
0.999878 0.206104 0.486107
0.999832 0.276005 0.492622
0.999893 0.286793 0.492287
0.999893 0.286793 0.492287
0.999893 0.286793 0.492287
0.999893 0.286793 0.492287
0.999893 0.286793 0.492287
0.999847 0.28864 0.490623
0.999664 0.30927 0.470527
0.999649 0.3364 0.442985
0.999924 0.361791 0.418814
0.99913 0.390005 0.382025
0.999619 0.422629 0.346227
0.999527 0.454536 0.30222
0.999222 0.490608 0.250889
0.998703 0.52694 0.188663
0.99942 0.567269 0.11339
0.000518807 0.000518807 0.000518807
0.000579843 0.000579843 0.000579843
0.000640879 0.000640879 0.000640879
0 0 0
0 0 0
0.0129397 0.000671397 4.57771e-05
0.0455482 0.000976577 0
0.108827 0.000793469 0.000579843
0.21265 1.5259e-05 0.00161746
0.353292 0 0.000259403
0.509361 0.000137331 0.0033875
0.67306 0.000106813 0.0246891
0.852598 0.000259403 0.0752728
0.993805 0.000106813 0.177172
0.999878 0.0439307 0.313161
0.999969 0.0884718 0.452064
0.999359 0.156573 0.488273
0.99968 0.241428 0.491295
0.999863 0.285573 0.492332
0.999893 0.286793 0.492287
0.999893 0.286793 0.492287
0.999893 0.286793 0.492287
0.999893 0.286793 0.492287
0.999649 0.297063 0.483085
0.999588 0.317922 0.463111
0.99971 0.342077 0.43714
0.999969 0.3664 0.413596
0.999161 0.393805 0.377218
0.999588 0.425727 0.342443
0.999542 0.456794 0.299107
0.999146 0.492485 0.248112
0.998703 0.528267 0.186252
0.999405 0.56846 0.110994
0.000335698 0.0114137 0.000503548
0.000320439 0.0117342 0.00047303
0 0.0089723 0.000274662
0.000335698 0.00505074 0.000503548
0.000640879 0.00259403 0.00106813
0.0040589 0.00143435 0.000106813
0.0261234 0.00141909 0.000122072
0.0703288 0.00204471 0.000213626
0.153277 0.000579843 0.00154116
0.271748 7.62951e-05 0.00047303
0.423728 1.5259e-05 0.00062562
0.58648 1.5259e-05 0.00962844
0.758144 0 0.0444343
0.943389 0 0.120989
0.999771 0.020264 0.240635
0.999634 0.0646677 0.395102
0.999908 0.124056 0.484154
0.999985 0.208438 0.488441
0.999878 0.28275 0.492241
0.999893 0.286793 0.492287
0.999893 0.286793 0.492287
0.999817 0.287236 0.492119
0.999786 0.291218 0.488716
0.999512 0.305318 0.475242
0.999512 0.326055 0.456168
0.999802 0.347295 0.431724
0.999939 0.371481 0.408011
0.999207 0.398215 0.372473
0.999603 0.428702 0.338399
0.999557 0.458961 0.296071
0.999084 0.494316 0.245396
0.998718 0.529702 0.183658
0.999405 0.569635 0.108614
0 0.0340887 0.000350958
0 0.0347295 0.000366217
0.000289921 0.0269474 0.000228885
1.5259e-05 0.0170901 3.0518e-05
0.000228885 0.010071 0.000350958
0.000106813 0.00741588 3.0518e-05
0.0125582 0.00569162 0.00015259
0.0447852 0.005066 0
0.11548 0.00421149 0.000488289
0.223743 0.00161746 3.0518e-05
0.366873 6.10361e-05 0.00015259
0.522759 0 0.00215152
0.689143 0 0.0268864
0.876524 0 0.0828107
0.997467 0.00213626 0.192554
0.999939 0.0518196 0.342824
0.999817 0.102785 0.472602
0.999969 0.183581 0.483925
0.999969 0.269139 0.490593
0.999893 0.286793 0.492287
0.999863 0.286946 0.492226
0.999298 0.290181 0.491005
0.999725 0.297047 0.483986
0.999588 0.314748 0.464881
0.99942 0.333333 0.449363
0.999878 0.352361 0.426474
0.999908 0.376425 0.402548
0.999252 0.40264 0.367712
0.999634 0.431632 0.334051
0.999527 0.461433 0.292287
0.999069 0.496193 0.242451
0.998718 0.531029 0.181247
0.99939 0.570825 0.106233
0 0.0755169 0
0 0.0762493 0
0.000137331 0.0652476 0.000732433
0.000213626 0.0443885 0.000747692
0.000137331 0.0273747 0.000228885
0.000732433 0.0217441 6.10361e-05
0.00323491 0.018143 0.000274662
0.0276188 0.0157473 0.000686656
0.0811017 0.0149844 7.62951e-05
0.178088 0.0128939 0
0.319036 0.00683604 0.000183108
0.475196 0.00187686 0
0.64506 3.0518e-05 0.00358587
0.820905 0 0.0417487
0.993103 0.000183108 0.134936
0.999954 0.0451362 0.281743
0.999908 0.0886244 0.433143
0.999802 0.163989 0.479591
0.999435 0.248768 0.486488
0.999939 0.293172 0.488975
0.999878 0.294072 0.486732
0.999451 0.300954 0.481193
0.999832 0.309407 0.473777
0.999619 0.325429 0.453285
0.999252 0.340536 0.441108
0.999939 0.358801 0.419669
0.999878 0.382315 0.396078
0.999313 0.407889 0.362066
0.999664 0.435126 0.328878
0.999512 0.464408 0.287694
0.999115 0.498482 0.238621
0.998718 0.532799 0.177905
0.99939 0.57232 0.103059
0 0.144076 0
6.10361e-05 0.144106 4.57771e-05
1.5259e-05 0.113878 1.5259e-05
0.000701915 0.0844282 6.10361e-05
0.000122072 0.0644388 0.000656138
0.000244144 0.0513161 0.000411994
0.00077821 0.0454719 0.000366217
0.0131838 0.040177 0.000442512
0.0572824 0.0374609 0.000640879
0.139727 0.0348821 0.000183108
0.267811 0.0301976 0
0.427008 0.0228275 0
0.591974 0.01738 0
0.764324 0.0121614 0.00149538
0.936538 0.0234836 0.0508278
0.999542 0.0633555 0.180133
0.999496 0.11043 0.338994
0.999924 0.179965 0.439338
0.999924 0.249256 0.459129
0.999985 0.308751 0.47158
0.999924 0.311208 0.470039
0.999329 0.317815 0.464057
0.999481 0.324727 0.457328
0.999115 0.337652 0.441184
0.999069 0.349737 0.430533
0.999969 0.368536 0.409018
0.999771 0.389731 0.387167
0.99939 0.414694 0.354742
0.99971 0.439719 0.322087
0.999481 0.468299 0.281666
0.999191 0.501503 0.23357
0.998734 0.535409 0.172885
0.99942 0.574105 0.0990311
0 0.255879 0
0.000183108 0.234318 3.0518e-05
3.0518e-05 0.188632 6.10361e-05
0.000381476 0.148943 0.000228885
0.000244144 0.117067 0.00030518
3.0518e-05 0.101228 0.000122072
9.15541e-05 0.0921187 0.000213626
0.00077821 0.0841688 3.0518e-05
0.0289921 0.0797131 0.00077821
0.0996414 0.073167 0
0.223774 0.0690471 0.000549325
0.378882 0.0628367 6.10361e-05
0.543648 0.0579995 0
0.711879 0.0572213 0.000106813
0.871031 0.0733349 0.00190738
0.999161 0.100969 0.0634928
0.999512 0.147051 0.225498
0.999817 0.213748 0.380316
0.999634 0.264622 0.415335
0.999939 0.328099 0.444938
0.999435 0.335531 0.443717
0.999191 0.338048 0.441459
0.999466 0.342702 0.437964
0.998978 0.352789 0.427054
0.999191 0.363455 0.414725
1 0.380529 0.39585
0.999481 0.398657 0.374426
0.999466 0.423072 0.345205
0.999771 0.445747 0.313146
0.999435 0.473442 0.273762
0.999298 0.505455 0.226947
0.998749 0.538705 0.166552
0.999451 0.576486 0.0935836
0 0.395621 0.000183108
4.57771e-05 0.343618 0.000274662
4.57771e-05 0.28542 0.00015259
0.00030518 0.2365 0.000350958
6.10361e-05 0.199847 3.0518e-05
0.000198367 0.178805 0
0.000289921 0.164965 4.57771e-05
0.000579843 0.151415 0.000167849
0.0065156 0.142519 0.000289921
0.0616617 0.133196 4.57771e-05
0.168811 0.127565 0.000595102
0.327398 0.120317 0.000289921
0.498405 0.115084 0.000122072
0.657771 0.118044 0
0.811597 0.132876 0
0.98088 0.16199 0.00221256
0.999985 0.20087 0.0912184
0.999832 0.258076 0.272053
0.999557 0.293645 0.35848
0.999588 0.34342 0.400427
0.999832 0.361288 0.417044
0.999603 0.362188 0.415183
0.999725 0.364599 0.415518
0.999435 0.372412 0.406714
0.999344 0.379904 0.396292
1 0.394476 0.37966
0.999161 0.410056 0.35845
0.999542 0.432258 0.33341
0.999802 0.45362 0.3019
0.99939 0.480217 0.26331
0.99942 0.510781 0.218051
0.998779 0.543023 0.158267
0.999481 0.579675 0.0862898
0.000320439 0.50396 9.15541e-05
0 0.447929 6.10361e-05
0.000198367 0.388312 0.000610361
0.000610361 0.34403 3.0518e-05
1.5259e-05 0.308583 0.000213626
0.000228885 0.285817 0
4.57771e-05 0.269978 6.10361e-05
0 0.252888 0.000244144
0.000595102 0.240406 0.000228885
0.0198215 0.227924 0.000411994
0.116121 0.215351 0
0.271 0.206012 0.000106813
0.442954 0.196963 0.00077821
0.602579 0.19762 0.000335698
0.752544 0.211597 0.000244144
0.916701 0.234379 0.000289921
0.99971 0.2636 0.00378424
0.99942 0.30602 0.132067
0.999847 0.336965 0.27892
0.999924 0.367422 0.340032
0.999741 0.394141 0.380652
0.999817 0.390753 0.382727
0.999573 0.391775 0.380652
0.99971 0.395911 0.377523
0.999222 0.401556 0.37142
1 0.412482 0.358175
0.999619 0.426429 0.338979
0.999619 0.444068 0.318059
0.999725 0.464027 0.287922
0.999268 0.489006 0.250126
0.999573 0.517555 0.206714
0.998795 0.548699 0.147341
0.999542 0.583978 0.0764935
0.000198367 0.588403 0.00047303
0.000137331 0.536736 0.000610361
0 0.490089 0.000366217
0 0.457786 0.000656138
0 0.427878 0
0 0.406455 0.000228885
4.57771e-05 0.390967 9.15541e-05
1.5259e-05 0.375219 0.000411994
0 0.359045 0.000503548
0.00180056 0.344228 0.000488289
0.0460059 0.330739 0.000869764
0.190005 0.315038 1.5259e-05
0.375662 0.301366 3.0518e-05
0.545083 0.295811 0.000167849
0.694911 0.303624 0
0.851926 0.315404 4.57771e-05
0.996475 0.336629 0.000396735
0.999191 0.36524 0.00766003
0.999542 0.396109 0.169345
0.999161 0.404669 0.25391
0.999374 0.427497 0.326207
0.999496 0.425895 0.340841
0.99942 0.422904 0.345525
0.999298 0.423484 0.342962
0.999405 0.428489 0.338079
0.999908 0.435004 0.330266
0.999893 0.44509 0.315068
0.999481 0.460472 0.294911
0.999619 0.477348 0.269612
0.999039 0.500679 0.233234
0.99971 0.526421 0.191073
0.998825 0.556191 0.132952
0.999603 0.589487 0.0639353
0 0.652522 1.5259e-05
0 0.616434 1.5259e-05
1.5259e-05 0.584405 0
7.62951e-05 0.560433 4.57771e-05
0 0.539681 0.000137331
7.62951e-05 0.525124 0.000350958
3.0518e-05 0.513085 0.000503548
4.57771e-05 0.499428 0.000320439
3.0518e-05 0.485435 7.62951e-05
0 0.471595 0.00015259
0.00434882 0.457176 0.000167849
0.0963455 0.437827 0.00047303
0.292103 0.416297 0.000137331
0.480171 0.402716 0
0.63859 0.399405 0
0.788922 0.403067 0
0.952911 0.414359 1.5259e-05
0.999893 0.43183 3.0518e-05
0.999374 0.455955 0.0265507
0.999191 0.454582 0.149508
0.999786 0.466575 0.240909
0.999893 0.464057 0.289387
0.9991 0.459907 0.294179
0.998993 0.45716 0.298085
0.999924 0.457038 0.298711
0.999832 0.461051 0.293416
0.999878 0.467567 0.283177
0.999481 0.479805 0.26598
0.99942 0.494499 0.242329
0.998825 0.515175 0.211322
0.999802 0.537774 0.169986
0.999008 0.565805 0.114229
0.999695 0.596765 0.0473487
0 0.717433 0.00030518
0 0.69247 0.000823987
1.5259e-05 0.672038 0.000442512
0.000106813 0.654597 0.000183108
0.000122072 0.639902 0.000259403
4.57771e-05 0.628229 0.00047303
0.000106813 0.619852 0.000137331
4.57771e-05 0.610025 0.000320439
0 0.598199 0.000244144
0 0.585565 3.0518e-05
0 0.573388 0.000564584
0.0188754 0.555749 0.000244144
0.186816 0.532052 0.000427253
0.402564 0.511101 0.000183108
0.577493 0.498024 9.15541e-05
0.730846 0.491585 9.15541e-05
0.89543 0.494347 0.000457771
0.999008 0.496986 0.000228885
0.99913 0.515358 0.000106813
0.999222 0.519036 0.0249027
0.999359 0.5131 0.125048
0.999802 0.508217 0.21976
0.998932 0.500282 0.23595
0.998779 0.495369 0.241611
0.999863 0.491661 0.246418
0.999771 0.491722 0.247089
0.999664 0.495674 0.240223
0.999496 0.503609 0.22829
0.999313 0.515663 0.207462
0.998947 0.531929 0.180499
0.999863 0.552422 0.142535
0.999344 0.578027 0.0900893
0.999603 0.607034 0.0312963
0 0.786999 0.000518807
0 0.77026 0.000381476
0 0.75552 0.00015259
0.000198367 0.742992 0.000442512
0.000640879 0.732677 0.00129702
0.000457771 0.724239 0.000595102
0.000350958 0.716472 9.15541e-05
0.000549325 0.708309 0.000289921
0.000534066 0.698909 0.000396735
0.000259403 0.687907 0.000228885
9.15541e-05 0.676844 0
4.57771e-05 0.662577 0
0.0543374 0.642908 0.000961318
0.297704 0.615106 0.000289921
0.506691 0.594629 1.5259e-05
0.6692 0.580102 1.5259e-05
0.829404 0.56466 0.000320439
0.980179 0.55198 0
0.999054 0.558434 0
0.999573 0.588815 3.0518e-05
0.99884 0.572824 0.00758373
0.999527 0.55906 0.105867
0.999725 0.546441 0.154818
0.998734 0.536583 0.170489
0.999176 0.531304 0.180621
0.999191 0.530343 0.185534
0.999481 0.528679 0.186923
0.999283 0.533364 0.177829
0.999222 0.541619 0.16228
0.999405 0.554955 0.137407
0.999649 0.572824 0.10309
0.999603 0.593683 0.0585794
0.999329 0.620783 0.0145266
0 0.857801 0.000732433
0 0.848447 0.0010071
1.5259e-05 0.839811 0.000564584
1.5259e-05 0.831968 0.000259403
1.5259e-05 0.824155 0.000671397
3.0518e-05 0.816922 0.000900282
0.000137331 0.810971 0.000564584
0.000213626 0.803952 0.000228885
6.10361e-05 0.795316 7.62951e-05
3.0518e-05 0.785611 0.000122072
9.15541e-05 0.774502 0.000457771
6.10361e-05 0.76231 0.000503548
0.00729381 0.74873 0.000289921
0.153857 0.722805 0.000274662
0.409369 0.688701 0.000183108
0.601099 0.659556 0.000244144
0.761868 0.637613 4.57771e-05
0.935592 0.617975 0
0.999054 0.605447 9.15541e-05
0.999725 0.623102 6.10361e-05
0.999039 0.63331 0
0.998901 0.619989 0.00669871
0.999619 0.598108 0.0484932
0.999527 0.585489 0.0751049
0.999374 0.578149 0.0905928
0.999405 0.571115 0.103639
0.999146 0.568505 0.11078
0.999359 0.56791 0.109804
0.999115 0.572717 0.100298
0.99971 0.583032 0.0804456
0.999619 0.596902 0.0511177
0.999298 0.61384 0.015671
0.999161 0.638102 0
0 0.927764 0.000183108
0 0.920943 0.000122072
0 0.914824 0.000427253
0 0.909331 0.000701915
0 0.903655 0.000686656
0 0.898421 0.000656138
0 0.89337 0.000579843
0 0.887922 0.000320439
1.5259e-05 0.881361 6.10361e-05
0.000244144 0.87451 0.000564584
0.000183108 0.866041 0.000427253
6.10361e-05 0.856413 0.000106813
0.000366217 0.845777 0.000442512
0.01944 0.825544 0.000228885
0.274113 0.78056 0.000198367
0.513191 0.741207 0.000244144
0.690166 0.713161 0
0.861097 0.687556 0
0.990463 0.667567 0.000167849
0.998795 0.665019 0
0.999069 0.668498 0
0.999161 0.669764 0
0.999695 0.655955 6.10361e-05
0.998795 0.641306 0.000610361
0.999283 0.62948 0.00515755
0.999268 0.61976 0.0102846
0.999329 0.613703 0.0226596
0.999893 0.610742 0.0264744
0.999725 0.610956 0.0192874
0.999619 0.615946 0.0207828
0.999344 0.625177 0.0108492
0.999527 0.639231 0.000869764
0.999405 0.659617 0
0 0.99263 0.000259403
0 0.990066 0.000213626
0 0.986603 0.000167849
0 0.983337 0.000137331
7.62951e-05 0.979995 0.00030518
0.000213626 0.976287 0.000610361
0.000335698 0.972686 0.000915541
0.000427253 0.968597 0.00111391
0.000228885 0.962753 0.000610361
0 0.955642 3.0518e-05
0 0.94789 0.000869764
0 0.939055 0.000762951
0 0.928862 0.000106813
0.00401312 0.916869 0.00015259
0.103059 0.883558 7.62951e-05
0.392691 0.831952 0.000320439
0.605005 0.795605 0.000335698
0.780301 0.765621 0.000335698
0.960754 0.738872 0.000289921
0.99942 0.723766 0
0.999161 0.722118 0.000427253
0.998901 0.703365 0
0.999329 0.695674 0.000228885
0.99939 0.689815 0.000137331
0.998947 0.681132 0
0.999237 0.675868 0.000106813
0.999207 0.663447 9.15541e-05
0.999527 0.65893 0.000213626
0.999207 0.654765 0
0.999268 0.655314 3.0518e-05
0.998947 0.66067 0
0.999542 0.668986 0.00015259
0.998993 0.68043 0
0 1 0.000289921
0 1 0.000289921
0 1 0.000289921
0 1 0.000289921
0 1 0.000289921
0 1 0.000289921
0 1 0.000289921
0 1 0.000289921
0 0.999908 0.000289921
0 0.999222 0.000289921
0 0.998413 0.000289921
0 0.997406 0.00030518
3.0518e-05 0.996368 0.000366217
4.57771e-05 0.995285 0.000396735
0.010193 0.985046 0.000198367
0.202914 0.940459 0.000701915
0.493477 0.889952 4.57771e-05
0.689921 0.855085 1.5259e-05
0.877379 0.822324 0.000122072
0.996597 0.79762 4.57771e-05
0.99939 0.790509 0.000213626
0.99942 0.767758 7.62951e-05
0.99913 0.734249 0
0.999741 0.716548 0.000183108
0.999573 0.709117 0.000610361
0.999588 0.703304 7.62951e-05
0.99884 0.698207 0.000320439
0.998703 0.693843 0
0.999268 0.691371 0.000122072
0.999542 0.691157 0.000106813
0.999481 0.690791 0
0.999405 0.692424 9.15541e-05
0.999069 0.696681 0.000274662
0 1 0.000289921
0 1 0.000289921
0 1 0.000289921
0 1 0.000289921
0 1 0.000289921
0 1 0.000289921
0 1 0.000289921
0 1 0.000289921
0 1 0.000289921
0 1 0.000289921
0 1 0.000289921
0 1 0.000289921
0 1 0.000289921
0 1 0.000289921
0 1 0.000289921
0.0417029 0.998108 0.000427253
0.311955 0.980865 0.000137331
0.584375 0.942885 1.5259e-05
0.782223 0.908858 1.5259e-05
0.96141 0.878172 0.000411994
0.998566 0.859998 0
0.999603 0.837293 0.000579843
0.999374 0.800305 4.57771e-05
0.999191 0.762341 0
0.998932 0.743954 0.000274662
0.998886 0.733013 0.000213626
0.99913 0.724132 0.00015259
0.999542 0.718013 4.57771e-05
0.999252 0.713405 0.000106813
0.999344 0.710597 0.000259403
0.998932 0.709484 0.00015259
0.99913 0.70927 0.000274662
0.999741 0.71165 0.000534066
0 1 0.000289921
0 1 0.000289921
0 1 0.000289921
0 1 0.000289921
0 1 0.000289921
0 1 0.000289921
0 1 0.000289921
0 1 0.000289921
0 1 0.000289921
0 1 0.000289921
0 1 0.000289921
0 1 0.000289921
0 1 0.000289921
0 1 0.000289921
0 1 0.000289921
0.00419623 0.999985 0.000289921
0.126009 0.999969 0.000137331
0.433616 0.998505 0.000320439
0.676249 0.983917 0.000122072
0.877134 0.950378 0.000137331
0.999039 0.920134 0
0.999069 0.898573 0
0.998718 0.86685 1.5259e-05
0.998734 0.827497 0.00015259
0.999466 0.800015 0.000106813
0.999725 0.784283 0.000183108
0.998795 0.770657 0.000122072
0.999588 0.758373 0
0.999298 0.746456 0.000259403
0.999359 0.739818 0.00015259
0.99939 0.734905 0
0.99939 0.732937 7.62951e-05
0.999054 0.733059 0.000274662
0 1 0.000289921
0 1 0.000289921
0 1 0.000289921
0 1 0.000289921
0 1 0.000289921
0 1 0.000289921
0 1 0.000289921
0 1 0.000289921
0 1 0.000289921
0 1 0.000289921
0 1 0.000289921
0 1 0.000289921
0 1 0.000289921
0 1 0.000289921
0 1 0.000289921
0 1 0.000289921
0.00555428 1 0.000289921
0.200366 0.999725 0.00015259
0.531579 0.999893 0.000656138
0.755901 0.995865 0.000213626
0.949981 0.967895 0.000350958
0.998932 0.943206 0
0.999054 0.921935 0
0.999802 0.889998 4.57771e-05
0.999069 0.857832 0.000457771
0.99884 0.841291 0.000106813
0.998825 0.826993 0.000198367
0.998962 0.813199 0.000167849
0.998856 0.801083 0.000183108
0.999359 0.788983 0
0.999207 0.78056 0.00015259
0.999329 0.773983 4.57771e-05
0.99968 0.770047 0.000244144
0 1 0.000289921
0 1 0.000289921
0 1 0.000289921
0 1 0.000289921
0 1 0.000289921
0 1 0.000289921
0 1 0.000289921
0 1 0.000289921
0 1 0.000289921
0 1 0.000289921
0 1 0.000289921
0 1 0.000289921
0 1 0.000289921
0 1 0.000289921
0 1 0.000289921
0 1 0.000289921
0 1 0.000289921
0.0500343 1 0.000335698
0.304723 1 0.000762951
0.610391 1 0.000183108
0.826398 0.996155 0.000564584
0.979904 0.971786 0
0.999069 0.957412 0.000335698
0.999832 0.939315 3.0518e-05
0.998795 0.907103 1.5259e-05
0.999207 0.8916 0.000396735
0.999191 0.878828 0.000137331
0.999237 0.866133 0.000244144
0.999313 0.853758 0
0.999146 0.841962 1.5259e-05
0.999161 0.831342 0
0.999527 0.823072 0.00015259
0.999054 0.816632 0
0 1 0.000289921
0 1 0.000289921
0 1 0.000289921
0 1 0.000289921
0 1 0.000289921
0 1 0.000289921
0 1 0.000289921
0 1 0.000289921
0 1 0.000289921
0 1 0.000289921
0 1 0.000289921
0 1 0.000289921
0 1 0.000289921
0 1 0.000289921
0 1 0.000289921
0 1 0.000289921
0 1 0.000289921
0 1 0.000289921
0.173007 0.999741 0.000137331
0.481559 0.999786 6.10361e-05
0.705821 0.999985 0.000213626
0.900236 0.987091 0.000137331
0.996811 0.970001 0.000289921
0.999054 0.964675 0.000579843
0.999771 0.950607 0
0.998779 0.93315 0
0.999496 0.923354 1.5259e-05
0.999496 0.912566 0.000228885
0.999207 0.901106 0.000366217
0.999207 0.890196 7.62951e-05
0.999435 0.879896 3.0518e-05
0.999176 0.870039 0
0.999557 0.861936 0
0 1 0.000289921
0 1 0.000289921
0 1 0.000289921
0 1 0.000289921
0 1 0.000289921
0 1 0.000289921
0 1 0.000289921
0 1 0.000289921
0 1 0.000289921
0 1 0.000289921
0 1 0.000289921
0 1 0.000289921
0 1 0.000289921
0 1 0.000289921
0 1 0.000289921
0 1 0.000289921
0 1 0.000289921
0 1 0.000289921
0.109483 0.999939 0.000686656
0.348043 0.999832 0.000915541
0.600488 0.999863 0.000350958
0.79379 0.997513 0
0.955718 0.978744 1.5259e-05
0.998154 0.968902 0.000183108
0.999496 0.967559 0.00047303
0.999146 0.960845 0.000427253
0.998474 0.955276 3.0518e-05
0.998856 0.947524 0.000106813
0.999222 0.939971 0
0.999435 0.930724 0
0.998856 0.921492 0
0.999069 0.9131 0
0.998581 0.904479 1.5259e-05
0 1 0.000289921
0 1 0.000289921
0 1 0.000289921
0 1 0.000289921
0 1 0.000289921
0 1 0.000289921
0 1 0.000289921
0 1 0.000289921
0 1 0.000289921
0 1 0.000289921
0 1 0.000289921
0 1 0.000289921
0 1 0.000289921
0 1 0.000289921
0 1 0.000289921
0 1 0.000289921
0 1 0.000289921
0 1 0.000289921
0 1 0.000289921
0.217716 0.999847 0.00030518
0.485893 0.999496 0.000534066
0.68957 0.999725 0.000793469
0.873396 0.989517 0.000122072
0.993744 0.972641 1.5259e-05
0.998642 0.96878 0.000167849
0.999207 0.96849 0.000198367
0.998703 0.968429 0.000198367
0.999252 0.966934 0.000717174
0.999023 0.962966 0
0.998886 0.959426 0.000167849
0.999634 0.953429 0.000106813
0.99855 0.946639 3.0518e-05
0.99913 0.940108 0.000228885
0 1 0.000289921
0 1 0.000289921
0 1 0.000289921
0 1 0.000289921
0 1 0.000289921
0 1 0.000289921
0 1 0.000289921
0 1 0.000289921
0 1 0.000289921
