Luts/Fujifilm/FLog2C_to_ETERNA_VLog.cube
TITLE "Generated by Resolve"
LUT_3D_SIZE 5
0.0065156 0.00610361 0.00611887
0.166705 0.0181888 0.0264134
0.942657 0.274479 0.215534
0.943725 0.343084 0.258976
0.94757 0.600549 0.465095
0.00633249 0.183398 0.000411994
0.121889 0.136385 0.0009308
0.909773 0.221714 0.101549
0.939727 0.391928 0.226413
0.947967 0.607965 0.465766
0.00929274 0.747662 0.000350958
0.00967422 0.683436 0.000289921
0.656672 0.61529 0.00686656
0.931868 0.591608 0.159213
0.947494 0.654856 0.465629
0.0380713 0.999817 0.000244144
0.0934157 0.999817 0.000366217
0.399619 0.999542 0.000411994
0.932387 0.983337 0.0612497
0.948287 0.874327 0.374426
0.556802 0.994064 0.592966
0.561502 0.994171 0.593133
0.593561 0.994904 0.59472
0.783398 0.999573 0.556664
0.962295 0.999313 0.481453
0.013962 0.00630198 0.153964
0.178439 0.00491341 0.120974
0.942016 0.259251 0.196063
0.943801 0.342672 0.25922
0.947555 0.600458 0.465095
0.0191806 0.20795 0.203738
0.136324 0.138323 0.136782
0.890166 0.218387 0.145846
0.939757 0.39147 0.226734
0.947982 0.60798 0.465873
0.0184329 0.769604 0.0307317
0.0144045 0.712657 0.00682078
0.645533 0.631037 0.00173953
0.931868 0.591409 0.159487
0.947494 0.654871 0.465751
0.0287175 0.999725 0.000381476
0.0917067 0.999786 0.000396735
0.400214 0.999603 0.00030518
0.932372 0.98323 0.0612192
0.948302 0.874327 0.374594
0.557595 0.994095 0.592966
0.562295 0.994202 0.593133
0.594354 0.994919 0.59472
0.783749 0.999573 0.556527
0.962295 0.999313 0.481453
0.0428626 0.0157015 0.692363
0.15172 0.00268559 0.507012
0.957702 0.15581 0.522759
0.95198 0.379034 0.473533
0.94757 0.600122 0.465354
0.0530404 0.256123 0.795834
0.129534 0.132631 0.587243
0.875776 0.172564 0.589395
0.951125 0.438285 0.506371
0.947982 0.607553 0.466133
0.0664073 0.788464 0.722499
0.0566873 0.743648 0.675959
0.651362 0.651621 0.651392
0.952697 0.617655 0.564218
0.947524 0.654505 0.466087
0.0589151 0.999619 0.337606
0.0818189 0.999344 0.338994
0.336217 0.998154 0.371252
0.948196 0.981323 0.332189
0.948348 0.87422 0.375219
0.549203 0.992538 0.645136
0.554345 0.992599 0.645243
0.589288 0.993057 0.645975
0.786068 0.999252 0.612192
0.962325 0.999313 0.481956
0.100969 0.0818036 0.999619
0.100969 0.0818036 0.999619
0.79266 0.0141604 0.999542
0.969223 0.306752 0.808255
0.963897 0.598566 0.765774
0.100969 0.0818036 0.999619
0.100969 0.0818036 0.999619
0.800122 0.0173342 0.999435
0.968887 0.361288 0.828016
0.963912 0.606806 0.768277
0.0759442 0.75761 0.894011
0.066392 0.623835 0.9243
0.524163 0.573007 0.988266
0.969512 0.572244 0.86981
0.965133 0.656352 0.780484
0.100084 0.971527 0.85359
0.100099 0.970504 0.853513
0.112016 0.963455 0.85626
0.925231 0.927596 0.925078
0.976364 0.856504 0.821942
0.403983 0.98143 0.897917
0.409506 0.981521 0.898817
0.449699 0.982208 0.905287
0.727428 0.989303 0.947448
0.987762 0.999832 0.861311
0.0997177 0.979767 0.852705
0.0997177 0.979767 0.852705
0.0997177 0.979767 0.852705
0.0997177 0.979767 0.852705
0.979263 0.495781 1
0.0997177 0.979767 0.852705
0.0997177 0.979767 0.852705
0.0997177 0.979767 0.852705
0.0997177 0.979767 0.852705
0.9794 0.501534 1
0.0997177 0.979767 0.852705
0.0997177 0.979767 0.852705
0.0997177 0.979767 0.852705
0.0997177 0.979767 0.852705
0.978485 0.541253 1
0.0997177 0.979767 0.852705
0.0997177 0.979767 0.852705
0.0997177 0.979767 0.852705
0.0997177 0.979767 0.852705
0.9832 0.784543 0.999695
0.0997177 0.979767 0.852705
0.0997177 0.979767 0.852705
0.0997177 0.979767 0.852705
0.181842 0.979324 0.863172
1 1 1
