Luts/Fujifilm/FLog2C_to_FLog2C-709_VLog.cube
TITLE "Generated by Resolve"
#LUMIXPHOTOSTYLE VLOG
LUT_3D_SIZE 9
0 0 0
0.132403 0 0.000610361
0.321706 0 0
0.495903 0 0
0.672663 0 0
0.831968 0 0
0.975067 0.0987259 0
1 0.305806 0
1 0.463218 0
0 0.113756 0
0.101884 0.100267 0
0.298604 0.0683146 0
0.471931 0.0253758 0
0.644373 0.00509651 0
0.81004 0.0323339 0
0.966323 0.171206 0
1 0.321202 0
1 0.467399 0
0 0.265568 0
0 0.254215 0
0.229709 0.239292 0
0.426078 0.215076 0
0.613489 0.184878 0
0.791379 0.174365 0
0.957275 0.227161 0
1 0.337957 0
1 0.472343 0
0 0.402472 0
0 0.392401 0
0.108156 0.384024 0
0.352239 0.368704 0
0.56051 0.345617 0
0.755169 0.322713 0
0.93611 0.323827 0
1 0.379782 0
1 0.486213 0
0 0.535088 0
0 0.531075 0
0.005066 0.527001 0
0.24741 0.518151 0
0.479576 0.501793 0
0.693614 0.479576 0
0.893538 0.460426 0
1 0.466865 0
1 0.524605 0
0 0.669871 0
0 0.668406 0
0.00502022 0.666789 0
0.156954 0.662669 0
0.383932 0.652934 0
0.608362 0.636103 0
0.825818 0.614466 0
1 0.597604 0
1 0.607019 0
0.0703899 0.805341 0
0.0970932 0.804852 0
0.127092 0.804288 0
0.194736 0.802686 0
0.327596 0.798138 0
0.518181 0.78793 0
0.737606 0.770687 0
0.957321 0.749584 0
1 0.734218 0
0.296132 0.938674 0
0.301137 0.938521 0
0.307362 0.938338 0
0.323201 0.937865 0
0.369558 0.93611 0
0.474571 0.931685 0
0.650675 0.922072 0
0.866911 0.90547 0
1 0.884627 0
0.459922 1 0
0.461143 1 0
0.462699 1 0
0.466758 1 0
0.479515 1 0
0.518822 1 0
0.612894 1 0
0.780636 1 0
0.990662 1 0
0 0 0.107958
0.129229 0 0.106706
0.320256 0 0.103838
0.494881 0 0.098436
0.672023 0 0.0869154
0.831189 0 0.0393683
0.974884 0.0986191 0
1 0.306035 0
1 0.463325 0
0 0.105653 0.0967117
0.0928511 0.0927596 0.0928969
0.295796 0.0592355 0.0907759
0.4701 0.0162814 0.0827955
0.643275 0.00166323 0.0634775
0.809369 0.0252995 0.0170291
0.966155 0.17084 0
1 0.321431 0
1 0.467506 0
0 0.260838 0.0687114
0 0.249348 0.0659648
0.226825 0.234089 0.0626078
0.424491 0.209522 0.055436
0.612451 0.178973 0.0389715
0.790768 0.169375 0.00381476
0.957122 0.226749 0
1 0.338186 0
1 0.47245 0
0 0.398825 0.0246586
0 0.388769 0.021622
0.104021 0.380255 0.0189059
0.350637 0.364858 0.0131533
0.559548 0.341787 0.00376898
0.754635 0.319341 0
0.936004 0.323201 0
1 0.379873 0
1 0.486213 0
0 0.532052 0
0 0.528099 0
0.0043183 0.52401 0
0.245304 0.515099 0
0.478386 0.498985 0
0.693065 0.476997 0
0.893431 0.459754 0
1 0.466865 0
1 0.524605 0
0 0.667063 0
0 0.665614 0
0.00436408 0.663996 0
0.153414 0.659815 0
0.382345 0.650263 0
0.607599 0.633753 0
0.825605 0.613535 0
1 0.597604 0
1 0.607019 0
0.0666972 0.80206 0
0.0923934 0.801495 0
0.121279 0.800931 0
0.190494 0.799359 0
0.325093 0.794873 0
0.51664 0.785031 0
0.737011 0.768856 0
0.957321 0.749584 0
1 0.734218 0
0.293263 0.935897 0
0.298054 0.935821 0
0.30454 0.935561 0
0.320729 0.934997 0
0.366781 0.933364 0
0.472663 0.92871 0
0.649134 0.91873 0
0.866484 0.904173 0
1 0.884627 0
0.458885 1 0
0.460288 1 0
0.461845 1 0
0.465904 1 0
0.478691 1 0
0.517922 1 0
0.612329 1 0
0.779995 1 0
0.990478 1 0
0 0 0.251972
0.121935 0 0.251423
0.316869 0 0.250111
0.492668 0 0.24773
0.670405 0 0.24332
0.829389 0 0.224063
0.973526 0.0688487 0.168276
1 0.301595 0
1 0.463432 0
0 0.0823835 0.245899
0.0830854 0.0668803 0.244862
0.290547 0.0341192 0.243214
0.466865 0.00283818 0.23975
0.641001 0 0.231891
0.807691 0.000900282 0.212894
0.964797 0.149859 0.161715
1 0.317189 0
1 0.467506 0
0 0.248844 0.232532
0 0.236835 0.231327
0.21854 0.221866 0.228473
0.421363 0.194736 0.226764
0.61033 0.161685 0.219883
0.78912 0.15053 0.203204
0.955764 0.210285 0.154726
1 0.334112 0
1 0.47245 0
0 0.390524 0.210285
0 0.380102 0.208881
0.095079 0.37145 0.207553
0.347173 0.355734 0.204837
0.557336 0.33196 0.198596
0.753017 0.308415 0.183688
0.934615 0.311482 0.137713
1 0.376181 0
1 0.486305 0
0 0.525765 0.173449
0 0.521614 0.172488
0.00296025 0.51754 0.17142
0.240681 0.508629 0.168948
0.476051 0.492058 0.162966
0.691371 0.469581 0.148135
0.892042 0.451362 0.10045
1 0.463493 0
1 0.524605 0
0 0.662196 0.117296
0 0.660716 0.116609
0.00363165 0.659098 0.115831
0.147082 0.654871 0.113436
0.379614 0.645151 0.107164
0.605753 0.628367 0.0891432
0.824155 0.607401 0.03505
1 0.594614 0
1 0.607019 0
0.0629587 0.798489 0.039704
0.0872206 0.797925 0.0393835
0.114885 0.79736 0.038819
0.185824 0.795758 0.0369421
0.322377 0.79115 0.031693
0.514778 0.781186 0.0165866
0.735485 0.764477 0
0.956481 0.746044 0
1 0.734218 0
0.290898 0.933639 0.00369268
0.29601 0.933486 0.00344854
0.302541 0.933211 0.00328069
0.318578 0.932723 0.00247196
0.364874 0.93106 0.000442512
0.471153 0.926345 0
0.647959 0.916121 0
0.865232 0.900343 0
1 0.884627 0
0.458167 1 0.0563973
0.459403 1 0.0560616
0.46096 1 0.0561074
0.465034 1 0.0552682
0.477836 1 0.0533761
0.517128 1 0.0465095
0.611521 1 0.0242466
0.77937 1 0
0.989746 1 0
0 0 0.383551
0.110338 0 0.3832
0.31162 0 0.382345
0.489387 0 0.380957
0.668009 0 0.378607
0.826062 0 0.367712
0.971328 0.0288701 0.342947
1 0.277394 0.290806
1 0.45481 0.0173342
0 0.0523842 0.378882
0.057496 0.0367285 0.378286
0.280659 0.00401312 0.377234
0.460761 0 0.375097
0.636881 0 0.370596
0.804791 0.000122072 0.360739
0.962646 0.116869 0.339406
1 0.29427 0.289021
1 0.458946 0.016434
0 0.232029 0.370169
0 0.219089 0.369406
0.210468 0.201999 0.368551
0.415763 0.173617 0.366705
0.606592 0.135912 0.362982
0.786435 0.12134 0.354788
0.953658 0.185687 0.335714
1 0.3122 0.286992
1 0.463874 0.0151827
0 0.378378 0.355917
0 0.367666 0.355123
0.0794385 0.358572 0.354406
0.33904 0.343267 0.351461
0.553841 0.317372 0.349722
0.750454 0.292363 0.343099
0.93257 0.294118 0.32694
1 0.356741 0.281575
1 0.477958 0.0114137
0 0.516335 0.333394
0 0.512016 0.332967
0.00102235 0.507851 0.332433
0.233661 0.498756 0.331258
0.472465 0.481712 0.328649
0.688807 0.458671 0.322988
0.890013 0.439155 0.309285
1 0.447883 0.26804
1 0.516869 0.000137331
0 0.65478 0.302037
0 0.653284 0.301839
0.00239567 0.651652 0.301503
0.136675 0.647349 0.300633
0.375097 0.637552 0.298497
0.603037 0.620249 0.2934
0.82208 0.598444 0.280735
1 0.582635 0.241657
1 0.599924 0
0.0561379 0.79263 0.262058
0.0779583 0.792065 0.261997
0.103593 0.791547 0.261769
0.177966 0.789853 0.26125
0.317342 0.785336 0.25951
0.511986 0.774884 0.254978
0.733394 0.757733 0.24239
0.954437 0.737438 0.202258
1 0.727764 0
0.286427 0.929351 0.220752
0.291615 0.929198 0.2206
0.297978 0.929 0.220554
0.314488 0.928435 0.220172
0.361273 0.926741 0.21886
0.468208 0.922026 0.214984
0.64593 0.911391 0.203128
0.863325 0.894774 0.162219
1 0.877607 0
0.456001 1 0.208515
0.457389 1 0.208499
0.458946 1 0.208392
0.463035 1 0.208164
0.475868 1 0.20734
0.51545 1 0.204776
0.610071 1 0.19585
0.777874 1 0.165545
0.988586 1 0.0059205
0 0 0.518074
0.0914473 0 0.517876
0.303929 0 0.517281
0.484535 0 0.516289
0.66215 0 0.514366
0.819074 0 0.5066
0.967453 0.00332647 0.492119
1 0.250172 0.467765
1 0.428962 0.417594
0 0.0329595 0.513603
0.00766003 0.0171206 0.5131
0.257511 0.000259403 0.512383
0.447242 0 0.510948
0.628092 0 0.508034
0.799069 0 0.501884
0.958938 0.0719158 0.489647
1 0.268254 0.466667
1 0.4336 0.417151
0 0.213336 0.507607
0 0.199466 0.507118
0.18851 0.18085 0.506416
0.404517 0.148501 0.505257
0.599359 0.104097 0.502785
0.781415 0.0817884 0.497749
0.950088 0.152316 0.487144
1 0.28751 0.465354
1 0.438895 0.416541
0 0.362402 0.497597
0 0.351232 0.496971
0.0508431 0.341878 0.496483
0.331106 0.324559 0.49546
0.547524 0.2981 0.493507
0.746044 0.270909 0.489601
0.929335 0.271015 0.481102
1 0.334768 0.461921
1 0.453696 0.414862
0 0.503105 0.481621
0 0.498756 0.481315
0 0.494484 0.480934
0.221973 0.484855 0.480247
0.463874 0.468421 0.477241
0.684749 0.443549 0.475502
0.886915 0.422889 0.469032
1 0.429999 0.4533
1 0.494469 0.409964
0 0.643839 0.459556
0 0.64239 0.459403
0.000671397 0.640787 0.45922
0.120577 0.636408 0.458732
0.368719 0.626169 0.457588
0.598947 0.608621 0.455039
0.819043 0.586175 0.449638
1 0.569009 0.436698
1 0.58114 0.397955
0.045594 0.783719 0.431205
0.0630655 0.78323 0.431159
0.0851911 0.782696 0.431067
0.164965 0.781048 0.430777
0.310033 0.776379 0.43003
0.507134 0.765988 0.427985
0.730144 0.748241 0.423331
0.951843 0.726925 0.411704
1 0.712856 0.37612
0.27895 0.922316 0.398215
0.283803 0.922301 0.398154
0.290898 0.92195 0.398169
0.307698 0.921386 0.397986
0.355367 0.919661 0.397528
0.4636 0.91487 0.396017
0.642496 0.904067 0.392081
0.860777 0.886641 0.381125
1 0.866773 0.346761
0.452155 1 0.369039
0.453407 1 0.368994
0.454994 1 0.369009
0.459251 1 0.368887
0.471901 1 0.368521
0.511772 1 0.36759
0.606821 1 0.364401
0.775433 1 0.354772
0.986999 1 0.323323
0 0 0.652476
0.00984207 0 0.652216
0.269306 0 0.651621
0.459724 0 0.650507
0.637324 0 0.64802
0.803418 0 0.642847
0.959594 0.000213626 0.633616
1 0.219593 0.618753
1 0.405478 0.594308
0 0.0708934 0.647745
0 0.0541238 0.64744
0.197757 0.0185397 0.646891
0.415518 3.0518e-05 0.645884
0.608042 0 0.643885
0.786496 0 0.639872
0.951675 0.0341802 0.631876
1 0.238743 0.617945
1 0.410178 0.593957
0 0.209857 0.6439
0 0.195636 0.643534
0.130495 0.176226 0.643046
0.378943 0.142214 0.642176
0.583246 0.0905776 0.640436
0.770733 0.0567025 0.637034
0.943404 0.119554 0.630091
1 0.259846 0.616999
1 0.41561 0.593545
0 0.348409 0.636805
0 0.336599 0.636378
0.00857557 0.326818 0.635996
0.309865 0.308659 0.635264
0.535424 0.280232 0.633829
0.737804 0.249775 0.631174
0.923476 0.246387 0.625711
1 0.309667 0.614435
1 0.431174 0.592325
0 0.487648 0.624933
0 0.483131 0.624704
0 0.478691 0.62446
0.199985 0.468833 0.623926
0.456107 0.450568 0.622782
0.678157 0.425437 0.620661
0.882139 0.403021 0.616663
1 0.409384 0.608087
1 0.473564 0.588861
0 0.629999 0.608209
0 0.628595 0.608087
0 0.626886 0.607965
0.0950484 0.622385 0.60766
0.358282 0.612055 0.606821
0.590219 0.594949 0.603891
0.814725 0.570504 0.602167
1 0.552361 0.595743
1 0.562951 0.580346
0.030045 0.772061 0.586526
0.0413825 0.771634 0.58648
0.058381 0.770871 0.58645
0.145495 0.769284 0.586206
0.299351 0.764508 0.585779
0.500725 0.753841 0.584543
0.72578 0.735698 0.582086
0.948501 0.713664 0.576959
1 0.698131 0.564462
0.267979 0.912474 0.560052
0.273243 0.912383 0.560021
0.28014 0.912184 0.560006
0.297795 0.911528 0.559884
0.346563 0.909865 0.559655
0.457008 0.904906 0.558862
0.637598 0.894072 0.557
0.857206 0.876112 0.552514
1 0.854917 0.541558
0.445777 1 0.530922
0.447379 1 0.530938
0.448661 1 0.530907
0.45301 1 0.530877
0.465965 1 0.530709
0.50631 1 0.530297
0.602228 1 0.528908
0.771908 1 0.525185
0.984863 1 0.515053
0 0.098558 0.782544
0 0.0893111 0.782376
0.0590677 0.0513466 0.781933
0.368795 0.00857557 0.78114
0.581674 0 0.779706
0.770306 0 0.776852
0.942077 0.0108797 0.771221
1 0.200534 0.761395
1 0.381872 0.745953
0 0.190433 0.780453
0 0.180911 0.78024
0.0105287 0.157259 0.779828
0.342672 0.115984 0.779095
0.564279 0.0520943 0.777783
0.758862 0.0103304 0.775204
0.935805 0.0575113 0.770169
1 0.219883 0.7608
1 0.386618 0.745693
0 0.253864 0.778424
0 0.242435 0.778134
0 0.225559 0.777752
0.316411 0.196353 0.777081
0.546761 0.152392 0.77586
0.747082 0.107652 0.773526
0.928878 0.124636 0.768933
1 0.24036 0.760098
1 0.39234 0.745357
0 0.352804 0.773938
0 0.340963 0.773587
0 0.331014 0.773281
0.258686 0.312459 0.772702
0.508049 0.283238 0.771634
0.719753 0.249042 0.769665
0.911421 0.236622 0.765881
1 0.28983 0.758282
1 0.408255 0.744457
0 0.475944 0.76527
0 0.471199 0.765072
0 0.466438 0.764889
0.150805 0.456352 0.764462
0.436011 0.437476 0.763592
0.665446 0.411002 0.762036
0.873091 0.386236 0.759213
1 0.389456 0.753429
1 0.451713 0.741741
0 0.614923 0.752346
0 0.613382 0.752255
0 0.611627 0.752163
0.0585794 0.606912 0.751919
0.340948 0.596353 0.751308
0.582696 0.577615 0.750088
0.80766 0.553399 0.747906
1 0.533898 0.743832
1 0.543252 0.73518
0.0106966 0.757839 0.735103
0.0148928 0.757321 0.735073
0.024033 0.756695 0.735027
0.116197 0.755062 0.73489
0.283101 0.750118 0.734569
0.49131 0.739193 0.7337
0.717128 0.721599 0.7308
0.943832 0.697948 0.729015
1 0.681254 0.722698
0.252079 0.900069 0.713695
0.25774 0.899977 0.713664
0.26508 0.899779 0.713649
0.283253 0.89926 0.713588
0.334646 0.897398 0.713375
0.44799 0.892363 0.712932
0.631327 0.881254 0.711711
0.852506 0.86305 0.709255
1 0.841154 0.704311
0.437079 1 0.688411
0.4383 1 0.688411
0.44004 1 0.688411
0.444465 1 0.68838
0.457786 1 0.688319
0.498695 1 0.688045
0.595987 1 0.687282
0.767086 1 0.685512
0.981933 0.997299 0.681193
0 0.311528 0.91249
0 0.30901 0.912428
0 0.292973 0.912062
0.17583 0.266285 0.911482
0.486931 0.228153 0.910536
0.71046 0.184009 0.908919
0.905867 0.16733 0.905776
1 0.234134 0.899779
1 0.369924 0.889311
0 0.332204 0.911727
0 0.327764 0.911604
0 0.312932 0.911254
0.159808 0.288975 0.910689
0.478218 0.253956 0.909758
0.704417 0.212924 0.908202
0.901701 0.192538 0.905196
1 0.247395 0.899382
1 0.374319 0.889113
0 0.353964 0.910857
0 0.347204 0.910674
0 0.333867 0.910369
0.143511 0.312398 0.909819
0.468696 0.28011 0.908919
0.697459 0.241276 0.907408
0.897063 0.219074 0.904509
1 0.262119 0.898909
1 0.379522 0.888884
0 0.40264 0.908583
0 0.392004 0.908278
0 0.382635 0.908034
0.0936599 0.365774 0.907546
0.444022 0.338796 0.906722
0.679347 0.304723 0.905318
0.884565 0.278965 0.902708
1 0.300252 0.897627
1 0.394507 0.888182
0 0.484276 0.903014
0 0.479377 0.902861
0 0.474769 0.902693
0.0249638 0.464454 0.902327
0.388479 0.445396 0.901625
0.636988 0.418128 0.90042
0.853498 0.390265 0.898283
1 0.384436 0.894209
1 0.436225 0.886137
0 0.604532 0.893462
0 0.603037 0.89337
0 0.601129 0.893294
0.00753796 0.596384 0.893095
0.305486 0.585412 0.892592
0.563165 0.566293 0.891569
0.794553 0.540825 0.889967
0.999634 0.519265 0.886961
1 0.525704 0.880964
0 0.742931 0.879683
0 0.742397 0.879652
0.00108339 0.741848 0.879606
0.071397 0.740001 0.879515
0.255055 0.735012 0.87924
0.476081 0.723751 0.878599
0.709606 0.704784 0.877302
0.936599 0.681285 0.875135
1 0.663584 0.871015
0.227863 0.885618 0.862135
0.234409 0.885451 0.862119
0.242679 0.885237 0.862104
0.262791 0.884627 0.862074
0.317296 0.882734 0.861952
0.435004 0.877699 0.861509
0.622461 0.866346 0.860685
0.844068 0.848478 0.85774
1 0.825238 0.85594
0.425635 1 0.840818
0.42681 1 0.840787
0.428305 1 0.840787
0.433066 1 0.840787
0.44686 1 0.840742
0.488579 1 0.840574
0.587579 1 0.84007
0.760723 0.999954 0.838911
0.977981 0.988968 0.836515
0 0.472145 1
0 0.472236 1
0 0.462989 1
0 0.443565 1
0.312139 0.417624 1
0.612436 0.385183 1
0.841505 0.352316 1
1 0.343862 1
1 0.39823 1
0 0.477882 1
0 0.477974 1
0 0.467506 1
0 0.449012 1
0.308782 0.423667 1
0.60972 0.391577 1
0.839429 0.359197 1
1 0.349737 1
1 0.401419 1
0 0.48452 1
0 0.483436 1
0 0.472755 1
0 0.45536 1
0.304387 0.430655 1
0.60647 0.399283 1
0.836973 0.367208 1
1 0.356497 1
1 0.405371 1
0 0.503029 1
0 0.496544 1
0 0.487785 1
0 0.473167 1
0.292912 0.450523 1
0.597238 0.420645 1
0.83003 0.389013 1
1 0.375036 1
1 0.416327 1
0 0.538048 1
0 0.533211 1
0 0.528481 1
0 0.518669 1
0.261234 0.500587 1
0.571878 0.474647 1
0.81033 0.444526 1
1 0.425116 1
1 0.448356 1
0 0.615167 1
0 0.613718 1
0 0.611811 1
0 0.606836 1
0.207065 0.595804 1
0.518318 0.576272 1
0.765362 0.550256 1
0.9841 0.525444 1
1 0.523186 1
0 0.733608 1
0 0.733059 1
0 0.732494 1
0.0043183 0.730526 1
0.192645 0.725597 1
0.445945 0.714015 1
0.690669 0.694499 1
0.923186 0.669978 1
1 0.650324 0.999878
0.183612 0.870909 0.999268
0.191241 0.870817 0.999268
0.201755 0.870527 0.999268
0.226413 0.869978 0.999268
0.286961 0.868055 0.999252
0.413962 0.862806 0.999237
0.608392 0.851225 0.999176
0.83653 0.832059 0.999039
1 0.809033 0.998749
0.409354 1 0.989075
0.410681 1 0.989075
0.412543 1 0.989059
0.41735 1 0.989044
0.431434 1 0.989013
0.474662 1 0.988876
0.57644 0.998703 0.988525
0.752209 0.991028 0.987594
0.970718 0.975433 0.98471
