Luts/Fujifilm/FLog2C_to_REALA-ACE_VLog.cube
TITLE "Generated by Resolve"
LUT_3D_SIZE 9
0.000198367 0.000106813 0
0.000198367 0.000106813 0
0.101808 1.5259e-05 0.00175479
0.681895 0.000213626 0.0644846
0.926345 0.260655 0.441459
0.940826 0.327153 0.473701
0.944183 0.344152 0.462348
0.97174 0.468025 0.459937
0.99762 0.620737 0.57499
0.000198367 0.000106813 0
0 0.000411994 1.5259e-05
0.140383 1.5259e-05 0.00437934
0.665309 4.57771e-05 0.058381
0.917189 0.216236 0.419577
0.940826 0.327153 0.473701
0.948882 0.366674 0.441718
0.974334 0.479789 0.455543
0.997971 0.624598 0.573846
0 0.163012 6.10361e-05
3.0518e-05 0.146502 0.000549325
0.0843977 0.0979171 0.000518807
0.502571 0.0577707 0.000259403
0.910521 0.198978 0.268772
0.947188 0.35584 0.450996
0.955932 0.394141 0.417563
0.977142 0.49337 0.450523
0.998367 0.629129 0.572396
0.196139 0.548653 0.147036
0.0997787 0.40972 0.0658885
0.0580911 0.353307 0.0307774
0.3467 0.31075 3.0518e-05
0.839689 0.30367 0.013138
0.967422 0.449348 0.328115
0.971344 0.466346 0.371679
0.984237 0.529793 0.434958
0.999344 0.642481 0.568231
0.453529 0.789136 0.38265
0.396323 0.74789 0.327901
0.352911 0.715419 0.286595
0.313146 0.664729 0.216678
0.707713 0.638987 3.0518e-05
0.979873 0.660533 0.00553903
0.9906 0.614038 0.257053
0.994522 0.620829 0.377157
0.998886 0.682414 0.550179
0.663661 0.929183 0.593484
0.663661 0.929183 0.593484
0.663661 0.929183 0.593484
0.663661 0.929183 0.593484
0.748989 0.935653 0.569894
0.987808 0.904143 0.00172427
0.987228 0.832273 0.00137331
0.994598 0.788403 0.225483
0.998474 0.77554 0.497063
0.663661 0.929183 0.593484
0.663661 0.929183 0.593484
0.663661 0.929183 0.593484
0.663661 0.929183 0.593484
0.680186 0.931823 0.592645
0.865568 0.964019 0.567514
0.997559 0.979583 0.365332
0.995346 0.952544 0.154574
0.998123 0.928252 0.317739
0.663661 0.929183 0.593484
0.664363 0.929259 0.593469
0.665293 0.929381 0.593454
0.667979 0.929671 0.593423
0.67834 0.931167 0.593347
0.743282 0.942336 0.590097
0.919387 0.973785 0.542336
0.996979 0.986648 0.425681
0.996277 0.988266 0.444892
0.718257 0.944396 0.722454
0.71931 0.944564 0.722377
0.720638 0.944793 0.722377
0.724453 0.945434 0.722225
0.736934 0.947555 0.722118
0.769848 0.952377 0.715175
0.863416 0.967697 0.680842
0.995346 0.989593 0.542855
0.995422 0.990723 0.560586
0.000167849 0.000167849 0.000381476
0.000183108 0.000122072 1.5259e-05
0.132143 1.5259e-05 0.00331121
0.69514 0.000122072 0.0691997
0.926757 0.262699 0.442435
0.940826 0.327153 0.473701
0.944137 0.343999 0.462486
0.971725 0.467918 0.460029
0.99762 0.620737 0.57499
0.000183108 0.000137331 0.000183108
0.000198367 0.000106813 0
0.179049 0.000228885 0.00505074
0.679911 0 0.0620584
0.917617 0.21828 0.421302
0.940826 0.327153 0.473701
0.948837 0.366476 0.441871
0.974304 0.479606 0.455695
0.997971 0.624598 0.573846
0 0.161791 6.10361e-05
0 0.127886 0.000564584
0.106966 0.0969253 0.000656138
0.514611 0.0550851 0.000228885
0.910765 0.199588 0.274083
0.947097 0.355489 0.451286
0.955886 0.393912 0.417777
0.977142 0.493355 0.450599
0.998367 0.629129 0.572503
0.176471 0.520088 0.130541
0.0909743 0.398276 0.058732
0.0564889 0.349004 0.0277104
0.358755 0.309239 0
0.843168 0.304433 0.0147707
0.967407 0.44921 0.329076
0.971344 0.466331 0.37174
0.984253 0.529809 0.43505
0.999344 0.642481 0.568231
0.441108 0.780407 0.370611
0.390158 0.742992 0.322118
0.348394 0.71194 0.28217
0.314046 0.662913 0.213581
0.712032 0.638834 1.5259e-05
0.979873 0.660365 0.00575265
0.9906 0.614023 0.25716
0.994522 0.620829 0.377157
0.998886 0.682414 0.550179
0.663661 0.929183 0.593484
0.663661 0.929183 0.593484
0.663661 0.929183 0.593484
0.663661 0.929183 0.593484
0.750195 0.935592 0.569085
0.987823 0.903944 0.00170901
0.987228 0.832227 0.00135805
0.994598 0.788403 0.225483
0.998474 0.775525 0.497185
0.663661 0.929183 0.593484
0.663661 0.929183 0.593484
0.663661 0.929183 0.593484
0.663661 0.929183 0.593484
0.680766 0.931914 0.59263
0.866224 0.964141 0.567254
0.997559 0.979522 0.364874
0.995346 0.952499 0.154238
0.998123 0.928252 0.317739
0.663752 0.929198 0.593484
0.664469 0.929274 0.593469
0.6654 0.929381 0.593469
0.668101 0.929686 0.593423
0.678599 0.931212 0.593347
0.743526 0.942382 0.590066
0.919524 0.9738 0.542245
0.996979 0.986648 0.425681
0.996277 0.988266 0.444877
0.718395 0.944411 0.722454
0.719463 0.944595 0.722377
0.72076 0.944808 0.722347
0.724743 0.94548 0.72224
0.737194 0.947601 0.722087
0.76997 0.952392 0.715267
0.863554 0.967727 0.680781
0.995346 0.989593 0.542779
0.995422 0.990723 0.560586
0.000122072 0.000396735 0.102571
0.000122072 0.000411994 0.101442
0.134508 0.000427253 0.0654612
0.653315 0 0.074876
0.922927 0.243137 0.433051
0.940826 0.327153 0.473701
0.944091 0.343801 0.462684
0.971695 0.467826 0.46006
0.99762 0.620645 0.575021
0.000122072 0.000396735 0.101946
3.0518e-05 4.57771e-05 0.0792706
0.180316 0.000244144 0.0701762
0.642786 0 0.0821698
0.914595 0.20473 0.413397
0.940826 0.327153 0.473701
0.948806 0.366262 0.442054
0.974304 0.479576 0.455695
0.997955 0.624491 0.573892
0.000320439 0.167651 0.175036
0.000228885 0.134325 0.124651
0.1066 0.108186 0.106203
0.485985 0.0479133 0.0821393
0.910307 0.196353 0.285878
0.948547 0.360067 0.447654
0.955825 0.393668 0.418006
0.977111 0.493248 0.450645
0.998367 0.629129 0.572503
0.175525 0.549538 0.192004
0.101106 0.420951 0.0863966
0.0649271 0.366552 0.0457771
0.33402 0.319799 0.00349432
0.836027 0.294987 0.0809491
0.968429 0.452277 0.37583
0.971267 0.466011 0.371954
0.984222 0.529671 0.435096
0.999344 0.642481 0.568231
0.507729 0.827726 0.435737
0.457282 0.792065 0.386343
0.410468 0.758846 0.341176
0.348623 0.702007 0.263035
0.698329 0.66128 0.000488289
0.984482 0.663783 0.0749828
0.990585 0.613825 0.25742
0.994522 0.620691 0.377234
0.998886 0.682414 0.550286
0.663661 0.929183 0.593484
0.663661 0.929183 0.593484
0.663661 0.929183 0.593484
0.663661 0.929183 0.593484
0.748028 0.942168 0.587152
0.986542 0.907408 0.00619516
0.987243 0.832151 0.00155642
0.994598 0.788479 0.22533
0.998474 0.775525 0.497185
0.663661 0.929183 0.593484
0.663661 0.929183 0.593484
0.663661 0.929183 0.593484
0.663661 0.929183 0.593484
0.680568 0.932052 0.59292
0.866789 0.964248 0.567041
0.997559 0.979522 0.364904
0.995346 0.952499 0.154238
0.998123 0.928237 0.317983
0.663859 0.929213 0.593484
0.664637 0.929305 0.593469
0.665522 0.929397 0.593454
0.668223 0.929702 0.593423
0.678813 0.931258 0.593347
0.743923 0.942443 0.590036
0.919676 0.973831 0.542153
0.996979 0.986648 0.425681
0.996277 0.988266 0.444877
0.718654 0.944457 0.722423
0.719692 0.94464 0.722423
0.72105 0.944854 0.722347
0.724849 0.945495 0.72221
0.737346 0.947631 0.722103
0.770184 0.952422 0.715175
0.863691 0.967742 0.680705
0.995346 0.989593 0.542779
0.995422 0.990723 0.560586
0.000564584 9.15541e-05 0.46183
0.000274662 0.000106813 0.415076
0.154253 1.5259e-05 0.294011
0.619364 0.000137331 0.267445
0.918822 0.226093 0.514824
0.942 0.333791 0.506661
0.948608 0.362432 0.520027
0.971588 0.467353 0.460349
0.997604 0.620554 0.575158
0.000564584 9.15541e-05 0.461524
0.000289921 0.000488289 0.368444
0.200977 1.5259e-05 0.290089
0.621332 9.15541e-05 0.276997
0.907881 0.203815 0.53698
0.944518 0.347112 0.560525
0.953948 0.387472 0.52047
0.974182 0.479011 0.456046
0.997955 0.624399 0.574014
0.000915541 0.150057 0.528115
0.00015259 0.0917678 0.410544
0.0556954 0.0572061 0.33608
0.470695 0.033402 0.320043
0.90837 0.18735 0.448402
0.953994 0.393072 0.571206
0.960388 0.416068 0.517922
0.977035 0.492851 0.450935
0.998352 0.629053 0.572641
0.0190433 0.542107 0.550973
0.000122072 0.395407 0.383246
0.000122072 0.336629 0.323217
0.325567 0.325414 0.325338
0.826596 0.286381 0.343755
0.970397 0.465583 0.548623
0.97467 0.484199 0.505577
0.984192 0.529473 0.435325
0.999344 0.64239 0.568368
0.512932 0.842939 0.560723
0.470573 0.812879 0.507576
0.433692 0.785138 0.462119
0.368963 0.731701 0.381186
0.69369 0.680232 0.212711
0.997223 0.674525 0.396719
0.997131 0.625055 0.443992
0.994553 0.620661 0.377493
0.998886 0.682307 0.550347
0.663661 0.929183 0.593484
0.663661 0.929183 0.593484
0.663661 0.929183 0.593484
0.663661 0.929183 0.593484
0.723644 0.938766 0.591012
0.985397 0.962203 0.260243
0.996384 0.829801 0.246098
0.994614 0.788083 0.225956
0.998474 0.775418 0.497414
0.663661 0.929183 0.593484
0.663661 0.929183 0.593484
0.663661 0.929183 0.593484
0.663661 0.929183 0.593484
0.670298 0.930282 0.593271
0.8365 0.958602 0.576959
0.997177 0.980423 0.373983
0.995346 0.952544 0.154513
0.998123 0.928237 0.317983
0.664088 0.929229 0.593484
0.66482 0.92932 0.593469
0.665751 0.929427 0.593454
0.668482 0.929732 0.593423
0.679103 0.931182 0.593225
0.741863 0.941985 0.590021
0.919768 0.973922 0.542107
0.996979 0.986648 0.425681
0.996277 0.988266 0.444892
0.719203 0.944549 0.722408
0.720241 0.944732 0.722408
0.721538 0.944945 0.722362
0.725383 0.945602 0.722255
0.737881 0.947707 0.722072
0.770535 0.952468 0.715053
0.863966 0.967788 0.680568
0.995346 0.989593 0.542702
0.995422 0.990723 0.560739
0.102724 0.00776684 0.67657
0.097673 0.00556954 0.674022
0.0756695 0.000274662 0.59086
0.568597 0.0545815 0.546242
0.869352 0.301152 0.695537
0.935103 0.365606 0.63093
0.942123 0.40351 0.646006
0.976181 0.498604 0.618906
0.997589 0.620279 0.575463
0.102739 0.0077821 0.676585
0.0718242 0.00062562 0.661418
0.115175 0.000259403 0.578607
0.587579 0.05832 0.548608
0.865675 0.30312 0.705516
0.920317 0.376165 0.664912
0.950607 0.430213 0.654414
0.97821 0.508705 0.618509
0.997925 0.624125 0.574319
0.180911 0.161715 0.760433
0.114595 0.0803693 0.69723
0.0562905 0.0144198 0.639979
0.44744 0.0831311 0.601907
0.866697 0.288304 0.676417
0.930205 0.423407 0.688579
0.959762 0.458854 0.663325
0.980362 0.520577 0.617212
0.998322 0.628672 0.572961
0.209369 0.574197 0.844327
0.0967117 0.411124 0.78349
0.000350958 0.31429 0.714702
0.270222 0.276005 0.680293
0.799878 0.338094 0.676371
0.946975 0.496101 0.723369
0.978759 0.521813 0.677211
0.986603 0.552178 0.614847
0.999359 0.641978 0.568734
0.468208 0.816236 0.806806
0.425513 0.789868 0.77583
0.385382 0.765087 0.749477
0.304417 0.711681 0.695552
0.692897 0.693263 0.692958
0.997848 0.670756 0.718379
0.997894 0.638788 0.667659
0.99826 0.631769 0.593729
0.998886 0.682002 0.550851
0.652094 0.936034 0.764614
0.652018 0.935897 0.761761
0.65301 0.935851 0.758938
0.652079 0.936172 0.751263
0.684733 0.939559 0.736904
0.940139 0.931472 0.544762
0.99855 0.817777 0.584939
0.998276 0.780835 0.515373
0.998474 0.775326 0.49778
0.660807 0.929778 0.617197
0.660853 0.92987 0.617624
0.660899 0.929976 0.618235
0.660899 0.93022 0.619806
0.665156 0.93106 0.624826
0.795407 0.952056 0.606241
0.995743 0.988434 0.484642
0.998398 0.96582 0.390326
0.998123 0.9281 0.318868
0.66746 0.929992 0.608942
0.668345 0.930129 0.608454
0.669444 0.930312 0.607782
0.672587 0.930846 0.605966
0.683619 0.932631 0.600809
0.735302 0.940734 0.591913
0.896559 0.969665 0.555962
0.997101 0.987854 0.435218
0.996262 0.988266 0.444923
0.710796 0.944762 0.755444
0.71194 0.944961 0.755413
0.713375 0.945205 0.755352
0.717525 0.945907 0.755184
0.730831 0.94818 0.75465
0.77026 0.954635 0.753307
0.859144 0.969162 0.718059
0.995209 0.989868 0.552224
0.995407 0.990738 0.560891
0.149447 0.040589 0.703029
0.149462 0.040589 0.703029
0.128206 0.0230869 0.691234
0.465431 0.178424 0.779812
0.841016 0.372839 0.825757
0.878874 0.385595 0.748623
0.897246 0.424811 0.749203
0.946731 0.52578 0.74992
0.996109 0.639109 0.7337
0.149447 0.040589 0.703029
0.149462 0.040589 0.703029
0.122103 0.0195468 0.687709
0.483665 0.186587 0.782986
0.841016 0.372839 0.825757
0.876829 0.403494 0.769711
0.903181 0.447974 0.759594
0.950011 0.535836 0.752712
0.996353 0.642176 0.733333
0.186328 0.125124 0.749035
0.18706 0.127825 0.750454
0.146456 0.0531472 0.707912
0.440665 0.167834 0.776776
0.832135 0.367285 0.824948
0.876204 0.430426 0.798489
0.910307 0.472938 0.767346
0.953841 0.547478 0.755901
0.996643 0.645869 0.732906
0.179934 0.471962 0.831647
0.169497 0.428855 0.827543
0.156161 0.351293 0.819226
0.316945 0.284047 0.807019
0.767285 0.396536 0.840146
0.88571 0.5028 0.850004
0.929931 0.534859 0.7897
0.966278 0.578424 0.76408
0.99736 0.656413 0.731838
0.326772 0.729625 0.859266
0.304448 0.715618 0.858076
0.290761 0.704601 0.857633
0.255833 0.669032 0.855406
0.645808 0.65153 0.92517
0.92813 0.674037 0.914076
0.969253 0.650843 0.815534
0.987564 0.652583 0.775937
0.99794 0.689281 0.727184
0.590417 0.893492 0.897536
0.587961 0.891264 0.895537
0.582879 0.887602 0.891539
0.576089 0.884123 0.883848
0.590555 0.888045 0.874571
0.883284 0.884077 0.883726
0.998505 0.811597 0.824643
0.998917 0.774624 0.767132
0.999405 0.768063 0.705806
0.651087 0.936614 0.802594
0.651057 0.936629 0.802182
0.650965 0.936522 0.80177
0.650721 0.936263 0.800671
0.650813 0.936355 0.79971
0.747036 0.95349 0.803632
0.990387 0.991699 0.73666
0.998352 0.937316 0.675853
0.999039 0.906249 0.617502
0.651987 0.936904 0.782849
0.65243 0.936934 0.782238
0.652964 0.936965 0.781476
0.65449 0.937087 0.779446
0.662028 0.937942 0.773297
0.719539 0.946593 0.765972
0.864271 0.970626 0.730983
0.995163 0.990204 0.562463
0.995071 0.989303 0.523781
0.680507 0.942 0.856245
0.681498 0.942245 0.856184
0.68275 0.942535 0.856107
0.686366 0.943374 0.855894
0.69807 0.94609 0.855192
0.736065 0.953613 0.852659
0.84651 0.973953 0.851957
0.99498 0.995651 0.734951
0.994446 0.991821 0.662501
0.167086 0.0513008 0.709224
0.167086 0.0513008 0.709224
0.167086 0.0513008 0.709224
0.156024 0.0430915 0.70489
0.785748 0.339101 0.819318
0.84567 0.387564 0.83064
0.859648 0.43508 0.843885
0.895125 0.520241 0.845411
0.946731 0.638453 0.843793
0.167086 0.0513008 0.709224
0.167086 0.0513008 0.709224
0.167086 0.0513008 0.709224
0.161028 0.0455024 0.706096
0.789883 0.341527 0.819852
0.845762 0.387884 0.830732
0.864149 0.450828 0.850065
0.898207 0.529549 0.847959
0.947951 0.641733 0.844358
0.167086 0.0513008 0.709224
0.167086 0.0513008 0.709224
0.167086 0.0513008 0.709224
0.184848 0.0566873 0.713832
0.791852 0.342596 0.820188
0.847349 0.393103 0.831769
0.869337 0.468879 0.855848
0.901518 0.540169 0.851118
0.949416 0.645716 0.845029
0.176257 0.245457 0.789944
0.175937 0.246632 0.790356
0.17554 0.248035 0.79086
0.188724 0.195056 0.773327
0.702007 0.326757 0.820142
0.858045 0.432715 0.845228
0.883131 0.518395 0.871077
0.909422 0.568444 0.859632
0.953567 0.65716 0.84715
0.314641 0.723079 0.859648
0.309545 0.718456 0.859052
0.205035 0.560159 0.842893
0.194369 0.525216 0.838193
0.517861 0.539757 0.890379
0.90518 0.598947 0.897322
0.914717 0.628138 0.90222
0.930175 0.638483 0.877119
0.964446 0.689921 0.854398
0.453086 0.80296 0.866941
0.449088 0.800244 0.866346
0.445701 0.798001 0.86537
0.43505 0.79202 0.864668
0.415076 0.772961 0.869398
0.794171 0.805264 0.97499
0.959579 0.7888 0.948867
0.972137 0.762921 0.899779
0.989364 0.76527 0.864088
0.645991 0.926863 0.921157
0.645823 0.926635 0.92134
0.645655 0.92639 0.921569
0.645655 0.92639 0.921599
0.6439 0.925521 0.921813
0.690517 0.940978 0.93434
0.958343 0.958389 0.958129
0.998428 0.912245 0.905745
0.998703 0.885924 0.859434
0.649393 0.929366 0.916762
0.649577 0.929503 0.916533
0.649668 0.92958 0.916182
0.649836 0.929778 0.915099
0.650462 0.930419 0.911574
0.669673 0.937209 0.902358
0.830579 0.973907 0.901106
0.99501 0.996735 0.799191
0.994827 0.994827 0.753841
0.655772 0.931151 0.925399
0.656062 0.931197 0.92546
0.656382 0.931243 0.925536
0.657496 0.931426 0.925795
0.660929 0.931975 0.926558
0.684794 0.939315 0.933318
0.789181 0.966857 0.954345
0.983825 0.99678 0.928542
0.995758 0.998688 0.840436
0.182147 0.478355 0.832685
0.182147 0.478355 0.832685
0.182147 0.478355 0.832685
0.182147 0.478355 0.832685
0.182208 0.478645 0.832715
0.794583 0.344915 0.820737
0.85127 0.407004 0.836789
0.867353 0.463966 0.854658
0.903548 0.594934 0.895949
0.182147 0.478355 0.832685
0.182147 0.478355 0.832685
0.182147 0.478355 0.832685
0.182147 0.478355 0.832685
0.182208 0.478645 0.832715
0.796536 0.346075 0.820951
0.85127 0.407019 0.836789
0.868894 0.470436 0.856458
0.904311 0.598108 0.896941
0.182147 0.478355 0.832685
0.182147 0.478355 0.832685
0.182147 0.478355 0.832685
0.182147 0.478355 0.832685
0.182208 0.478645 0.832715
0.798337 0.347158 0.821134
0.851926 0.409628 0.837583
0.871153 0.478996 0.859403
0.905272 0.601968 0.898131
0.182147 0.478355 0.832685
0.182422 0.4795 0.832822
0.182773 0.480934 0.83299
0.18381 0.485222 0.833494
0.187076 0.498665 0.835081
0.784543 0.341344 0.820722
0.859648 0.438407 0.846479
0.878386 0.50367 0.867597
0.908598 0.613764 0.901839
0.440009 0.795209 0.865156
0.44036 0.795422 0.865217
0.440726 0.795636 0.865263
0.441978 0.796399 0.865446
0.445731 0.798672 0.86598
0.685405 0.427253 0.855726
0.884978 0.524254 0.874388
0.897612 0.569802 0.888914
0.91812 0.647471 0.912383
0.647959 0.928695 0.91989
0.647959 0.928695 0.91989
0.647959 0.928695 0.91989
0.647959 0.928695 0.91989
0.51017 0.839551 0.87985
0.54229 0.651881 0.909178
0.937407 0.720211 0.933715
0.931655 0.698085 0.927245
0.939162 0.727413 0.936263
0.647959 0.928695 0.91989
0.647959 0.928695 0.91989
0.647959 0.928695 0.91989
0.647745 0.928389 0.920058
0.643214 0.925536 0.920455
0.633646 0.915343 0.919844
0.863966 0.886793 0.994232
0.976211 0.860182 0.975372
0.974731 0.854978 0.974105
0.646983 0.927077 0.922179
0.646983 0.927077 0.922225
0.646983 0.927062 0.922301
0.646983 0.927047 0.922377
0.646983 0.927047 0.922377
0.648478 0.928466 0.924147
0.768215 0.961212 0.954009
0.995773 0.998062 0.997528
0.99646 0.993515 0.974334
0.646326 0.92723 0.92343
0.646586 0.927352 0.923461
0.646937 0.92752 0.923522
0.647929 0.927993 0.923705
0.651041 0.929473 0.924239
0.667994 0.934783 0.928298
0.762585 0.959869 0.952728
0.954726 0.996567 0.992218
0.998047 0.998047 0.998047
0.647959 0.928695 0.91989
0.647959 0.928695 0.91989
0.647959 0.928695 0.91989
0.647959 0.928695 0.91989
0.647959 0.928695 0.91989
0.647959 0.928695 0.91989
0.647959 0.928695 0.91989
0.881117 0.511467 0.870314
0.889387 0.538506 0.879286
0.647959 0.928695 0.91989
0.647959 0.928695 0.91989
0.647959 0.928695 0.91989
0.647959 0.928695 0.91989
0.647959 0.928695 0.91989
0.647959 0.928695 0.91989
0.647959 0.928695 0.91989
0.881102 0.511406 0.870298
0.889891 0.540703 0.879942
0.647959 0.928695 0.91989
0.647959 0.928695 0.91989
0.647959 0.928695 0.91989
0.647959 0.928695 0.91989
0.647959 0.928695 0.91989
0.647959 0.928695 0.91989
0.647959 0.928695 0.91989
0.881071 0.511299 0.870268
0.890532 0.543435 0.880781
0.647959 0.928695 0.91989
0.647959 0.928695 0.91989
0.647959 0.928695 0.91989
0.647959 0.928695 0.91989
0.647959 0.928695 0.91989
0.647959 0.928695 0.91989
0.647959 0.928695 0.91989
0.884047 0.52192 0.873732
0.892409 0.551507 0.883238
0.647959 0.928695 0.91989
0.647959 0.928695 0.91989
0.647959 0.928695 0.91989
0.647959 0.928695 0.91989
0.647959 0.928695 0.91989
0.647959 0.928695 0.91989
0.647959 0.928695 0.91989
0.900435 0.581704 0.892729
0.898878 0.575525 0.890669
0.647959 0.928695 0.91989
0.647959 0.928695 0.91989
0.647959 0.928695 0.91989
0.647959 0.928695 0.91989
0.647959 0.928695 0.91989
0.647959 0.928695 0.91989
0.647959 0.928695 0.91989
0.934737 0.711788 0.930724
0.918807 0.650507 0.913512
0.647959 0.928695 0.91989
0.647959 0.928695 0.91989
0.647959 0.928695 0.91989
0.647959 0.928695 0.91989
0.647959 0.928695 0.91989
0.647959 0.928695 0.91989
0.647959 0.928695 0.91989
0.982605 0.894759 0.98497
0.958831 0.799008 0.956756
0.647959 0.928695 0.91989
0.647959 0.928695 0.91989
0.647959 0.928695 0.91989
0.647959 0.928695 0.91989
0.647959 0.928695 0.91989
0.647959 0.928695 0.91989
0.647959 0.928695 0.91989
0.904112 0.990372 0.983612
0.997192 0.986481 0.998795
0.647959 0.928695 0.91989
0.647959 0.928695 0.91989
0.647959 0.928695 0.91989
0.647959 0.928695 0.91989
0.647959 0.928695 0.91989
0.647959 0.928695 0.91989
0.646143 0.926818 0.922652
0.894545 0.988464 0.980896
0.998047 0.998047 0.998047
