Luts/Fujifilm/FLog2C_to_CLASSIC-Neg._VLog.cube
TITLE "Generated by Resolve"
LUT_3D_SIZE 5
0.000137331 0.000122072 6.10361e-05
0.101671 0.0087892 7.62951e-05
0.947707 0.217502 0.217929
0.952056 0.297673 0.273915
0.972488 0.640208 0.549065
0.00337224 0.116182 0.0296025
0.0533913 0.078706 0.00497444
0.930343 0.169909 0.0747997
0.952651 0.350515 0.267903
0.972732 0.649943 0.552499
0.0234226 0.739101 0.122683
0.0210422 0.670268 0.112276
0.715969 0.619913 0.0061799
0.960601 0.603159 0.30135
0.973404 0.708949 0.571237
0.0293126 0.944457 0.157107
0.0292973 0.944442 0.157092
0.0293431 0.944396 0.157168
0.942748 0.982742 0.0905776
0.979141 0.914046 0.574029
0.253941 0.952529 0.870527
0.262898 0.95314 0.869108
0.324224 0.957259 0.8598
0.793606 0.985168 0.753475
0.968795 0.993194 0.68574
0.0147097 0.00631724 0.0700236
0.118593 0.00737011 0.0255131
0.946059 0.199664 0.201068
0.952041 0.297215 0.273976
0.972488 0.640085 0.54902
0.00999466 0.154482 0.17261
0.078584 0.0906691 0.0758373
0.921798 0.171557 0.0894636
0.952621 0.350011 0.267994
0.972732 0.649973 0.552605
0.0296788 0.769131 0.274754
0.0260014 0.709651 0.225467
0.712276 0.6448 0.114199
0.960586 0.60293 0.301396
0.973404 0.708965 0.571328
0.0292973 0.944442 0.157092
0.0292973 0.944442 0.157092
0.0293889 0.944366 0.157214
0.942779 0.982681 0.0909285
0.979156 0.914046 0.574151
0.255436 0.952636 0.870268
0.264393 0.953231 0.868849
0.325719 0.957366 0.859556
0.794293 0.985214 0.753262
0.968795 0.993194 0.68574
0.205875 0.0948501 0.649439
0.172381 0.0501717 0.394858
0.951812 0.134051 0.413565
0.960586 0.3635 0.46923
0.972457 0.639704 0.549142
0.258137 0.304021 0.830839
0.186145 0.13872 0.541054
0.923568 0.174411 0.428153
0.965042 0.43856 0.518853
0.972702 0.64947 0.552682
0.0588693 0.824887 0.98613
0.055436 0.781674 0.929915
0.768231 0.721248 0.711849
0.975464 0.673014 0.63859
0.973404 0.708583 0.571481
0.052491 0.942519 0.73402
0.0525063 0.942382 0.734707
0.0531624 0.940948 0.741695
0.967163 0.983841 0.581231
0.979171 0.91397 0.574624
0.266972 0.953933 0.911604
0.276234 0.954528 0.910033
0.338857 0.958465 0.899351
0.801968 0.986206 0.795636
0.968826 0.993194 0.686076
0.686763 0.300984 0.920211
0.686763 0.300984 0.920211
0.931746 0.222354 0.847822
0.969512 0.334981 0.714076
0.981476 0.674144 0.782818
0.686763 0.300984 0.920211
0.686763 0.300984 0.920211
0.934264 0.223331 0.848035
0.972732 0.403174 0.747127
0.981811 0.684398 0.787167
0.302403 0.833967 0.999466
0.47747 0.750439 0.99971
0.846601 0.732525 0.972702
0.983185 0.660243 0.84387
0.984268 0.741009 0.810468
0.066804 0.941085 0.999802
0.0668803 0.94081 0.999771
0.119738 0.941115 0.999878
0.972168 0.963912 0.962051
0.990692 0.911452 0.886091
0.353063 0.959396 1
0.360479 0.959915 1
0.414374 0.963638 1
0.825833 0.988602 0.999176
0.989029 0.995804 0.930159
0.067277 0.942596 1
0.067277 0.942596 1
0.067277 0.942596 1
0.067277 0.942596 1
0.984939 0.627482 0.936156
0.067277 0.942596 1
0.067277 0.942596 1
0.067277 0.942596 1
0.067277 0.942596 1
0.985183 0.633585 0.937057
0.067277 0.942596 1
0.067277 0.942596 1
0.067277 0.942596 1
0.067277 0.942596 1
0.98761 0.673503 0.943038
0.067277 0.942596 1
0.067277 0.942596 1
0.067277 0.942596 1
0.067277 0.942596 1
0.993103 0.872694 0.977035
0.067277 0.942596 1
0.067277 0.942596 1
0.067277 0.942596 1
0.151858 0.947326 1
1 1 1
