Luts/Fujifilm/FLog2C_to_REALA-ACE_VLog.cube
TITLE "Generated by Resolve"
LUT_3D_SIZE 33
0.000198367 0.000106813 0
0.000198367 0.000106813 0
0.000198367 0.000106813 0
0.000198367 0.000106813 0
0.000198367 0.000106813 0
0.000198367 0.000106813 0
0.0110018 0.00140383 0.000366217
0.0452583 9.15541e-05 0.0021973
0.101808 1.5259e-05 0.00175479
0.234058 0.000534066 0.00604257
0.401083 0.000122072 0.0196536
0.545083 0.000122072 0.0354009
0.681895 0.000213626 0.0644846
0.811841 0.0379034 0.146914
0.899306 0.161944 0.283879
0.913863 0.200626 0.405661
0.926345 0.260655 0.441459
0.94052 0.324742 0.472969
0.940826 0.327153 0.473701
0.940826 0.327153 0.473701
0.940826 0.327153 0.473701
0.940826 0.327153 0.473701
0.940826 0.327153 0.473701
0.940826 0.327153 0.473701
0.944183 0.344152 0.462348
0.949981 0.368032 0.440543
0.956786 0.398001 0.434363
0.963729 0.430991 0.445624
0.97174 0.468025 0.459937
0.979355 0.505959 0.477058
0.987243 0.543481 0.500206
0.993072 0.581247 0.530098
0.99762 0.620737 0.57499
0.000198367 0.000106813 0
0.000198367 0.000106813 0
0.000198367 0.000106813 0
0.000198367 0.000106813 0
0.000198367 0.000106813 0
0.000198367 0.000106813 0
0.0152895 0.000518807 0.000137331
0.051194 3.0518e-05 0.00328069
0.112795 1.5259e-05 0.00234989
0.249714 0.000411994 0.00674449
0.411414 9.15541e-05 0.0204013
0.551812 0.000122072 0.0367132
0.687358 0.000167849 0.0664378
0.815137 0.0413825 0.150454
0.900267 0.163409 0.286809
0.914031 0.201221 0.406943
0.926513 0.261494 0.441855
0.940581 0.325032 0.473091
0.940826 0.327153 0.473701
0.940826 0.327153 0.473701
0.940826 0.327153 0.473701
0.940826 0.327153 0.473701
0.940826 0.327153 0.473701
0.941299 0.330098 0.471855
0.945449 0.34966 0.457008
0.951141 0.373449 0.43653
0.957961 0.40235 0.433158
0.964385 0.434379 0.444556
0.972442 0.470909 0.458915
0.979889 0.508339 0.476356
0.987533 0.545113 0.49958
0.993225 0.582513 0.529564
0.997711 0.621729 0.57467
0.000198367 0.000106813 0
0.000198367 0.000106813 0
0.000198367 0.000106813 0
0.000198367 0.000106813 0
0.000198367 0.000106813 0
0.000198367 0.000106813 0
0.0210727 4.57771e-05 9.15541e-05
0.0596017 1.5259e-05 0.00231937
0.125368 1.5259e-05 0.00297551
0.264607 0.00030518 0.00737011
0.421759 9.15541e-05 0.0211185
0.558526 0.000122072 0.037995
0.692241 0.000137331 0.0681621
0.818265 0.0447852 0.153857
0.901183 0.164828 0.289601
0.914183 0.201801 0.40824
0.92668 0.262287 0.442237
0.940642 0.325383 0.473259
0.940826 0.327153 0.473701
0.940826 0.327153 0.473701
0.940826 0.327153 0.473701
0.940826 0.327153 0.473701
0.940826 0.327153 0.473701
0.942092 0.335042 0.468727
0.94667 0.354803 0.452049
0.952239 0.378668 0.432654
0.959167 0.406912 0.431907
0.965057 0.437827 0.443503
0.973098 0.473777 0.457801
0.980407 0.510719 0.475547
0.987854 0.546944 0.498955
0.993378 0.583795 0.529137
0.997803 0.622705 0.574365
0.000198367 0.000106813 0
0.000198367 0.000106813 0
0.000198367 0.000106813 0
0.000198367 0.000106813 0
0.000198367 0.000106813 0
0.0040589 0.000717174 0.000183108
0.0292363 0.000137331 0.00030518
0.0679179 0 0.0011902
0.137438 1.5259e-05 0.00357061
0.279637 0.000198367 0.0080415
0.431495 7.62951e-05 0.0218051
0.565332 0.000137331 0.0393072
0.697261 0.000106813 0.0699474
0.821042 0.0478065 0.156863
0.902052 0.166155 0.292256
0.913588 0.199588 0.40676
0.922499 0.24329 0.43299
0.935073 0.299351 0.463111
0.940749 0.326863 0.473594
0.940826 0.327153 0.473701
0.940826 0.327153 0.473701
0.940826 0.327153 0.473701
0.941024 0.330083 0.471641
0.943832 0.342107 0.462654
0.947814 0.360815 0.446769
0.953414 0.383871 0.429343
0.960235 0.411749 0.430533
0.965957 0.441733 0.442023
0.973693 0.476677 0.456748
0.980926 0.513085 0.474647
0.988113 0.548455 0.498329
0.993545 0.585138 0.528572
0.997879 0.623606 0.574075
0.000198367 0.000106813 0
0.000198367 0.000106813 0
0.000198367 0.000106813 0
9.15541e-05 0.000122072 0
0 0.000411994 1.5259e-05
0.00839246 0.00207523 0.000396735
0.0349126 0.00015259 0.000457771
0.0722362 4.57771e-05 0.000228885
0.140383 1.5259e-05 0.00437934
0.277546 0.000244144 0.00962844
0.418952 0.000259403 0.0188144
0.54551 1.5259e-05 0.0377661
0.665309 4.57771e-05 0.058381
0.782986 0.00601205 0.118486
0.881056 0.133562 0.234409
0.908064 0.180713 0.350805
0.917189 0.216236 0.419577
0.927916 0.267857 0.446159
0.940246 0.322774 0.473426
0.940826 0.327153 0.473701
0.940826 0.327153 0.473701
0.940627 0.327962 0.474174
0.941817 0.334966 0.468269
0.945617 0.349111 0.456352
0.948882 0.366674 0.441718
0.95465 0.389258 0.426062
0.961288 0.416571 0.42916
0.966903 0.445853 0.440543
0.974334 0.479789 0.455543
0.981399 0.515236 0.473823
0.988449 0.550271 0.497627
0.993683 0.586313 0.528084
0.997971 0.624598 0.573846
6.10361e-05 0.0180209 3.0518e-05
6.10361e-05 0.0183871 3.0518e-05
7.62951e-05 0.0188602 3.0518e-05
7.62951e-05 0.0192569 3.0518e-05
9.15541e-05 0.0197147 3.0518e-05
0.00190738 0.0162661 9.15541e-05
0.0223239 0.0131991 7.62951e-05
0.0560616 0.00901808 0
0.107256 0.00183108 0.000106813
0.212284 0.000198367 0.00401312
0.350774 0.000228885 0.0163729
0.486976 7.62951e-05 0.0277714
0.60734 3.0518e-05 0.0465553
0.730434 0.000198367 0.0824445
0.838972 0.0717632 0.178668
0.90399 0.169467 0.297856
0.913436 0.198856 0.407324
0.923476 0.247959 0.433783
0.937621 0.30956 0.466758
0.940826 0.327153 0.473701
0.940887 0.327474 0.473548
0.941466 0.332494 0.472023
0.943343 0.342031 0.463325
0.947341 0.355734 0.450904
0.950011 0.372366 0.436805
0.955779 0.394186 0.423072
0.96231 0.42121 0.427878
0.967773 0.449653 0.43917
0.974914 0.482612 0.454536
0.981918 0.517617 0.472999
0.988724 0.551919 0.497078
0.993851 0.587579 0.52755
0.998047 0.625483 0.573571
7.62951e-05 0.0430915 0.000259403
7.62951e-05 0.0438544 0.000289921
7.62951e-05 0.0444343 0.00030518
7.62951e-05 0.0450294 0.000335698
7.62951e-05 0.0456703 0.000350958
0.000579843 0.036408 0.000228885
0.013489 0.0311894 0.000137331
0.0461128 0.027985 0.00015259
0.0988632 0.0260624 9.15541e-05
0.19736 0.0195926 0.000335698
0.320287 0.00701915 0.00250248
0.444816 1.5259e-05 0.0104372
0.5682 7.62951e-05 0.031754
0.690135 0.000244144 0.0624857
0.804257 0.020264 0.135576
0.898833 0.159854 0.260655
0.911101 0.188907 0.383459
0.920241 0.230961 0.425986
0.933547 0.291493 0.457771
0.941573 0.328267 0.473167
0.941833 0.332601 0.471229
0.943145 0.339788 0.467414
0.945083 0.349157 0.457191
0.948989 0.362066 0.445823
0.951705 0.378393 0.431632
0.956939 0.399145 0.420203
0.963317 0.425742 0.42652
0.968658 0.453559 0.437766
0.975509 0.485451 0.453513
0.982406 0.519829 0.472129
0.989013 0.553552 0.496452
0.994003 0.588846 0.527123
0.998138 0.626474 0.573266
7.62951e-05 0.0893721 0.000350958
9.15541e-05 0.0902419 0.000335698
9.15541e-05 0.091249 0.000320439
9.15541e-05 0.0921187 0.000320439
7.62951e-05 0.0902113 0.000167849
6.10361e-05 0.0662852 0.000488289
0.00102235 0.0585794 1.5259e-05
0.0385443 0.0561685 9.15541e-05
0.0933852 0.0556802 0.000198367
0.182025 0.0530098 0.00015259
0.295521 0.0436255 0.000137331
0.415717 0.0293736 0.00015259
0.537545 0.0133516 0.00933852
0.658305 0.000289921 0.0328374
0.773678 0.0113985 0.0885634
0.875029 0.133242 0.207706
0.909651 0.188479 0.333822
0.918791 0.226139 0.408988
0.931716 0.283101 0.436851
0.943587 0.339101 0.466773
0.943862 0.342214 0.462562
0.945418 0.348867 0.455558
0.947219 0.357488 0.449393
0.950469 0.36936 0.438895
0.953643 0.38529 0.425696
0.958465 0.405447 0.416953
0.964508 0.43125 0.424796
0.969696 0.458061 0.436072
0.976211 0.488853 0.452201
0.983017 0.522606 0.471153
0.98938 0.555566 0.495674
0.994202 0.590509 0.526452
0.99823 0.627649 0.572869
0 0.163012 6.10361e-05
0 0.163821 6.10361e-05
0 0.164584 6.10361e-05
0 0.16524 6.10361e-05
3.0518e-05 0.146502 0.000549325
0.000106813 0.117968 0.000411994
0.00030518 0.106859 0.00030518
0.0255283 0.101839 1.5259e-05
0.0843977 0.0979171 0.000518807
0.168414 0.0948501 0.000320439
0.270939 0.0869917 0.000244144
0.384207 0.075288 0.000122072
0.502571 0.0577707 0.000259403
0.623514 0.0420996 0.00622568
0.743938 0.0437629 0.0482948
0.847608 0.110674 0.139757
0.910521 0.198978 0.268772
0.920089 0.234775 0.375677
0.931792 0.285267 0.412802
0.944335 0.345464 0.448951
0.947188 0.35584 0.450996
0.948714 0.361761 0.445762
0.949172 0.36846 0.44007
0.95201 0.378393 0.429572
0.955932 0.394141 0.417563
0.960372 0.413367 0.412894
0.965866 0.437659 0.422339
0.971038 0.463874 0.433921
0.977142 0.49337 0.450523
0.98378 0.526146 0.469795
0.989868 0.558343 0.494697
0.994446 0.592554 0.525597
0.998367 0.629129 0.572396
0.000106813 0.239292 0.00030518
0.000122072 0.239918 0.00030518
0.000122072 0.240497 0.000320439
1.5259e-05 0.238682 0.000396735
1.5259e-05 0.208698 0.00030518
4.57771e-05 0.186206 0
0.000122072 0.169039 3.0518e-05
0.0065156 0.159304 0.000137331
0.0608682 0.151003 7.62951e-05
0.144183 0.148852 0
0.242863 0.138201 0.000427253
0.350729 0.126116 0.000381476
0.469032 0.112779 0.000198367
0.58996 0.0965133 1.5259e-05
0.708919 0.0952163 0.0111849
0.822889 0.115999 0.0753185
0.914656 0.219867 0.207309
0.923262 0.253407 0.331334
0.933257 0.294102 0.37792
0.945937 0.351522 0.417105
0.950454 0.372732 0.434897
0.952468 0.377783 0.433249
0.952804 0.383551 0.427008
0.955657 0.392981 0.419821
0.958602 0.405234 0.406973
0.962737 0.423667 0.408011
0.967666 0.446204 0.419089
0.972747 0.471275 0.430716
0.978393 0.499397 0.448173
0.984848 0.530983 0.46804
0.990448 0.561715 0.493385
0.994766 0.595209 0.524697
0.99855 0.631205 0.571832
0.0300755 0.325154 0.0136263
0.0305333 0.325689 0.0138552
0.0308537 0.32607 0.0139925
0.00733959 0.299779 0.000411994
7.62951e-05 0.272541 0.000366217
7.62951e-05 0.252461 4.57771e-05
0.000122072 0.238865 0.000320439
0 0.224552 1.5259e-05
0.026688 0.213062 0.000579843
0.105577 0.206073 4.57771e-05
0.20766 0.199924 0.000122072
0.314427 0.183963 4.57771e-05
0.428641 0.170123 7.62951e-05
0.555795 0.160876 0
0.679011 0.155734 3.0518e-05
0.791577 0.171908 0.0239261
0.894636 0.224247 0.128603
0.928542 0.278904 0.257237
0.937652 0.314549 0.335225
0.948302 0.360983 0.380606
0.956008 0.395422 0.415793
0.957259 0.398657 0.413336
0.958022 0.402411 0.410574
0.959472 0.410803 0.403418
0.962127 0.421103 0.396002
0.965652 0.436896 0.401938
0.970092 0.457435 0.41471
0.974899 0.480583 0.426886
0.979995 0.507134 0.445136
0.986099 0.537026 0.46511
0.991272 0.566384 0.491661
0.995209 0.598718 0.523247
0.998795 0.633967 0.570947
0.114214 0.430549 0.0774853
0.114412 0.430823 0.0776532
0.0913252 0.398474 0.0584726
0.0622721 0.360891 0.035584
0.0428473 0.337636 0.021622
0.0255894 0.319448 0.0101625
0.0149538 0.307958 0.00334173
0.00364691 0.294972 7.62951e-05
0.00328069 0.280568 0.000854505
0.064683 0.269429 0.000381476
0.161471 0.262669 0.000167849
0.273915 0.252934 1.5259e-05
0.38822 0.236637 0.000274662
0.509896 0.225528 0.000228885
0.640345 0.218555 1.5259e-05
0.761135 0.225513 0.00230411
0.870451 0.256596 0.0553902
0.935515 0.314611 0.178897
0.946258 0.350225 0.280324
0.953124 0.380514 0.333135
0.9617 0.420417 0.379934
0.962554 0.424781 0.386786
0.963867 0.427466 0.386908
0.964431 0.432074 0.384207
0.966293 0.441581 0.384619
0.968933 0.454704 0.393744
0.973266 0.47187 0.409033
0.977462 0.493065 0.421836
0.98204 0.51693 0.441169
0.987564 0.544457 0.460517
0.992081 0.572885 0.488838
0.995773 0.603479 0.521233
0.999115 0.637613 0.569863
0.196139 0.548653 0.147036
0.165789 0.503502 0.12105
0.136233 0.461662 0.0962539
0.116747 0.4336 0.0796826
0.0997787 0.40972 0.0658885
0.0870527 0.392737 0.0552529
0.0771191 0.379263 0.0469215
0.0673838 0.366842 0.0393835
0.0580911 0.353307 0.0307774
0.0674601 0.339223 0.0184176
0.122957 0.328008 0.00315862
0.222797 0.319554 0.000198367
0.3467 0.31075 3.0518e-05
0.469368 0.298222 0.000213626
0.597375 0.28864 0.000350958
0.724407 0.284932 0
0.839689 0.30367 0.013138
0.93872 0.357946 0.1075
0.954849 0.398276 0.209461
0.960433 0.417746 0.270832
0.967422 0.449348 0.328115
0.969665 0.457511 0.357076
0.969009 0.456809 0.35938
0.970382 0.460288 0.362173
0.971344 0.466346 0.371679
0.97322 0.476097 0.384466
0.976699 0.490379 0.399222
0.980606 0.509514 0.415351
0.984237 0.529793 0.434958
0.989502 0.554269 0.454643
0.992981 0.581308 0.484733
0.996475 0.610254 0.518532
0.999344 0.642481 0.568231
0.231357 0.598108 0.177234
0.203494 0.559182 0.153124
0.183673 0.530282 0.136599
0.168383 0.50837 0.123445
0.155688 0.490105 0.112673
0.145098 0.474372 0.103288
0.136934 0.462486 0.0963455
0.128511 0.450553 0.0895399
0.118791 0.436896 0.0813306
0.112917 0.423941 0.0732586
0.128557 0.408881 0.0563668
0.189517 0.395056 0.0196841
0.294438 0.38526 0.00015259
0.426368 0.378027 0.00047303
0.55404 0.364797 0.00015259
0.68249 0.355962 0.000167849
0.808133 0.362402 0.00122072
0.921386 0.403433 0.0524147
0.959838 0.448508 0.126421
0.966659 0.467063 0.197299
0.973175 0.485283 0.263996
0.97612 0.4963 0.320775
0.97644 0.493111 0.331228
0.976165 0.492988 0.34406
0.976638 0.496101 0.357031
0.978332 0.502922 0.371756
0.980987 0.513527 0.38706
0.984405 0.529107 0.404868
0.986801 0.546288 0.426642
0.991302 0.567224 0.448707
0.994202 0.592645 0.479454
0.99733 0.618708 0.514946
0.999252 0.649165 0.565606
0.271473 0.649485 0.212634
0.248997 0.623728 0.192142
0.23386 0.602304 0.179492
0.220554 0.583886 0.168093
0.210117 0.56939 0.158724
0.203006 0.558526 0.152972
0.196231 0.548577 0.147127
0.188571 0.537545 0.140291
0.180209 0.525704 0.133043
0.171496 0.512276 0.125689
0.169329 0.497185 0.114595
0.194339 0.482063 0.0941939
0.265202 0.469734 0.0485847
0.373281 0.457984 0.000488289
0.51075 0.450111 3.0518e-05
0.641962 0.439231 0.000213626
0.773007 0.441444 1.5259e-05
0.897169 0.465217 0.0170596
0.965606 0.506645 0.0750134
0.971176 0.52491 0.120348
0.976669 0.532998 0.189746
0.981567 0.539681 0.267338
0.98262 0.534249 0.300221
0.983154 0.531762 0.31696
0.983703 0.531792 0.333532
0.984649 0.535943 0.351919
0.985962 0.542275 0.370947
0.988266 0.552819 0.390982
0.990311 0.5673 0.413718
0.993271 0.583642 0.441901
0.995819 0.606668 0.472404
0.998474 0.629877 0.51043
0.999146 0.657847 0.562295
0.35201 0.715084 0.285695
0.327626 0.695964 0.263066
0.307469 0.6795 0.244816
0.29044 0.665599 0.22945
0.275898 0.653849 0.216312
0.266255 0.645029 0.207568
0.258106 0.636805 0.200153
0.251072 0.62681 0.193545
0.243626 0.615702 0.186877
0.235019 0.603662 0.179675
0.226505 0.590234 0.17116
0.230716 0.575158 0.158877
0.268788 0.56173 0.134783
0.347906 0.55021 0.0835584
0.459892 0.541161 0.00180056
0.601495 0.534585 0
0.738827 0.53518 0.000228885
0.868467 0.547936 1.5259e-05
0.966567 0.575448 0.0313573
0.975402 0.593698 0.0321202
0.979095 0.588678 0.0918288
0.984939 0.589014 0.188998
0.986023 0.579004 0.258045
0.987045 0.57409 0.279377
0.98706 0.570214 0.299641
0.988678 0.570642 0.324254
0.989685 0.574762 0.346075
0.991241 0.581827 0.371328
0.993072 0.592218 0.399023
0.99527 0.605859 0.429496
0.997787 0.624323 0.46334
0.998611 0.643687 0.504829
0.999008 0.668803 0.557839
0.453529 0.789136 0.38265
0.433951 0.775402 0.363668
0.420447 0.766064 0.350698
0.408087 0.757168 0.338933
0.396323 0.74789 0.327901
0.387015 0.740749 0.319219
0.376989 0.733593 0.309972
0.366201 0.725734 0.299809
0.352911 0.715419 0.286595
0.338186 0.704799 0.273152
0.322698 0.692668 0.259113
0.309316 0.678462 0.241398
0.313146 0.664729 0.216678
0.356832 0.654108 0.181796
0.445426 0.644968 0.124971
0.565332 0.637919 0.0302739
0.707713 0.638987 3.0518e-05
0.839429 0.639323 3.0518e-05
0.953826 0.646967 0.000350958
0.97995 0.669535 0
0.979873 0.660533 0.00553903
0.984436 0.651133 0.0833448
0.988586 0.631037 0.19501
0.989883 0.620752 0.230579
0.9906 0.614038 0.257053
0.991318 0.611124 0.284932
0.992584 0.611322 0.315847
0.994385 0.614496 0.34522
0.994522 0.620829 0.377157
0.996475 0.63093 0.415015
0.99855 0.645563 0.452262
0.998688 0.661158 0.497002
0.998886 0.682414 0.550179
0.559823 0.863279 0.486854
0.550317 0.856931 0.477699
0.540475 0.850568 0.468498
0.531472 0.844572 0.459922
0.523857 0.839048 0.452247
0.516442 0.833677 0.444755
0.509514 0.829053 0.437812
0.500969 0.823575 0.429297
0.490257 0.816327 0.418524
0.477913 0.807065 0.405859
0.464485 0.797391 0.393042
0.449714 0.786068 0.378408
0.437934 0.77322 0.357046
0.447639 0.762249 0.329137
0.490654 0.754742 0.280018
0.567895 0.746014 0.187396
0.677333 0.733806 0.0485084
0.80798 0.723491 0
0.925246 0.721218 1.5259e-05
0.981964 0.729198 6.10361e-05
0.982193 0.739986 0.000122072
0.983139 0.72462 0.00527962
0.986831 0.692119 0.102907
0.989502 0.673442 0.173739
0.990784 0.665263 0.209812
0.991821 0.658534 0.242512
0.99295 0.654139 0.27895
0.995224 0.654322 0.316579
0.99585 0.656901 0.354711
0.996857 0.662043 0.396353
0.998413 0.671534 0.438331
0.999023 0.68162 0.483894
0.998734 0.699504 0.541527
0.648966 0.920104 0.578347
0.643946 0.916915 0.573083
0.639536 0.914122 0.568475
0.634974 0.911238 0.563745
0.631403 0.90898 0.560037
0.627512 0.906523 0.556023
0.623743 0.904143 0.552117
0.619608 0.901732 0.548058
0.613077 0.897887 0.541588
0.605249 0.893126 0.533639
0.593606 0.885801 0.521462
0.581262 0.877928 0.508904
0.569299 0.868788 0.494972
0.559716 0.85507 0.468818
0.567956 0.838849 0.42797
0.611933 0.829007 0.365789
0.680873 0.820401 0.245853
0.777249 0.808042 0.0685588
0.893278 0.797925 0
0.978317 0.789014 0.000137331
0.985107 0.790661 0.000183108
0.985138 0.791516 0.000213626
0.985611 0.764523 0.0127718
0.987579 0.73138 0.10132
0.989654 0.71957 0.148699
0.990402 0.709316 0.188571
0.992737 0.703395 0.233845
0.993637 0.698116 0.276951
0.995819 0.696529 0.321645
0.996612 0.697398 0.368017
0.998215 0.702052 0.416602
0.999039 0.707286 0.470558
0.998596 0.720668 0.53341
0.663661 0.929183 0.593484
0.663661 0.929183 0.593484
0.663661 0.929183 0.593484
0.6636 0.929152 0.593439
0.663478 0.929076 0.593301
0.663386 0.929015 0.593194
0.663279 0.928954 0.593088
0.663157 0.928878 0.592966
0.662882 0.928725 0.592676
0.662562 0.928527 0.592325
0.662104 0.928267 0.591882
0.661692 0.928008 0.591501
0.660548 0.927153 0.590082
0.651637 0.918853 0.575433
0.646204 0.905211 0.54432
0.664164 0.892668 0.50222
0.71313 0.886244 0.44184
0.778439 0.880079 0.317067
0.857649 0.867491 0.0708324
0.959381 0.85452 0.00267033
0.98793 0.849485 0.000167849
0.98584 0.83415 0.00015259
0.986358 0.824918 0.000183108
0.986801 0.795422 0.0184176
0.988113 0.775464 0.0707408
0.990082 0.764797 0.123232
0.991836 0.755184 0.173541
0.993347 0.746517 0.225971
0.994629 0.740566 0.279591
0.996612 0.737972 0.335058
0.997955 0.737148 0.391714
0.998672 0.73872 0.448966
0.999268 0.746593 0.516655
0.663661 0.929183 0.593484
0.663661 0.929183 0.593484
0.663661 0.929183 0.593484
0.663661 0.929183 0.593484
0.663661 0.929183 0.593484
0.663661 0.929183 0.593484
0.663661 0.929183 0.593484
0.663661 0.929183 0.593484
0.663661 0.929183 0.593484
0.663661 0.929183 0.593484
0.663661 0.929183 0.593484
0.663661 0.929183 0.593484
0.663661 0.929183 0.593484
0.663783 0.929198 0.593484
0.674876 0.9308 0.59324
0.706874 0.936095 0.592584
0.748989 0.935653 0.569894
0.798245 0.93106 0.510414
0.859648 0.928206 0.404456
0.933486 0.920317 0.156252
0.987808 0.904143 0.00172427
0.988586 0.886732 0.000122072
0.987854 0.862333 0.000183108
0.98819 0.853178 0.000335698
0.987228 0.832273 0.00137331
0.987976 0.818524 0.0379339
0.989639 0.80708 0.0972305
0.992081 0.797162 0.161166
0.994598 0.788403 0.225483
0.996399 0.781369 0.288365
0.997528 0.776608 0.354116
0.998459 0.772412 0.421729
0.998474 0.77554 0.497063
0.663661 0.929183 0.593484
0.663661 0.929183 0.593484
0.663661 0.929183 0.593484
0.663661 0.929183 0.593484
0.663661 0.929183 0.593484
0.663661 0.929183 0.593484
0.663661 0.929183 0.593484
0.663661 0.929183 0.593484
0.663661 0.929183 0.593484
0.663661 0.929183 0.593484
0.663661 0.929183 0.593484
0.663661 0.929183 0.593484
0.663661 0.929183 0.593484
0.663661 0.929183 0.593484
0.666896 0.929808 0.593606
0.686305 0.932555 0.592844
0.731258 0.940002 0.590234
0.794263 0.950454 0.584131
0.86099 0.962173 0.564446
0.919326 0.963699 0.477638
0.976883 0.956115 0.238468
0.990112 0.934569 0.0521096
0.988098 0.908003 0
0.987884 0.883543 0.000244144
0.987488 0.875898 0.000244144
0.988113 0.871107 0.000137331
0.988724 0.860502 0.0169375
0.991211 0.848096 0.0766766
0.993362 0.837705 0.151431
0.995331 0.826322 0.22768
0.996658 0.818326 0.30457
0.998459 0.810666 0.383932
0.998779 0.808133 0.46981
0.663661 0.929183 0.593484
0.663661 0.929183 0.593484
0.663661 0.929183 0.593484
0.663661 0.929183 0.593484
0.663661 0.929183 0.593484
0.663661 0.929183 0.593484
0.663661 0.929183 0.593484
0.663661 0.929183 0.593484
0.663661 0.929183 0.593484
0.663661 0.929183 0.593484
0.663661 0.929183 0.593484
0.663661 0.929183 0.593484
0.663661 0.929183 0.593484
0.663661 0.929183 0.593484
0.663661 0.929183 0.593484
0.677302 0.931289 0.592966
0.709056 0.936294 0.592294
0.759716 0.944366 0.588464
0.822003 0.955703 0.579995
0.886687 0.967346 0.55967
0.948943 0.979339 0.520546
0.991852 0.97528 0.3505
0.995911 0.957305 0.190494
0.990585 0.928176 0.0372625
0.988113 0.902586 0.000167849
0.987732 0.899702 0.000366217
0.987488 0.901518 0
0.987945 0.89839 0.00462348
0.991302 0.886564 0.0577707
0.994278 0.874693 0.147921
0.996475 0.862669 0.242771
0.998581 0.851087 0.336141
0.998581 0.845029 0.433066
0.663661 0.929183 0.593484
0.663661 0.929183 0.593484
0.663661 0.929183 0.593484
0.663661 0.929183 0.593484
0.663661 0.929183 0.593484
0.663661 0.929183 0.593484
0.663661 0.929183 0.593484
0.663661 0.929183 0.593484
0.663661 0.929183 0.593484
0.663661 0.929183 0.593484
0.663661 0.929183 0.593484
0.663661 0.929183 0.593484
0.663661 0.929183 0.593484
0.663661 0.929183 0.593484
0.665904 0.929366 0.593393
0.670039 0.929717 0.593301
0.691997 0.933486 0.592554
0.730587 0.939971 0.591058
0.784665 0.949416 0.586648
0.847501 0.960372 0.574197
0.908125 0.97174 0.548562
0.966247 0.981842 0.49575
0.995407 0.98497 0.416922
0.997345 0.971572 0.297276
0.994217 0.945098 0.115511
0.988327 0.922545 4.57771e-05
0.987884 0.921828 0
0.989487 0.927459 0.0138399
0.990692 0.93077 0.0285039
0.991043 0.921675 0.0543679
0.994812 0.908949 0.154147
0.997772 0.895079 0.265431
0.998627 0.885725 0.383032
0.663661 0.929183 0.593484
0.663661 0.929183 0.593484
0.663661 0.929183 0.593484
0.663661 0.929183 0.593484
0.663661 0.929183 0.593484
0.663661 0.929183 0.593484
0.663661 0.929183 0.593484
0.663661 0.929183 0.593484
0.663661 0.929183 0.593484
0.663661 0.929183 0.593484
0.663661 0.929183 0.593484
0.663661 0.929183 0.593484
0.663661 0.929183 0.593484
0.663661 0.929183 0.593484
0.663661 0.929183 0.593484
0.669612 0.930114 0.593179
0.680186 0.931823 0.592645
0.7066 0.935805 0.59202
0.749203 0.942946 0.58912
0.804395 0.953109 0.583154
0.865568 0.964019 0.567514
0.924819 0.974731 0.53782
0.979004 0.98378 0.471061
0.996414 0.986007 0.423056
0.997559 0.979583 0.365332
0.996612 0.962646 0.22977
0.994278 0.950454 0.144961
0.994034 0.946029 0.112642
0.995346 0.952544 0.154574
0.997925 0.962264 0.217792
0.996948 0.957153 0.212665
0.997772 0.940887 0.22707
0.998123 0.928252 0.317739
0.663661 0.929183 0.593484
0.663661 0.929183 0.593484
0.663661 0.929183 0.593484
0.663661 0.929183 0.593484
0.663661 0.929183 0.593484
0.663661 0.929183 0.593484
0.663661 0.929183 0.593484
0.663661 0.929183 0.593484
0.663661 0.929183 0.593484
0.663661 0.929183 0.593484
0.663661 0.929183 0.593484
0.663661 0.929183 0.593484
0.663661 0.929183 0.593484
0.664103 0.929213 0.5935
0.66508 0.929274 0.593545
0.6663 0.929381 0.593591
0.675349 0.930938 0.593423
0.690105 0.933394 0.592981
0.720333 0.938186 0.59144
0.765545 0.946136 0.58732
0.8224 0.956054 0.580102
0.881025 0.966918 0.563073
0.939391 0.977676 0.524773
0.98674 0.985504 0.455146
0.996933 0.986648 0.425772
0.997055 0.982483 0.390585
0.997467 0.976776 0.33962
0.996918 0.972763 0.306859
0.997497 0.970184 0.285527
0.996887 0.97467 0.323308
0.997223 0.983368 0.396201
0.99707 0.980468 0.391409
0.997757 0.968124 0.392599
0.663661 0.929183 0.593484
0.663661 0.929183 0.593484
0.663661 0.929183 0.593484
0.663661 0.929183 0.593484
0.663661 0.929183 0.593484
0.663661 0.929183 0.593484
0.663661 0.929183 0.593484
0.663661 0.929183 0.593484
0.663661 0.929183 0.593484
0.663661 0.929183 0.593484
0.663661 0.929183 0.593484
0.663661 0.929183 0.593484
0.663661 0.929183 0.593484
