Luts/Fujifilm/FLog2C_to_PROVIA_VLog.cube
TITLE "Generated by Resolve"
LUT_3D_SIZE 5
0.00047303 0.000289921 6.10361e-05
0.151446 0.00872816 0.0116732
0.999603 0.173404 0.460548
0.999283 0.276814 0.463142
0.999908 0.582269 0.549706
0.00288396 0.146517 0
0.073991 0.0942397 7.62951e-05
0.999481 0.122225 0.281529
0.99968 0.338277 0.411185
0.999939 0.590814 0.54583
0.000335698 0.829282 0.00062562
0.000213626 0.758007 0.000640879
0.710704 0.650492 0.000411994
0.99968 0.580652 0.256672
0.999344 0.648524 0.523568
0 1 0.000289921
0 1 0.000289921
0 1 0.000289921
0.995865 0.966567 0.00842298
0.999405 0.902129 0.298848
0.0241245 0.999985 0.476661
0.0311437 0.999985 0.475776
0.0791791 0.999954 0.470573
0.641245 0.999588 0.373022
0.980941 0.999451 0.328557
0.00996414 0.00112917 0.121386
0.171069 0.000137331 0.0823377
0.999207 0.150942 0.455619
0.999268 0.276265 0.463554
0.999908 0.582162 0.549752
0 0.179034 0.183658
0.0900282 0.0920729 0.0895094
0.999619 0.119341 0.300587
0.999664 0.337713 0.411688
0.999939 0.590814 0.545953
0 0.853544 0.000534066
6.10361e-05 0.789136 9.15541e-05
0.691218 0.664332 0
0.99968 0.580453 0.256977
0.999344 0.648524 0.52369
0 1 0.000289921
0 1 0.000289921
0 1 0.000289921
0.995911 0.966445 0.00836194
0.999405 0.902113 0.299062
0.0252995 0.999985 0.476478
0.0323033 0.999985 0.475593
0.080354 0.999954 0.47039
0.642161 0.999588 0.372778
0.980941 0.999451 0.328557
0.13814 0.000228885 0.872984
0.170779 0.000244144 0.607141
1 0.00823987 0.7608
0.999649 0.315618 0.651347
0.999893 0.581765 0.550271
0.0898909 0.184848 0.999695
0.143145 0.0555886 0.734554
0.999664 0.0419318 0.738964
0.999939 0.38761 0.656733
0.999924 0.590326 0.546517
0.000534066 0.847684 0.856275
1.5259e-05 0.79144 0.790234
0.653071 0.653529 0.653239
0.999542 0.599924 0.641245
0.999344 0.648051 0.524163
4.57771e-05 0.999451 0.108263
3.0518e-05 0.999374 0.11136
7.62951e-05 0.999634 0.128679
0.99324 0.999146 0.152102
0.999405 0.901976 0.29984
0.0255283 0.99971 0.571237
0.0314641 0.999725 0.569909
0.0713207 0.999832 0.560937
0.643656 0.999832 0.458686
0.980941 0.999451 0.329213
0.429923 7.62951e-05 0.999863
0.429923 7.62951e-05 0.999863
0.935622 0.000228885 0.999725
0.999908 0.199344 0.99411
0.99942 0.565728 0.860395
0.429923 7.62951e-05 0.999863
0.429923 7.62951e-05 0.999863
0.942229 0.000244144 0.999786
0.999786 0.270359 0.996139
0.999329 0.575525 0.859998
9.15541e-05 0.792462 1
0.0404059 0.620829 0.999771
0.634302 0.534905 0.999588
0.999756 0.524147 0.98468
0.999542 0.633936 0.855482
0.0015259 0.987228 0.999847
0.00151064 0.986435 0.999847
0.00122072 0.981567 1
0.933455 0.936812 0.934218
0.999939 0.861631 0.832074
0.00314336 0.98967 0.999954
0.00308232 0.989593 0.999939
0.00260929 0.989136 0.999878
0.540887 0.999817 0.986053
0.987625 0.999725 0.824659
0.00213626 0.990723 1
0.00213626 0.990723 1
0.00213626 0.990723 1
0.00213626 0.990723 1
0.999939 0.386007 0.999786
0.00213626 0.990723 1
0.00213626 0.990723 1
0.00213626 0.990723 1
0.00213626 0.990723 1
0.999893 0.394034 0.99968
0.00213626 0.990723 1
0.00213626 0.990723 1
0.00213626 0.990723 1
0.00213626 0.990723 1
0.999573 0.445747 0.999435
0.00213626 0.990723 1
0.00213626 0.990723 1
0.00213626 0.990723 1
0.00213626 0.990723 1
1 0.759289 0.999802
0.00213626 0.990723 1
0.00213626 0.990723 1
0.00213626 0.990723 1
0.00262455 0.990478 1
1 1 1
