Luts/Fujifilm/FLog2C_to_ETERNA-BB_VLog.cube
TITLE "Generated by Resolve"
LUT_3D_SIZE 9
0.000289921 0.000198367 0.000106813
0.000289921 0.000198367 0.000106813
0.0860609 0.0164492 0.0175174
0.436042 0.070634 0.102235
0.709957 0.296483 0.313375
0.753506 0.376837 0.375051
0.765393 0.398291 0.383871
0.848661 0.555688 0.480949
0.934539 0.718715 0.640589
0.000289921 0.000198367 0.000106813
9.15541e-05 0.00062562 0.000183108
0.100633 0.0180362 0.0240177
0.422507 0.0672618 0.0978408
0.681117 0.240986 0.268421
0.753506 0.376837 0.375051
0.781491 0.428916 0.394491
0.855909 0.567742 0.486351
0.935119 0.722286 0.641718
0.0231632 0.106233 0.0372778
0.0212406 0.0995499 0.0305638
0.0777295 0.0855573 0.0320745
0.295018 0.0940261 0.0609445
0.639094 0.205722 0.218067
0.77377 0.415579 0.38941
0.798474 0.463066 0.406058
0.864622 0.580941 0.492531
0.935744 0.726513 0.642985
0.112306 0.446647 0.146105
0.0585184 0.293462 0.0711833
0.0912795 0.243702 0.0672007
0.234257 0.226734 0.0871748
0.620111 0.321218 0.206592
0.825284 0.524742 0.409705
0.838163 0.546227 0.43714
0.882139 0.620478 0.504479
0.938018 0.738643 0.646708
0.202289 0.67042 0.221378
0.189242 0.637415 0.208789
0.220478 0.617914 0.211093
0.329976 0.597177 0.232914
0.679316 0.655985 0.339757
0.90071 0.741756 0.413626
0.90367 0.699458 0.476509
0.915816 0.708522 0.526925
0.94786 0.771221 0.652522
0.277256 0.819898 0.280995
0.303746 0.823362 0.287098
0.33048 0.826535 0.29337
0.41883 0.841779 0.311269
0.686 0.891356 0.366827
0.916533 0.916564 0.409689
0.935546 0.863706 0.470909
0.939559 0.840253 0.528801
0.959503 0.842863 0.661631
0.38706 0.865522 0.309651
0.399054 0.868757 0.312306
0.414191 0.87277 0.315511
0.458976 0.884352 0.324712
0.598138 0.916426 0.351659
0.8365 0.959533 0.395087
0.941039 0.96289 0.418051
0.944778 0.939086 0.473198
0.955581 0.927108 0.645594
0.540032 0.903044 0.340368
0.543816 0.903944 0.341085
0.548424 0.905058 0.341955
0.561852 0.908309 0.344472
0.603693 0.918349 0.352285
0.71693 0.941497 0.374243
0.881697 0.964538 0.405554
0.93991 0.968933 0.418128
0.947982 0.971878 0.508659
0.753155 0.961471 0.796872
0.754498 0.961608 0.796979
0.756191 0.961776 0.797192
0.761028 0.962264 0.797711
0.776928 0.963882 0.799725
0.813306 0.9682 0.799298
0.891814 0.977218 0.785473
0.964843 0.982498 0.725307
0.967056 0.984314 0.744152
0.000350958 0.000320439 0.00047303
0.000274662 0.000213626 0.000137331
0.0977188 0.017792 0.0214237
0.445609 0.0721904 0.105592
0.711254 0.299016 0.315373
0.753506 0.376837 0.375051
0.765286 0.398062 0.38381
0.848615 0.555566 0.480949
0.934539 0.718715 0.640589
0.00030518 0.000259403 0.000289921
0.000289921 0.000198367 0.000106813
0.113649 0.0207828 0.0269474
0.433661 0.0687419 0.100725
0.682368 0.24361 0.270588
0.753506 0.376837 0.375051
0.781353 0.428672 0.394385
0.855802 0.567575 0.486336
0.935119 0.722286 0.641718
0.0230716 0.105776 0.0374762
0.0190127 0.0936294 0.0237736
0.0850385 0.0857404 0.032578
0.304555 0.0941329 0.0627909
0.641245 0.207416 0.219989
0.773526 0.415076 0.389242
0.798352 0.462791 0.405997
0.864607 0.580926 0.492546
0.935775 0.726513 0.643046
0.0970474 0.413062 0.125139
0.0559548 0.28098 0.0677958
0.0997177 0.240467 0.0684825
0.240482 0.226459 0.0869154
0.622766 0.322576 0.207828
0.825299 0.52462 0.409995
0.838163 0.546212 0.437156
0.882139 0.620508 0.504524
0.938018 0.738643 0.646708
0.200305 0.663615 0.219364
0.187289 0.633371 0.207187
0.227878 0.616556 0.212696
0.334524 0.596414 0.233814
0.682246 0.656611 0.340444
0.900694 0.741573 0.413779
0.90367 0.699443 0.476539
0.915816 0.708522 0.526925
0.94786 0.771221 0.652522
0.281544 0.820523 0.282002
0.307225 0.823697 0.287892
0.333852 0.827146 0.294133
0.422583 0.842268 0.311971
0.688289 0.891768 0.367254
0.916762 0.916503 0.40972
0.935561 0.863676 0.470939
0.939559 0.840253 0.528801
0.959503 0.842863 0.661707
0.388342 0.865888 0.309972
0.400992 0.869261 0.312718
0.416266 0.87332 0.315969
0.460929 0.884794 0.325078
0.599359 0.916686 0.351873
0.837034 0.959594 0.395209
0.941039 0.962844 0.418051
0.944762 0.93904 0.473243
0.955581 0.927108 0.645594
0.540764 0.903212 0.34052
0.544335 0.904067 0.341176
0.549065 0.905211 0.342077
0.562417 0.908446 0.344579
0.604288 0.918486 0.352392
0.71725 0.941558 0.374289
0.881788 0.964553 0.40557
0.93991 0.968933 0.418128
0.947997 0.971893 0.508736
0.753338 0.961486 0.796887
0.754681 0.961624 0.796994
0.756329 0.961791 0.797192
0.761395 0.96231 0.797772
0.777249 0.963912 0.799741
0.813428 0.968215 0.799405
0.891905 0.977234 0.785428
0.964843 0.982483 0.725231
0.967056 0.984314 0.744152
0.011017 0.00608835 0.058381
0.0108492 0.00610361 0.0580758
0.0895247 0.014435 0.0589151
0.413321 0.0660716 0.104402
0.698878 0.273777 0.296147
0.753506 0.376837 0.375051
0.765133 0.397742 0.383703
0.848569 0.555474 0.480903
0.934524 0.718624 0.640558
0.0109255 0.00610361 0.0582284
0.00909438 0.00384527 0.0519875
0.104173 0.017258 0.061265
0.406287 0.0648508 0.108095
0.674205 0.229252 0.258366
0.753506 0.376837 0.375051
0.781201 0.428397 0.394293
0.855787 0.567544 0.48629
0.935088 0.72221 0.641703
0.0416419 0.133074 0.128084
0.0294041 0.106264 0.0977188
0.0914321 0.0926986 0.0917372
0.296773 0.0985885 0.113069
0.632334 0.200839 0.226566
0.776974 0.419699 0.391119
0.798215 0.462501 0.405921
0.864546 0.580835 0.4925
0.935775 0.726513 0.643046
0.14464 0.478264 0.284153
0.0826886 0.329641 0.171298
0.115923 0.278202 0.149996
0.250233 0.250187 0.154345
0.626383 0.333974 0.26215
0.831006 0.531685 0.431525
0.837964 0.545846 0.437034
0.882078 0.620371 0.504479
0.938018 0.738643 0.646708
0.219837 0.698619 0.302541
0.209277 0.671168 0.28246
0.245014 0.654597 0.279088
0.348486 0.630671 0.286091
0.68365 0.673869 0.369314
0.909972 0.748714 0.448081
0.903609 0.699275 0.476524
0.91577 0.708385 0.526879
0.947875 0.771237 0.652583
0.276967 0.822263 0.280461
0.300587 0.825025 0.285893
0.32929 0.829236 0.292515
0.409583 0.843763 0.31043
0.675761 0.891783 0.36643
0.913405 0.917205 0.407599
0.935576 0.86363 0.471
0.939559 0.840299 0.528771
0.959503 0.842863 0.661707
0.387274 0.865507 0.310323
0.399786 0.868864 0.312779
0.414328 0.872786 0.315602
0.458228 0.884016 0.324163
0.598611 0.916625 0.351308
0.837476 0.95964 0.395315
0.941039 0.96286 0.418036
0.944762 0.93904 0.473243
0.955596 0.927123 0.645701
0.541253 0.903334 0.340597
0.54519 0.90428 0.341344
0.549615 0.905348 0.342168
0.563134 0.908629 0.344717
0.604822 0.918608 0.352483
0.717723 0.941649 0.37435
0.881895 0.964553 0.4056
0.93991 0.968933 0.418128
0.947997 0.971893 0.508736
0.753658 0.961532 0.796902
0.754986 0.961654 0.797086
0.756695 0.961837 0.797238
0.761532 0.96231 0.797757
0.777432 0.963928 0.799771
0.813672 0.968246 0.799374
0.891997 0.977234 0.785397
0.964843 0.982483 0.725231
0.967056 0.984314 0.744152
0.0475166 0.0187991 0.187579
0.039292 0.0129854 0.155077
0.094377 0.0176394 0.114153
0.390188 0.0487221 0.153658
0.693462 0.25275 0.317739
0.75964 0.38587 0.39884
0.785138 0.426444 0.433707
0.84831 0.554955 0.480766
0.934524 0.718547 0.640604
0.0474708 0.0188144 0.187396
0.0323491 0.0110781 0.131487
0.108934 0.0191806 0.114504
0.390433 0.0475471 0.156054
0.673274 0.207004 0.302129
0.776944 0.40502 0.442756
0.804089 0.460227 0.455451
0.855436 0.566979 0.486122
0.935103 0.722118 0.641749
0.104234 0.187182 0.358862
0.0677806 0.123583 0.236988
0.103822 0.0997024 0.17705
0.297322 0.108812 0.186511
0.632837 0.197711 0.294362
0.81178 0.469566 0.492973
0.822828 0.4963 0.477867
0.864286 0.580438 0.492363
0.935775 0.726436 0.643091
0.217182 0.551598 0.529244
0.137362 0.394339 0.376715
0.156573 0.327993 0.31429
0.283589 0.283711 0.283192
0.644053 0.354635 0.367102
0.858061 0.557702 0.534951
0.863645 0.574975 0.519127
0.882002 0.620157 0.504509
0.938018 0.738567 0.646754
0.257633 0.741283 0.538369
0.247822 0.716197 0.504845
0.286702 0.701244 0.488411
0.385946 0.679225 0.468696
0.703273 0.706691 0.510948
0.932586 0.761181 0.561746
0.924056 0.715724 0.561807
0.91577 0.708354 0.526955
0.94786 0.771145 0.652583
0.291646 0.842603 0.463157
0.312947 0.845533 0.462745
0.33817 0.848859 0.463203
0.410727 0.857557 0.464836
0.665003 0.899748 0.493217
0.910475 0.919112 0.519936
0.946746 0.869078 0.554086
0.939544 0.84004 0.528847
0.959503 0.842786 0.661799
0.394369 0.869078 0.326589
0.4047 0.871443 0.328191
0.417136 0.874281 0.329992
0.45362 0.883085 0.335439
0.572061 0.911574 0.35375
0.815595 0.958129 0.390356
0.942077 0.96376 0.421149
0.944793 0.93901 0.473381
0.955596 0.927123 0.645701
0.546853 0.905333 0.341161
0.550439 0.906111 0.341802
0.554849 0.907073 0.342596
0.568017 0.909941 0.344976
0.608179 0.918959 0.352514
0.716594 0.940887 0.374456
0.881971 0.964538 0.405615
0.93991 0.968933 0.418128
0.947997 0.971893 0.508843
0.754345 0.961593 0.796979
0.755688 0.96173 0.797162
0.757336 0.961898 0.797345
0.762219 0.962386 0.797894
0.778119 0.964004 0.799847
0.814023 0.968292 0.799313
0.89218 0.977249 0.785336
0.964828 0.982483 0.725155
0.967071 0.984329 0.744289
0.102998 0.0333715 0.435477
0.100572 0.0328222 0.421256
0.10811 0.0284581 0.288899
0.370565 0.0348669 0.276905
0.68777 0.203693 0.415702
0.788602 0.418128 0.497887
0.816892 0.470558 0.545251
0.883787 0.594858 0.600824
0.934524 0.718288 0.640665
0.103029 0.0333715 0.435538
0.0931106 0.029984 0.383459
0.121767 0.0293278 0.281376
0.38439 0.0349737 0.27808
0.674327 0.181765 0.411124
0.790677 0.412818 0.525734
0.837583 0.509468 0.575525
0.889937 0.60592 0.607263
0.935088 0.721874 0.64181
0.167987 0.193271 0.554604
0.132647 0.142443 0.487663
0.13341 0.102693 0.388266
0.327184 0.107805 0.3579
0.647044 0.200717 0.438697
0.825528 0.482322 0.584558
0.858198 0.54641 0.603449
0.897139 0.61857 0.61445
0.93576 0.726085 0.643137
0.308125 0.60557 0.697902
0.241154 0.459342 0.599176
0.215915 0.381048 0.543084
0.343832 0.328084 0.503655
0.672511 0.380789 0.555093
0.875914 0.572381 0.66186
0.899458 0.620508 0.654643
0.911238 0.652247 0.629648
0.937926 0.738247 0.646815
0.302388 0.772229 0.719661
0.29926 0.750576 0.701137
0.333898 0.738308 0.694881
0.431266 0.720562 0.687724
0.73312 0.733364 0.733043
0.953231 0.761242 0.753826
0.945907 0.738293 0.710216
0.93814 0.728557 0.657588
0.947829 0.770901 0.652781
0.322362 0.865034 0.708934
0.343099 0.867903 0.710689
0.363149 0.870054 0.712779
0.426368 0.877623 0.720363
0.660014 0.907881 0.756374
0.917601 0.922301 0.767269
0.962692 0.875486 0.736263
0.959792 0.847623 0.673899
0.959503 0.84271 0.661982
0.428397 0.897322 0.605966
0.437949 0.899565 0.607965
0.449928 0.902449 0.610605
0.484398 0.910414 0.617594
0.593668 0.93138 0.640757
0.810727 0.96289 0.656916
0.957671 0.970275 0.644923
0.955581 0.943496 0.631785
0.955642 0.927092 0.646052
0.606424 0.933196 0.615885
0.608988 0.933562 0.615091
0.612085 0.933989 0.613855
0.621088 0.935271 0.610651
0.649516 0.939422 0.600732
0.733654 0.951217 0.57406
0.879835 0.965698 0.51371
0.943679 0.97026 0.459663
0.947997 0.971893 0.509041
0.753124 0.963119 0.827588
0.754589 0.963302 0.827832
0.75642 0.963531 0.828153
0.761715 0.964187 0.829053
0.778744 0.966323 0.831952
0.822461 0.971862 0.835706
0.895109 0.978607 0.819944
0.966064 0.982986 0.734493
0.967086 0.984329 0.744442
0.186542 0.0376593 0.60528
0.186572 0.0376593 0.60531
0.149508 0.0367437 0.560876
0.357382 0.051133 0.512718
0.643671 0.0894331 0.526864
0.778119 0.363455 0.57319
0.818601 0.450019 0.622736
0.893538 0.607996 0.70547
0.949416 0.739803 0.754589
0.186542 0.0376593 0.60528
0.186542 0.037644 0.605295
0.141619 0.0357977 0.549172
0.37052 0.0521859 0.510979
0.645884 0.0912337 0.527947
0.792157 0.386633 0.607202
0.836255 0.487083 0.651591
0.899702 0.620554 0.713802
0.950301 0.742687 0.755703
0.225315 0.124804 0.622232
0.226093 0.128496 0.622644
0.157687 0.0515602 0.571679
0.349065 0.0611429 0.545464
0.651682 0.178485 0.58471
0.813657 0.421942 0.657206
0.857206 0.525307 0.680751
0.906722 0.634943 0.723201
0.951385 0.746151 0.757046
0.349508 0.526375 0.715251
0.324239 0.475761 0.696071
0.271244 0.385931 0.654826
0.38262 0.32549 0.638544
0.687144 0.364065 0.694926
0.870405 0.525689 0.762158
0.897429 0.607446 0.738857
0.921736 0.671153 0.744778
0.954437 0.755947 0.76083
0.369955 0.760372 0.78819
0.362844 0.743862 0.779919
0.363455 0.729931 0.770703
0.460594 0.719783 0.786664
0.738567 0.727916 0.848783
0.943236 0.738521 0.881819
0.947143 0.74583 0.816983
0.95079 0.750896 0.790951
0.962554 0.784298 0.772366
0.361089 0.863584 0.801724
0.372488 0.864866 0.803525
0.388495 0.865415 0.806332
0.447944 0.8719 0.819654
0.645136 0.897276 0.865827
0.911162 0.912032 0.911223
0.972229 0.880552 0.876356
0.968124 0.853452 0.831205
0.964813 0.846174 0.790921
0.422232 0.911742 0.784375
0.429236 0.9131 0.786053
0.439185 0.914961 0.788449
0.468177 0.920455 0.795453
0.565209 0.938079 0.817594
0.797406 0.968765 0.867277
0.969741 0.975921 0.871275
0.973556 0.948241 0.836027
0.968872 0.930068 0.793851
0.609751 0.945403 0.818982
0.613275 0.945815 0.819409
0.617456 0.946288 0.819852
0.629602 0.947662 0.821332
0.667781 0.952239 0.825788
0.767727 0.964813 0.839475
0.900252 0.9794 0.832288
0.967178 0.983337 0.743877
0.962264 0.980743 0.701335
0.740185 0.964431 0.897093
0.741619 0.96463 0.897307
0.743404 0.964889 0.897566
0.748562 0.965637 0.898314
0.765332 0.968032 0.900771
0.811917 0.973281 0.906432
0.902968 0.983825 0.919966
0.98262 0.99118 0.89279
0.976471 0.986862 0.835782
0.221759 0.0417639 0.611826
0.221759 0.0417639 0.611826
0.221759 0.0417639 0.611826
0.215518 0.0414435 0.610803
0.599588 0.0891585 0.639231
0.76141 0.283055 0.682597
0.810636 0.398138 0.697246
0.88896 0.56669 0.778149
0.942412 0.725399 0.832883
0.221759 0.0417639 0.611826
0.221759 0.0417639 0.611826
0.221759 0.0417639 0.611826
0.218769 0.0417487 0.611032
0.60209 0.0896315 0.639368
0.761822 0.284092 0.682658
0.827207 0.4327 0.722408
0.894881 0.579507 0.786404
0.943633 0.729274 0.834714
0.221759 0.0417639 0.611826
0.221759 0.0417639 0.611826
0.221759 0.0417639 0.611826
0.23714 0.0430915 0.613596
0.603586 0.0898909 0.640116
0.771847 0.299886 0.707332
0.844099 0.470542 0.745159
0.901457 0.593973 0.795285
0.945113 0.733959 0.836912
0.29929 0.268757 0.650126
0.299718 0.270298 0.650385
0.300237 0.272114 0.650675
0.27364 0.200809 0.637324
0.61886 0.251133 0.700633
0.823285 0.396674 0.787137
0.887556 0.553353 0.799939
0.916564 0.632563 0.816266
0.948745 0.747127 0.842832
0.407675 0.771817 0.802609
0.40824 0.768353 0.801404
0.395727 0.627787 0.754299
0.398016 0.592004 0.745266
0.663539 0.624994 0.829557
0.908858 0.653834 0.90985
0.941054 0.698878 0.874266
0.944213 0.717891 0.858076
0.956146 0.781231 0.856916
0.394751 0.826566 0.814404
0.397971 0.825132 0.815198
0.409445 0.824735 0.819013
0.457984 0.828992 0.832654
0.616327 0.848676 0.880156
0.878752 0.87187 0.949508
0.967834 0.859251 0.938766
0.964523 0.843915 0.904753
0.964462 0.849363 0.886412
0.436744 0.916152 0.850324
0.442725 0.917067 0.852399
0.449638 0.918181 0.854856
0.473457 0.921935 0.86154
0.55259 0.933944 0.884245
0.765652 0.955489 0.933822
0.962249 0.963836 0.961593
0.983032 0.943999 0.938933
0.980575 0.927657 0.912596
0.5888 0.946303 0.895262
0.591775 0.946731 0.89604
0.595514 0.94725 0.896681
0.606622 0.94876 0.898466
0.641505 0.953613 0.904265
0.74049 0.966522 0.922454
0.901183 0.985412 0.9458
0.989731 0.99472 0.935699
0.985306 0.991882 0.903471
0.717815 0.963775 0.930541
0.719265 0.963912 0.930877
0.720882 0.964065 0.931258
0.726314 0.964569 0.932509
0.74313 0.966155 0.936385
0.791867 0.97348 0.94728
0.888182 0.985183 0.970932
0.988418 0.996521 0.977142
0.990936 0.99617 0.95198
0.37966 0.547189 0.72842
0.37966 0.547189 0.72842
0.37966 0.547189 0.72842
0.37966 0.547189 0.72842
0.379736 0.547494 0.728527
0.627634 0.118868 0.66099
0.799817 0.348424 0.760494
0.85594 0.473228 0.806775
0.933577 0.660975 0.881453
0.37966 0.547189 0.72842
0.37966 0.547189 0.72842
0.37966 0.547189 0.72842
0.37966 0.547189 0.72842
0.379736 0.547494 0.728527
0.628977 0.119524 0.661402
0.799832 0.348455 0.760494
0.862287 0.485756 0.814221
0.934813 0.664927 0.883116
0.37966 0.547189 0.72842
0.37966 0.547189 0.72842
0.37966 0.547189 0.72842
0.37966 0.547189 0.72842
0.379736 0.547494 0.728527
0.630396 0.120562 0.661952
0.803159 0.355474 0.764157
0.869215 0.499962 0.822858
0.936187 0.669688 0.885054
0.37966 0.547189 0.72842
0.37995 0.548394 0.728832
0.380316 0.549905 0.729335
0.381415 0.554406 0.730877
0.384878 0.568521 0.735653
0.640116 0.164294 0.677241
0.836835 0.430472 0.804349
0.887633 0.53872 0.844648
0.939269 0.683772 0.890181
0.401465 0.8224 0.815778
0.401419 0.822568 0.815808
0.401389 0.822736 0.815854
0.401251 0.823316 0.815991
0.40087 0.825071 0.816373
0.693568 0.445762 0.783642
0.907774 0.577859 0.887785
0.925856 0.631373 0.891493
0.951278 0.721889 0.907225
0.345937 0.901289 0.825193
0.345937 0.901289 0.825193
0.345937 0.901289 0.825193
0.345937 0.901289 0.825193
0.391775 0.85243 0.822751
0.730739 0.759213 0.888258
0.958724 0.793103 0.958404
0.963455 0.782269 0.945876
0.963516 0.80473 0.933211
0.345937 0.901289 0.825193
0.345937 0.901289 0.825193
0.345937 0.901289 0.825193
0.356268 0.903731 0.827604
0.424216 0.914153 0.847181
0.681834 0.932448 0.915618
0.928588 0.932326 0.969696
0.980209 0.921523 0.977417
0.977432 0.910201 0.959686
0.515068 0.934371 0.875105
0.518303 0.934997 0.876036
0.522087 0.935714 0.87715
0.533669 0.937896 0.880491
0.570382 0.944549 0.89102
0.67895 0.958602 0.91986
0.87219 0.983124 0.967178
0.998932 0.999527 0.99884
0.99556 0.994232 0.987518
0.681147 0.958267 0.919768
0.682567 0.958495 0.920165
0.684535 0.958831 0.920699
0.690044 0.959747 0.922225
0.707485 0.962676 0.927062
0.758907 0.968734 0.940612
0.868894 0.982498 0.966735
0.984939 0.997009 0.993942
1 1 1
0.345937 0.901289 0.825193
0.345937 0.901289 0.825193
0.345937 0.901289 0.825193
0.345937 0.901289 0.825193
0.345937 0.901289 0.825193
0.345937 0.901289 0.825193
0.345937 0.901289 0.825193
0.902754 0.562249 0.886198
0.917739 0.598825 0.901473
0.345937 0.901289 0.825193
0.345937 0.901289 0.825193
0.345937 0.901289 0.825193
0.345937 0.901289 0.825193
0.345937 0.901289 0.825193
0.345937 0.901289 0.825193
0.345937 0.901289 0.825193
0.902724 0.562173 0.886168
0.918776 0.601724 0.902785
0.345937 0.901289 0.825193
0.345937 0.901289 0.825193
0.345937 0.901289 0.825193
0.345937 0.901289 0.825193
0.345937 0.901289 0.825193
0.345937 0.901289 0.825193
0.345937 0.901289 0.825193
0.902663 0.56202 0.886107
0.920073 0.60531 0.904402
0.345937 0.901289 0.825193
0.345937 0.901289 0.825193
0.345937 0.901289 0.825193
0.345937 0.901289 0.825193
0.345937 0.901289 0.825193
0.345937 0.901289 0.825193
0.345937 0.901289 0.825193
0.909346 0.577752 0.892744
0.923873 0.615946 0.909209
0.345937 0.901289 0.825193
0.345937 0.901289 0.825193
0.345937 0.901289 0.825193
0.345937 0.901289 0.825193
0.345937 0.901289 0.825193
0.345937 0.901289 0.825193
0.345937 0.901289 0.825193
0.938231 0.660151 0.924163
0.934844 0.647944 0.921157
0.345937 0.901289 0.825193
0.345937 0.901289 0.825193
0.345937 0.901289 0.825193
0.345937 0.901289 0.825193
0.345937 0.901289 0.825193
0.345937 0.901289 0.825193
0.345937 0.901289 0.825193
0.965713 0.806836 0.960418
0.958785 0.738079 0.948089
0.345937 0.901289 0.825193
0.345937 0.901289 0.825193
0.345937 0.901289 0.825193
0.345937 0.901289 0.825193
0.345937 0.901289 0.825193
0.345937 0.901289 0.825193
0.345937 0.901289 0.825193
0.980255 0.943999 0.982071
0.973327 0.881819 0.971069
0.345937 0.901289 0.825193
0.345937 0.901289 0.825193
0.345937 0.901289 0.825193
0.345937 0.901289 0.825193
0.345937 0.901289 0.825193
0.345937 0.901289 0.825193
0.345937 0.901289 0.825193
0.959991 0.994553 0.988205
0.996872 0.994736 0.997192
0.345937 0.901289 0.825193
0.345937 0.901289 0.825193
0.345937 0.901289 0.825193
0.345937 0.901289 0.825193
0.345937 0.901289 0.825193
0.345937 0.901289 0.825193
0.613428 0.950668 0.904372
0.953765 0.993774 0.987579
1 1 1
