Luts/Fujifilm/FLog2C_to_PRO-Neg.Std_VLog.cube
TITLE "Generated by Resolve"
LUT_3D_SIZE 9
0.000457771 0.000396735 9.15541e-05
0.000457771 0.000396735 9.15541e-05
0.105867 0.0175631 0.0285954
0.603113 0.0511482 0.168811
0.956466 0.183322 0.46157
0.966094 0.257221 0.484733
0.966674 0.272908 0.473518
0.977127 0.411597 0.462379
0.989166 0.575067 0.567742
0.000457771 0.000396735 9.15541e-05
0.000457771 0.000396735 9.15541e-05
0.134966 0.0184939 0.0395514
0.580423 0.0502785 0.161257
0.949798 0.12694 0.442634
0.966094 0.257221 0.484733
0.967987 0.301503 0.454475
0.977203 0.423911 0.459312
0.989258 0.579049 0.566644
0.0180667 0.135149 0.000366217
0.016846 0.126375 0.000457771
0.0798352 0.0941176 0.000732433
0.394598 0.104784 0.0624094
0.925643 0.142123 0.312352
0.968719 0.291142 0.460365
0.96936 0.332418 0.430884
0.977707 0.438605 0.455833
0.989364 0.583856 0.565209
0.0151064 0.544671 0.000106813
0.0208286 0.383322 0.00030518
0.0350347 0.317067 0.000274662
0.307942 0.298848 4.57771e-05
0.788266 0.329 0.0529335
0.969909 0.39324 0.348959
0.973129 0.408316 0.384268
0.979171 0.476921 0.440269
0.989685 0.597726 0.561135
0.00714122 0.785748 0.000579843
0.00889601 0.746777 0.000335698
0.0102235 0.71342 0.000717174
0.211749 0.672251 0.00047303
0.668513 0.6421 0.00015259
0.96965 0.626581 0.0771191
0.977035 0.569574 0.300542
0.982467 0.574624 0.398718
0.98996 0.640375 0.547112
0 0.999695 0.000274662
0 0.999588 0.000274662
0 0.999435 0.000274662
0.0185702 0.990707 0.000350958
0.509819 0.952102 0.000198367
0.926757 0.900587 6.10361e-05
0.972412 0.803876 0.0970932
0.979324 0.75378 0.283207
0.986343 0.740627 0.506981
0 1 0.000289921
0 1 0.000289921
0 1 0.000289921
0.0127565 0.999969 0.000289921
0.267857 0.999802 0.000518807
0.716808 0.999664 0.000183108
0.953506 0.99057 4.57771e-05
0.964874 0.963256 0.00540169
0.980255 0.899886 0.373785
0.139834 0.99971 0.000320439
0.148135 0.999725 0.000320439
0.158297 0.999741 0.000320439
0.187335 0.999786 0.000320439
0.275334 0.999817 0.000259403
0.485801 0.999832 0.00030518
0.806531 0.99971 7.62951e-05
0.9505 0.999695 0.000671397
0.958114 0.999908 0.0459297
0.471519 0.999344 0.510719
0.474083 0.999344 0.510674
0.477333 0.999359 0.510369
0.487053 0.999374 0.510079
0.517754 0.999435 0.508904
0.592035 0.999832 0.493309
0.76379 0.999634 0.453788
0.971435 0.999985 0.405707
0.972442 1 0.440833
0.000457771 0.000396735 9.15541e-05
0.000457771 0.000396735 9.15541e-05
0.125826 0.0194553 0.0352483
0.619898 0.0515602 0.173648
0.95671 0.185962 0.462547
0.966094 0.257221 0.484733
0.966659 0.27274 0.473655
0.977127 0.411475 0.462394
0.989166 0.575067 0.567742
0.000457771 0.000396735 9.15541e-05
0.000457771 0.000396735 9.15541e-05
0.156359 0.0204776 0.0455787
0.599207 0.0508583 0.166842
0.95021 0.129412 0.444129
0.966094 0.257221 0.484733
0.967971 0.30135 0.454566
0.977203 0.423789 0.459327
0.989258 0.579049 0.566644
0.0179751 0.134203 0.000366217
0.0156252 0.114137 3.0518e-05
0.0934005 0.0934462 0.00137331
0.40734 0.104479 0.0667735
0.928481 0.14136 0.317494
0.968643 0.290608 0.460838
0.969345 0.33225 0.431006
0.977691 0.438514 0.45594
0.989364 0.583856 0.565209
0.0142214 0.517998 0.000106813
0.0205539 0.368536 0.000122072
0.0419623 0.313085 0.000244144
0.317357 0.297963 6.10361e-05
0.79147 0.329046 0.0550698
0.969894 0.393317 0.34963
0.973114 0.408194 0.384375
0.979171 0.476829 0.440391
0.989685 0.597742 0.561227
0.00769055 0.778195 0.000259403
0.00946059 0.741665 0.000320439
0.0110475 0.709514 0.000671397
0.221851 0.670848 0.000534066
0.671931 0.64181 0.00015259
0.969665 0.626169 0.0776684
0.977005 0.569375 0.30071
0.982452 0.574472 0.398779
0.989975 0.640253 0.547158
0 0.999664 0.000274662
0 0.999557 0.000274662
0 0.999344 0.00030518
0.01944 0.990219 0.000320439
0.513436 0.951751 0.000213626
0.927382 0.900343 6.10361e-05
0.972412 0.803845 0.0972457
0.979339 0.753658 0.283452
0.986343 0.740627 0.506981
0 1 0.000289921
0 1 0.000289921
0 1 0.000289921
0.0158999 0.999954 0.000289921
0.271229 0.999802 0.000503548
0.717647 0.99968 0.000183108
0.953506 0.990539 4.57771e-05
0.964874 0.963256 0.00540169
0.980255 0.899886 0.373785
0.141207 0.99971 0.000320439
0.149523 0.999725 0.000320439
0.159213 0.999741 0.000320439
0.188266 0.999786 0.000320439
0.276188 0.999817 0.000259403
0.486534 0.999832 0.00030518
0.806729 0.99971 7.62951e-05
0.9505 0.999695 0.000671397
0.958114 0.999908 0.0459297
0.471839 0.999344 0.510689
0.474418 0.999344 0.510643
0.477668 0.999359 0.510338
0.487373 0.999374 0.510048
0.51809 0.999435 0.508873
0.592294 0.999832 0.493217
0.76379 0.999634 0.453788
0.971435 0.999985 0.405707
0.972442 1 0.440833
0.00820935 0.00257877 0.0889906
0.00805676 0.00250248 0.0883955
0.118059 0.011841 0.080766
0.5635 0.0479744 0.167239
0.954345 0.161715 0.454093
0.966094 0.257221 0.484733
0.966644 0.272435 0.473869
0.977127 0.411292 0.46244
0.989166 0.575067 0.567834
0.00813306 0.00254826 0.0886702
0.0059205 0.00109865 0.0791333
0.144335 0.0137484 0.0866102
0.556329 0.0452583 0.169375
0.946944 0.111086 0.437842
0.966094 0.257221 0.484733
0.967971 0.301045 0.45478
0.977203 0.423697 0.459419
0.989258 0.579049 0.566644
0.0311437 0.171038 0.167102
0.0257115 0.131746 0.121538
0.0979019 0.0991379 0.0975357
0.399237 0.103914 0.141878
0.903929 0.14345 0.328496
0.967834 0.295323 0.458183
0.969329 0.331975 0.431189
0.977691 0.438392 0.45594
0.989364 0.583764 0.565332
0.0258335 0.556222 0.179156
0.024506 0.415732 0.0874495
0.0305028 0.352209 0.0605783
0.319722 0.317433 0.0738994
0.782818 0.329229 0.174105
0.972671 0.395727 0.38883
0.973114 0.407965 0.384573
0.979187 0.476692 0.440421
0.989685 0.597742 0.561227
0.00791943 0.805707 0.000595102
0.00898756 0.773342 0.000137331
0.0109255 0.743694 0.000564584
0.196292 0.698314 0.000335698
0.66041 0.654108 0.000534066
0.973449 0.628092 0.158099
0.976989 0.569314 0.300786
0.982467 0.574472 0.398871
0.989975 0.640253 0.547158
0 0.999939 0.000289921
0 0.999817 0.000289921
0 0.999664 0.000289921
0.0010071 0.999603 0.000289921
0.490944 0.960296 0
0.921736 0.902358 0
0.972412 0.803754 0.0974289
0.979339 0.753613 0.283452
0.986358 0.740505 0.507057
0 1 0.000289921
0 1 0.000289921
0 1 0.000289921
0.0175479 0.999954 0.000289921
0.270497 0.999786 0.000442512
0.718502 0.99968 0.000183108
0.953536 0.990463 4.57771e-05
0.964874 0.963226 0.00540169
0.98027 0.899855 0.373953
0.142596 0.99971 0.000320439
0.150912 0.999725 0.000320439
0.160601 0.999741 0.000320439
0.190112 0.999786 0.000320439
0.27747 0.999802 0.000259403
0.487282 0.999832 0.00030518
0.806943 0.99971 7.62951e-05
0.9505 0.999695 0.000671397
0.958114 0.999908 0.0459297
0.472496 0.999344 0.510628
0.475059 0.999344 0.510582
0.478294 0.999359 0.510475
0.487694 0.999374 0.510018
0.51841 0.999435 0.508843
0.592538 0.999832 0.493141
0.764004 0.999634 0.453727
0.971435 0.999985 0.40557
0.972457 1 0.441093
0.0349889 0.0103304 0.312108
0.0299992 0.00544747 0.275883
0.121538 0.00741588 0.203159
0.534127 0.0168002 0.29662
0.95462 0.124819 0.528389
0.96817 0.260304 0.511315
0.970825 0.289906 0.520424
0.977142 0.410971 0.462638
0.989166 0.57496 0.567864
0.0349889 0.0103304 0.311986
0.0252537 0.00381476 0.237385
0.148394 0.00962844 0.206516
0.53994 0.0161135 0.304051
0.950149 0.0739147 0.547768
0.971069 0.271489 0.560372
0.973617 0.31957 0.519402
0.977188 0.423255 0.459571
0.989258 0.578958 0.566766
0.0440986 0.233356 0.514076
0.0383154 0.149172 0.360861
0.108324 0.104799 0.280293
0.41297 0.0972152 0.313481
0.890532 0.121782 0.484291
0.97644 0.32398 0.567208
0.975891 0.351186 0.516503
0.977676 0.438056 0.456107
0.989364 0.583673 0.565454
0.0369879 0.588769 0.568002
0.0356146 0.452644 0.422614
0.0363775 0.385962 0.356832
0.332753 0.333135 0.33254
0.779309 0.326513 0.397009
0.979828 0.404852 0.540017
0.979843 0.426612 0.501183
0.979202 0.476417 0.440635
0.989685 0.597635 0.561364
0.020676 0.812222 0.367056
0.0213474 0.781857 0.327932
0.0228122 0.75584 0.301274
0.179019 0.709621 0.270115
0.654994 0.657359 0.277546
0.984283 0.626688 0.405478
0.984207 0.577447 0.450919
0.982452 0.574166 0.399084
0.989975 0.640146 0.547311
9.15541e-05 0.999588 0.0230106
0.000106813 0.999435 0.0175021
1.5259e-05 0.99971 0.0104982
0.000167849 0.999344 0.00265507
0.446723 0.982193 0.00299077
0.908278 0.92491 0.102159
0.979507 0.797269 0.303517
0.979339 0.753567 0.283711
0.986358 0.740505 0.507164
0 1 0.000289921
0 1 0.000289921
0 1 0.000289921
0.00854505 0.999969 0.000289921
0.202197 0.999542 0.000183108
0.668132 0.999573 0.000564584
0.95581 0.997879 0
0.964874 0.96318 0.00544747
0.98027 0.899763 0.374075
0.148608 0.999725 0.000350958
0.156451 0.99971 0.000350958
0.165606 0.999695 0.000350958
0.19353 0.999634 0.000350958
0.276326 0.999527 0.00030518
0.482963 0.999802 0.000320439
0.807355 0.999695 6.10361e-05
0.9505 0.999695 0.000671397
0.958114 0.999908 0.0459754
0.473793 0.999344 0.510506
0.476371 0.999359 0.51046
0.479591 0.999359 0.510369
0.489326 0.999374 0.50988
0.519722 0.999435 0.508736
0.593561 0.999832 0.493034
0.764675 0.999619 0.453513
0.97145 0.999985 0.405676
0.972457 1 0.441093
0.0809033 0.0113832 0.678233
0.0791791 0.0110933 0.662898
0.121401 0.00640879 0.47158
0.515343 0.00155642 0.520317
0.955001 0.0309758 0.721401
0.975296 0.273274 0.628367
0.979156 0.314061 0.642023
0.985687 0.438041 0.607385
0.989166 0.574563 0.568185
0.0809033 0.0113832 0.678233
0.0700542 0.00979629 0.604761
0.151034 0.0052491 0.468894
0.535454 0.00077821 0.525658
0.953292 0.0107576 0.728344
0.977646 0.263493 0.673014
0.982666 0.347906 0.647883
0.986526 0.449393 0.606516
0.989258 0.578561 0.567086
0.0523232 0.228931 0.876081
0.0552682 0.16202 0.748913
0.124208 0.0993057 0.601053
0.444373 0.0715801 0.601053
0.884123 0.0893111 0.706661
0.983505 0.321202 0.690532
0.983734 0.38439 0.653681
0.987121 0.462562 0.604746
0.98938 0.583368 0.565835
0.0470893 0.613855 0.911879
0.0485542 0.479622 0.795132
0.0472725 0.411063 0.72343
0.352605 0.344625 0.67483
0.786648 0.31429 0.685756
0.988663 0.401526 0.717311
0.988632 0.459541 0.662074
0.988556 0.498329 0.601022
0.98967 0.597314 0.561669
0.0289311 0.817075 0.771603
0.0305486 0.787747 0.73959
0.0314641 0.76112 0.711696
0.163867 0.714611 0.672648
0.654292 0.654322 0.654108
0.99559 0.617884 0.691478
0.993652 0.592554 0.652049
0.990692 0.585702 0.582895
0.98999 0.639918 0.547601
0.0107424 0.987793 0.58027
0.0108797 0.98439 0.573205
0.0110475 0.980255 0.567712
0.0121614 0.966705 0.553246
0.400565 0.94583 0.53962
0.887419 0.893828 0.54081
0.988647 0.78761 0.587289
0.987259 0.747189 0.522103
0.986374 0.740291 0.507546
0.000595102 0.999756 0.24889
0.000610361 0.999756 0.248783
0.000610361 0.999756 0.249042
0.00720226 0.999741 0.249897
0.193164 0.999573 0.26099
0.61912 0.999756 0.24007
0.969635 0.997833 0.300633
0.976059 0.942611 0.319829
0.980301 0.899702 0.374594
0.216693 0.999649 0.200183
0.222461 0.999634 0.19765
0.229191 0.999619 0.194705
0.249348 0.999542 0.185489
0.311696 0.999451 0.157549
0.480354 0.999512 0.0826429
0.784253 0.999802 0.00514229
0.954879 0.999374 0.0239414
0.958129 0.999908 0.0460822
0.459876 0.999664 0.583047
0.462898 0.999649 0.582956
0.466682 0.999634 0.582834
0.477653 0.999588 0.582498
0.513222 0.99942 0.581216
0.601022 0.999603 0.574609
0.766049 0.999435 0.52285
0.971679 0.999878 0.420371
0.972457 1 0.441352
0.157366 0.0667582 0.918715
0.157595 0.0669108 0.919005
0.124559 0.0405432 0.861006
0.472145 0.000106813 0.891051
0.935912 0.000213626 0.957046
0.978897 0.205615 0.794202
0.984115 0.280186 0.780468
0.992294 0.437491 0.751019
0.997253 0.591577 0.717769
0.157397 0.0667887 0.918761
0.157656 0.0669413 0.919081
0.117082 0.0347448 0.847593
0.490227 3.0518e-05 0.892927
0.939727 0.000198367 0.95848
0.982071 0.221286 0.82269
0.986374 0.313619 0.787778
0.993133 0.450584 0.752651
0.997147 0.59527 0.717708
0.153765 0.183627 1
0.15314 0.187533 1
0.125795 0.0827497 0.918654
0.453925 0.0244602 0.953765
0.87277 0.0337377 0.976013
0.985748 0.25333 0.862745
0.990036 0.348852 0.794751
0.994156 0.465583 0.755001
0.997024 0.599725 0.717723
0.0530098 0.544823 0.999771
0.0555276 0.506157 0.999756
0.0566567 0.420539 0.999878
0.350286 0.334508 0.994156
0.78822 0.282475 0.983078
0.996185 0.342962 0.93431
0.994202 0.43357 0.804532
0.995666 0.507424 0.757015
0.996628 0.612497 0.717372
0.0368658 0.77644 0.999924
0.0387427 0.758846 0.999237
0.0401465 0.741543 0.98909
0.143008 0.70695 0.967773
0.648402 0.646555 0.965423
0.999084 0.584588 0.953506
0.999496 0.590936 0.813962
0.997711 0.602564 0.764126
0.994995 0.650355 0.71281
0.0198062 0.937469 0.881025
0.0219425 0.93254 0.876677
0.0222477 0.928725 0.872694
0.0217746 0.920195 0.861021
0.342412 0.901289 0.860029
0.853391 0.85449 0.85391
0.996094 0.781643 0.811368
0.9953 0.743557 0.754742
0.992981 0.737423 0.694942
0.00769055 0.999817 0.672816
0.00758373 0.999817 0.671824
0.00740063 0.999832 0.670375
0.00698863 0.999847 0.666407
0.0395514 0.99971 0.663096
0.547646 0.99971 0.674784
0.968154 0.980468 0.689311
0.986557 0.913207 0.670695
0.986419 0.881392 0.618875
0.134447 0.999786 0.633646
0.14287 0.999786 0.632883
0.152697 0.999786 0.631998
0.182666 0.999786 0.629282
0.271153 0.999725 0.62153
0.481529 0.999786 0.607095
0.77467 0.999756 0.556435
0.972381 0.999847 0.440406
0.969894 0.999969 0.375204
0.386114 0.999512 0.788968
0.389364 0.999512 0.788708
0.393439 0.999527 0.788373
0.405646 0.999527 0.787396
0.443503 0.999573 0.78436
0.545007 0.999664 0.774182
0.759472 0.999847 0.762554
0.981369 0.999451 0.699184
0.9776 0.999969 0.595605
0.191226 0.0844587 0.964889
0.191302 0.0846418 0.965133
0.191257 0.0845197 0.964965
0.179614 0.0807507 0.953277
0.802899 0.000244144 0.999817
0.984909 0.0957809 0.999329
0.989212 0.22002 0.962661
0.99855 0.38555 0.916945
0.999695 0.563943 0.85922
0.191287 0.0845808 0.965057
0.191302 0.0846418 0.965133
0.191257 0.0845197 0.964965
0.180789 0.0804456 0.954269
0.807614 0.000228885 0.999771
0.984985 0.097261 0.999344
0.991547 0.253223 0.967575
0.998978 0.399283 0.917433
0.99968 0.568429 0.859083
0.191287 0.0845808 0.965057
0.19118 0.0843366 0.964736
0.191302 0.0846418 0.965133
0.19852 0.0788891 0.964767
0.81059 0.000213626 0.999756
0.989013 0.11812 0.999588
0.994904 0.287251 0.972793
0.999405 0.414862 0.917906
0.999649 0.573861 0.858915
0.182254 0.329091 0.999802
0.182025 0.330068 0.999802
0.181521 0.332296 0.999817
0.174548 0.265324 0.999954
0.739025 0.222889 0.999725
0.999863 0.231083 0.999527
0.999756 0.370398 0.978515
0.999725 0.456046 0.918746
0.999664 0.589746 0.858534
0.0380713 0.773571 0.999344
0.038056 0.773739 0.999344
0.0483558 0.631403 0.999863
0.0693675 0.595544 0.999878
0.555779 0.571878 0.999542
0.980591 0.509178 0.999268
0.999588 0.529335 0.976196
0.99971 0.552789 0.918196
1 0.634134 0.857328
0.0305791 0.852369 0.985077
0.0309148 0.849195 0.986343
0.0307469 0.845945 0.987625
0.0313878 0.838117 0.989609
0.307012 0.824537 0.999939
0.790951 0.793423 0.999542
0.99942 0.738491 0.978698
0.99968 0.718853 0.904906
0.99794 0.730007 0.85478
0.0140078 0.998108 0.923232
0.0139467 0.997925 0.923674
0.0138705 0.997696 0.924208
0.0139925 0.996704 0.925185
0.0139467 0.993255 0.926146
0.451804 0.979309 0.940215
0.93312 0.935988 0.933242
0.99295 0.88896 0.890135
0.993072 0.861585 0.842557
0.0137026 0.999557 0.910109
0.014435 0.999557 0.909606
0.0200198 0.999588 0.908995
0.0364385 0.999649 0.90724
0.0950484 0.999786 0.902098
0.351949 0.999619 0.887785
0.741024 0.999786 0.855329
0.987686 0.99971 0.796536
0.983978 0.999802 0.726894
0.275944 0.999786 0.942367
0.279377 0.999771 0.94255
0.28368 0.999756 0.942763
0.296117 0.99971 0.943389
0.336461 0.999527 0.945418
0.450675 0.999802 0.952285
0.683467 0.999847 0.95816
0.976287 0.999588 0.921736
0.99025 0.999359 0.843366
0.0881514 0.554131 0.999786
0.0879683 0.554391 0.999786
0.0879683 0.554391 0.999786
0.0879683 0.554391 0.999786
0.0877852 0.554635 0.999786
0.847654 0.0534829 0.999832
0.997772 0.18146 0.999481
0.999649 0.294438 0.999115
0.999832 0.486809 0.999344
0.0881514 0.554131 0.999786
0.0879683 0.554391 0.999786
0.0879683 0.554391 0.999786
0.0879683 0.554391 0.999786
0.0877852 0.554635 0.999786
0.84976 0.0536202 0.999832
0.997757 0.181476 0.999481
0.999481 0.306386 0.998962
0.999832 0.491234 0.999374
0.0881514 0.554131 0.999786
0.0879683 0.554391 0.999786
0.0879683 0.554391 0.999786
0.0879683 0.554391 0.999786
0.0877852 0.554635 0.999786
0.852369 0.0537881 0.999847
0.998047 0.188846 0.999634
0.999527 0.321035 0.999039
0.999832 0.496559 0.999405
0.0879683 0.554391 0.999786
0.0874189 0.555138 0.999786
0.0865034 0.55639 0.999802
0.0837568 0.560159 0.999817
0.0749981 0.572213 0.999893
0.840696 0.103319 0.999527
0.999924 0.260044 0.999786
0.999695 0.360281 0.99939
0.999924 0.512291 0.999466
0.029633 0.843091 0.987625
0.0296178 0.843366 0.987579
0.0295872 0.843641 0.987518
0.0295415 0.84448 0.98735
0.0293431 0.847425 0.986755
0.721019 0.399603 0.99939
0.999863 0.405142 0.999649
0.999573 0.456168 0.999237
0.999725 0.557885 0.99942
0.0134737 0.999268 0.918547
0.0134737 0.999268 0.918547
0.0134737 0.999268 0.918547
0.0134737 0.999268 0.918547
0.0258183 0.897444 0.971069
0.584222 0.68893 0.999725
0.998703 0.660349 0.999466
0.999969 0.632059 0.999832
0.999374 0.661753 0.999878
0.0134737 0.999268 0.918547
0.0134737 0.999268 0.918547
0.0134737 0.999268 0.918547
0.0134737 0.999268 0.918547
0.0140688 0.998062 0.923842
0.289845 0.94818 0.973846
0.854978 0.871519 0.999176
0.999557 0.830945 0.999435
0.999237 0.818204 0.9953
0.0144503 0.99971 0.921828
0.0144503 0.99968 0.922133
0.0144503 0.999634 0.922499
0.0144503 0.999573 0.922988
0.0144503 0.999573 0.922988
0.176608 0.999695 0.935821
0.644205 0.99968 0.964187
0.997009 0.999863 0.998901
0.995224 0.984039 0.96698
0.186114 0.999954 0.937453
0.190219 0.999954 0.937728
0.194797 0.999939 0.938048
0.208957 0.999924 0.939025
0.253712 0.999847 0.942123
0.37586 0.999557 0.948013
0.637842 0.999481 0.964492
0.956313 0.998932 0.990631
1 1 1
0.0134737 0.999268 0.918547
0.0134737 0.999268 0.918547
0.0134737 0.999268 0.918547
0.0134737 0.999268 0.918547
0.0134737 0.999268 0.918547
0.0134737 0.999268 0.918547
0.0134737 0.999268 0.918547
0.999832 0.4 0.999146
0.999435 0.431281 0.998871
0.0134737 0.999268 0.918547
0.0134737 0.999268 0.918547
0.0134737 0.999268 0.918547
0.0134737 0.999268 0.918547
0.0134737 0.999268 0.918547
0.0134737 0.999268 0.918547
0.0134737 0.999268 0.918547
0.999832 0.399863 0.999146
0.999466 0.434379 0.998993
0.0134737 0.999268 0.918547
0.0134737 0.999268 0.918547
0.0134737 0.999268 0.918547
0.0134737 0.999268 0.918547
0.0134737 0.999268 0.918547
0.0134737 0.999268 0.918547
0.0134737 0.999268 0.918547
0.999832 0.399786 0.999146
0.999527 0.438346 0.999146
0.0134737 0.999268 0.918547
0.0134737 0.999268 0.918547
0.0134737 0.999268 0.918547
0.0134737 0.999268 0.918547
0.0134737 0.999268 0.918547
0.0134737 0.999268 0.918547
0.0134737 0.999268 0.918547
0.999832 0.415305 0.999008
0.999695 0.449668 0.999573
0.0134737 0.999268 0.918547
0.0134737 0.999268 0.918547
0.0134737 0.999268 0.918547
0.0134737 0.999268 0.918547
0.0134737 0.999268 0.918547
0.0134737 0.999268 0.918547
0.0134737 0.999268 0.918547
0.999786 0.495903 0.999588
0.999847 0.482185 1
0.0134737 0.999268 0.918547
0.0134737 0.999268 0.918547
0.0134737 0.999268 0.918547
0.0134737 0.999268 0.918547
0.0134737 0.999268 0.918547
0.0134737 0.999268 0.918547
0.0134737 0.999268 0.918547
0.999954 0.663447 0.999954
0.999954 0.58201 0.998901
0.0134737 0.999268 0.918547
0.0134737 0.999268 0.918547
0.0134737 0.999268 0.918547
0.0134737 0.999268 0.918547
0.0134737 0.999268 0.918547
0.0134737 0.999268 0.918547
0.0134737 0.999268 0.918547
0.988846 0.876844 0.999512
0.999466 0.766613 0.999695
0.0134737 0.999268 0.918547
0.0134737 0.999268 0.918547
0.0134737 0.999268 0.918547
0.0134737 0.999268 0.918547
0.0134737 0.999268 0.918547
0.0134737 0.999268 0.918547
0.0134737 0.999268 0.918547
0.888334 0.998642 0.982147
0.996155 0.983474 0.999496
0.0134737 0.999268 0.918547
0.0134737 0.999268 0.918547
0.0134737 0.999268 0.918547
0.0134737 0.999268 0.918547
0.0134737 0.999268 0.918547
0.0134737 0.999268 0.918547
0.0398566 0.999634 0.925551
0.871717 0.998062 0.981521
1 1 1
