Luts/Fujifilm/FLog2C_to_Velvia_VLog.cube
TITLE "Generated by Resolve"
#LUMIXPHOTOSTYLE VLOG
LUT_3D_SIZE 5
0 0 0
0.367926 0 0
0.999893 0.286793 0.492287
0.999756 0.291524 0.490379
0.999451 0.563592 0.120821
0 0.144076 0
0.0572824 0.0374609 0.000640879
0.999496 0.11043 0.338994
0.999069 0.349737 0.430533
0.99942 0.574105 0.0990311
0 0.857801 0.000732433
6.10361e-05 0.795316 7.62951e-05
0.761868 0.637613 4.57771e-05
0.999374 0.578149 0.0905928
0.999161 0.638102 0
0 1 0.000289921
0 1 0.000289921
0 1 0.000289921
0.999771 0.950607 0
0.999557 0.861936 0
0.316091 0.999435 3.0518e-05
0.33135 0.999405 1.5259e-05
0.400656 0.999435 0
0.826398 0.996017 0.000656138
0.998627 0.968948 0
0 0.000274662 0.0386206
0.286915 1.5259e-05 0.00766003
0.999893 0.281758 0.492226
0.999573 0.303853 0.476066
0.999435 0.563836 0.120333
1.5259e-05 0.188128 0.23064
0.037232 0.04477 0.049836
0.999496 0.0995804 0.305135
0.999619 0.36968 0.407416
0.99942 0.574197 0.0987869
0 0.907271 0.000411994
0.000137331 0.845899 0.000579843
0.677256 0.673594 0.00015259
0.999435 0.598932 0.13225
0.999161 0.638102 0
0 1 0.000289921
0 1 0.000289921
0 1 0.000289921
0.999344 0.96495 4.57771e-05
0.999557 0.861936 0
0.279591 0.999695 0.000610361
0.293965 0.999664 0.00062562
0.364141 0.999588 0.000503548
0.79266 0.99942 0.000366217
0.998627 0.968948 0
0.0416876 0.000213626 0.743694
0.363317 0.000106813 0.525505
0.999878 0.205707 0.684749
0.999847 0.333577 0.677119
0.999344 0.591272 0.444984
0.0798657 0.100923 0.999466
0.145159 1.5259e-05 0.888869
0.999725 0.000122072 0.8916
0.999786 0.4038 0.669825
0.999359 0.600381 0.438544
0.000442512 0.851148 0.904494
0.00015259 0.798535 0.822812
0.627024 0.64155 0.666072
0.999512 0.594553 0.628885
0.999695 0.654734 0.397559
0 0.999786 0.0368353
0 0.999939 0.0358282
0 0.999817 0.0408179
0.999084 0.999817 0.0501869
0.998947 0.960525 0.000595102
0.239734 0.999771 0.116304
0.251392 0.999771 0.113695
0.311376 0.999741 0.0979324
0.697047 0.999908 0.00611887
0.998627 0.968612 0.000228885
0.526757 0.000274662 0.999878
0.521126 0.000137331 0.999481
1 0 0.99971
0.999741 0.201938 0.999405
0.999802 0.552682 0.91078
0.520012 0.000167849 0.999741
0.516289 0.000183108 0.99942
0.999893 0 0.99971
0.99971 0.272175 0.999817
0.999863 0.561196 0.910323
0.0360876 0.552041 1
0.0626688 0.526284 0.999817
0.677119 0.447395 0.999329
0.999893 0.498161 0.999893
0.999832 0.614069 0.90486
0.000549325 0.982177 0.999893
0.000518807 0.981445 0.999832
0.000335698 0.978073 0.99968
0.937118 0.951965 0.97293
0.999817 0.877028 0.838224
0.090074 0.999496 0.999985
0.093904 0.99971 1
0.157504 0.99971 0.999542
0.583352 0.999634 0.977966
0.999222 0.999771 0.72372
0.000259403 0.917967 0.99939
0.000579843 0.794141 1
0.537285 0.325109 0.999573
0.999786 0.0105592 0.999786
0.999802 0.268101 0.999313
3.0518e-05 0.935073 0.999405
0.000137331 0.789914 0.999863
0.513756 0.372442 0.999664
0.999725 0.0315404 0.999832
0.999863 0.279423 0.999313
0.000289921 0.894286 0.999969
0.000320439 0.821424 0.999817
0.342779 0.595026 0.999512
0.999893 0.319493 0.999237
0.999985 0.348409 0.999786
0.000549325 0.986633 0.999664
0.000534066 0.986542 0.999634
0.000213626 0.983719 0.999649
0.78439 0.903502 0.999191
0.999741 0.699825 0.999832
0.00309758 0.989715 0.999863
0.00320439 0.989837 0.999878
0.0207828 0.992569 0.999908
0.435416 0.99968 0.999847
1 1 1
