Luts/Fujifilm/FLog2C_to_ACROS_VLog.cube
TITLE "Generated by Resolve"
LUT_3D_SIZE 9
0.000106813 0.000106813 0.000106813
0.000106813 0.000106813 0.000106813
0.0303349 0.0303349 0.0303349
0.205188 0.205188 0.205188
0.507088 0.507088 0.507088
0.558587 0.558587 0.558587
0.568887 0.568887 0.568887
0.646387 0.646387 0.646387
0.739681 0.739681 0.739681
0.000106813 0.000106813 0.000106813
0.000106813 0.000106813 0.000106813
0.0386816 0.0386816 0.0386816
0.19707 0.19707 0.19707
0.461234 0.461234 0.461234
0.558587 0.558587 0.558587
0.584848 0.584848 0.584848
0.65301 0.65301 0.65301
0.741939 0.741939 0.741939
0.0694591 0.0694591 0.0694591
0.064622 0.064622 0.064622
0.0631723 0.0631723 0.0631723
0.158618 0.158618 0.158618
0.39881 0.39881 0.39881
0.579385 0.579385 0.579385
0.601801 0.601801 0.601801
0.660807 0.660807 0.660807
0.744656 0.744656 0.744656
0.318334 0.318334 0.318334
0.222477 0.222477 0.222477
0.200549 0.200549 0.200549
0.247303 0.247303 0.247303
0.421546 0.421546 0.421546
0.623423 0.623423 0.623423
0.641032 0.641032 0.641032
0.681315 0.681315 0.681315
0.752392 0.752392 0.752392
0.46009 0.46009 0.46009
0.445167 0.445167 0.445167
0.44564 0.44564 0.44564
0.470222 0.470222 0.470222
0.553292 0.553292 0.553292
0.693721 0.693721 0.693721
0.718318 0.718318 0.718318
0.729183 0.729183 0.729183
0.773739 0.773739 0.773739
0.686488 0.686488 0.686488
0.69015 0.69015 0.69015
0.694652 0.694652 0.694652
0.707927 0.707927 0.707927
0.742138 0.742138 0.742138
0.812375 0.812375 0.812375
0.817426 0.817426 0.817426
0.809766 0.809766 0.809766
0.823026 0.823026 0.823026
0.766018 0.766018 0.766018
0.768322 0.768322 0.768322
0.77116 0.77116 0.77116
0.779034 0.779034 0.779034
0.801389 0.801389 0.801389
0.850584 0.850584 0.850584
0.896071 0.896071 0.896071
0.894026 0.894026 0.894026
0.896529 0.896529 0.896529
0.809491 0.809491 0.809491
0.81004 0.81004 0.81004
0.810727 0.810727 0.810727
0.812696 0.812696 0.812696
0.818753 0.818753 0.818753
0.836393 0.836393 0.836393
0.877073 0.877073 0.877073
0.906966 0.906966 0.906966
0.934844 0.934844 0.934844
0.890105 0.890105 0.890105
0.890379 0.890379 0.890379
0.89073 0.89073 0.89073
0.891783 0.891783 0.891783
0.895064 0.895064 0.895064
0.904891 0.904891 0.904891
0.931105 0.931105 0.931105
0.956573 0.956573 0.956573
0.958679 0.958679 0.958679
0.000106813 0.000106813 0.000106813
0.000106813 0.000106813 0.000106813
0.0364538 0.0364538 0.0364538
0.211246 0.211246 0.211246
0.509102 0.509102 0.509102
0.558587 0.558587 0.558587
0.56878 0.56878 0.56878
0.646326 0.646326 0.646326
0.739681 0.739681 0.739681
0.000106813 0.000106813 0.000106813
0.000106813 0.000106813 0.000106813
0.0460059 0.0460059 0.0460059
0.203647 0.203647 0.203647
0.463966 0.463966 0.463966
0.558587 0.558587 0.558587
0.584756 0.584756 0.584756
0.652934 0.652934 0.652934
0.741939 0.741939 0.741939
0.0689708 0.0689708 0.0689708
0.0577249 0.0577249 0.0577249
0.0655222 0.0655222 0.0655222
0.162554 0.162554 0.162554
0.401343 0.401343 0.401343
0.579095 0.579095 0.579095
0.601709 0.601709 0.601709
0.660761 0.660761 0.660761
0.744656 0.744656 0.744656
0.301732 0.301732 0.301732
0.214481 0.214481 0.214481
0.199924 0.199924 0.199924
0.249241 0.249241 0.249241
0.423148 0.423148 0.423148
0.623682 0.623682 0.623682
0.64097 0.64097 0.64097
0.68127 0.68127 0.68127
0.752392 0.752392 0.752392
0.455131 0.455131 0.455131
0.444419 0.444419 0.444419
0.445899 0.445899 0.445899
0.470985 0.470985 0.470985
0.554147 0.554147 0.554147
0.693767 0.693767 0.693767
0.718242 0.718242 0.718242
0.729107 0.729107 0.729107
0.773693 0.773693 0.773693
0.686992 0.686992 0.686992
0.690669 0.690669 0.690669
0.695201 0.695201 0.695201
0.708415 0.708415 0.708415
0.742443 0.742443 0.742443
0.812451 0.812451 0.812451
0.817411 0.817411 0.817411
0.80972 0.80972 0.80972
0.823026 0.823026 0.823026
0.766369 0.766369 0.766369
0.768658 0.768658 0.768658
0.77145 0.77145 0.77145
0.77937 0.77937 0.77937
0.801663 0.801663 0.801663
0.850721 0.850721 0.850721
0.896086 0.896086 0.896086
0.894026 0.894026 0.894026
0.896529 0.896529 0.896529
0.809583 0.809583 0.809583
0.810147 0.810147 0.810147
0.810803 0.810803 0.810803
0.812741 0.812741 0.812741
0.818814 0.818814 0.818814
0.836469 0.836469 0.836469
0.877119 0.877119 0.877119
0.906981 0.906981 0.906981
0.934844 0.934844 0.934844
0.890135 0.890135 0.890135
0.890425 0.890425 0.890425
0.890761 0.890761 0.890761
0.891814 0.891814 0.891814
0.895094 0.895094 0.895094
0.904921 0.904921 0.904921
0.931105 0.931105 0.931105
0.956573 0.956573 0.956573
0.958679 0.958679 0.958679
0.00860609 0.00860609 0.00860609
0.00852979 0.00852979 0.00852979
0.0322423 0.0322423 0.0322423
0.190646 0.190646 0.190646
0.490898 0.490898 0.490898
0.558587 0.558587 0.558587
0.568582 0.568582 0.568582
0.646235 0.646235 0.646235
0.739696 0.739696 0.739696
0.00857557 0.00857557 0.00857557
0.00691234 0.00691234 0.00691234
0.0408789 0.0408789 0.0408789
0.187778 0.187778 0.187778
0.447364 0.447364 0.447364
0.558587 0.558587 0.558587
0.584573 0.584573 0.584573
0.652888 0.652888 0.652888
0.741939 0.741939 0.741939
0.109514 0.109514 0.109514
0.0774548 0.0774548 0.0774548
0.0751812 0.0751812 0.0751812
0.163775 0.163775 0.163775
0.389563 0.389563 0.389563
0.581567 0.581567 0.581567
0.601556 0.601556 0.601556
0.660685 0.660685 0.660685
0.74461 0.74461 0.74461
0.365164 0.365164 0.365164
0.260609 0.260609 0.260609
0.233722 0.233722 0.233722
0.27248 0.27248 0.27248
0.429816 0.429816 0.429816
0.62591 0.62591 0.62591
0.640864 0.640864 0.640864
0.681208 0.681208 0.681208
0.752392 0.752392 0.752392
0.508354 0.508354 0.508354
0.491402 0.491402 0.491402
0.490898 0.490898 0.490898
0.506706 0.506706 0.506706
0.573877 0.573877 0.573877
0.701564 0.701564 0.701564
0.718212 0.718212 0.718212
0.729122 0.729122 0.729122
0.773693 0.773693 0.773693
0.709499 0.709499 0.709499
0.712047 0.712047 0.712047
0.715526 0.715526 0.715526
0.726726 0.726726 0.726726
0.756374 0.756374 0.756374
0.817533 0.817533 0.817533
0.817395 0.817395 0.817395
0.809689 0.809689 0.809689
0.82298 0.82298 0.82298
0.766583 0.766583 0.766583
0.768826 0.768826 0.768826
0.771511 0.771511 0.771511
0.779248 0.779248 0.779248
0.801755 0.801755 0.801755
0.850858 0.850858 0.850858
0.896071 0.896071 0.896071
0.894011 0.894011 0.894011
0.896544 0.896544 0.896544
0.809659 0.809659 0.809659
0.810224 0.810224 0.810224
0.81088 0.81088 0.81088
0.812863 0.812863 0.812863
0.818921 0.818921 0.818921
0.83653 0.83653 0.83653
0.87715 0.87715 0.87715
0.906981 0.906981 0.906981
0.934844 0.934844 0.934844
0.890211 0.890211 0.890211
0.890486 0.890486 0.890486
0.890837 0.890837 0.890837
0.891844 0.891844 0.891844
0.895125 0.895125 0.895125
0.904967 0.904967 0.904967
0.931151 0.931151 0.931151
0.956558 0.956558 0.956558
0.958694 0.958694 0.958694
0.0369421 0.0369421 0.0369421
0.0303197 0.0303197 0.0303197
0.0411841 0.0411841 0.0411841
0.17847 0.17847 0.17847
0.468071 0.468071 0.468071
0.560296 0.560296 0.560296
0.576516 0.576516 0.576516
0.646067 0.646067 0.646067
0.739635 0.739635 0.739635
0.0369268 0.0369268 0.0369268
0.0252079 0.0252079 0.0252079
0.0476234 0.0476234 0.0476234
0.180102 0.180102 0.180102
0.431128 0.431128 0.431128
0.563058 0.563058 0.563058
0.594781 0.594781 0.594781
0.652659 0.652659 0.652659
0.741894 0.741894 0.741894
0.185336 0.185336 0.185336
0.113329 0.113329 0.113329
0.0956283 0.0956283 0.0956283
0.17731 0.17731 0.17731
0.386984 0.386984 0.386984
0.594614 0.594614 0.594614
0.613428 0.613428 0.613428
0.660502 0.660502 0.660502
0.744549 0.744549 0.744549
0.434821 0.434821 0.434821
0.324987 0.324987 0.324987
0.287129 0.287129 0.287129
0.314916 0.314916 0.314916
0.452918 0.452918 0.452918
0.63505 0.63505 0.63505
0.655711 0.655711 0.655711
0.681086 0.681086 0.681086
0.752346 0.752346 0.752346
0.567971 0.567971 0.567971
0.548074 0.548074 0.548074
0.547097 0.547097 0.547097
0.561273 0.561273 0.561273
0.615976 0.615976 0.615976
0.727626 0.727626 0.727626
0.734783 0.734783 0.734783
0.728985 0.728985 0.728985
0.773648 0.773648 0.773648
0.749569 0.749569 0.749569
0.752956 0.752956 0.752956
0.756878 0.756878 0.756878
0.768933 0.768933 0.768933
0.797925 0.797925 0.797925
0.85005 0.85005 0.85005
0.835081 0.835081 0.835081
0.809689 0.809689 0.809689
0.82298 0.82298 0.82298
0.798901 0.798901 0.798901
0.800961 0.800961 0.800961
0.803388 0.803388 0.803388
0.810315 0.810315 0.810315
0.830655 0.830655 0.830655
0.876219 0.876219 0.876219
0.91313 0.91313 0.91313
0.893996 0.893996 0.893996
0.896498 0.896498 0.896498
0.823102 0.823102 0.823102
0.82356 0.82356 0.82356
0.824125 0.824125 0.824125
0.825772 0.825772 0.825772
0.830823 0.830823 0.830823
0.844648 0.844648 0.844648
0.877623 0.877623 0.877623
0.907012 0.907012 0.907012
0.934859 0.934859 0.934859
0.890349 0.890349 0.890349
0.890623 0.890623 0.890623
0.890974 0.890974 0.890974
0.892027 0.892027 0.892027
0.895262 0.895262 0.895262
0.905104 0.905104 0.905104
0.931243 0.931243 0.931243
0.956573 0.956573 0.956573
0.958694 0.958694 0.958694
0.0731212 0.0731212 0.0731212
0.0719768 0.0719768 0.0719768
0.0653239 0.0653239 0.0653239
0.17528 0.17528 0.17528
0.433082 0.433082 0.433082
0.564599 0.564599 0.564599
0.587854 0.587854 0.587854
0.660731 0.660731 0.660731
0.739406 0.739406 0.739406
0.0731212 0.0731212 0.0731212
0.0656138 0.0656138 0.0656138
0.0710002 0.0710002 0.0710002
0.180728 0.180728 0.180728
0.40824 0.40824 0.40824
0.567529 0.567529 0.567529
0.60676 0.60676 0.60676
0.667582 0.667582 0.667582
0.741665 0.741665 0.741665
0.225299 0.225299 0.225299
0.163378 0.163378 0.163378
0.122835 0.122835 0.122835
0.198856 0.198856 0.198856
0.388342 0.388342 0.388342
0.599817 0.599817 0.599817
0.62591 0.62591 0.62591
0.675761 0.675761 0.675761
0.744396 0.744396 0.744396
0.495125 0.495125 0.495125
0.391211 0.391211 0.391211
0.343694 0.343694 0.343694
0.366384 0.366384 0.366384
0.479362 0.479362 0.479362
0.641703 0.641703 0.641703
0.669871 0.669871 0.669871
0.696727 0.696727 0.696727
0.752194 0.752194 0.752194
0.617609 0.617609 0.617609
0.593286 0.593286 0.593286
0.590967 0.590967 0.590967
0.60592 0.60592 0.60592
0.654322 0.654322 0.654322
0.749157 0.749157 0.749157
0.751766 0.751766 0.751766
0.746044 0.746044 0.746044
0.773541 0.773541 0.773541
0.766842 0.766842 0.766842
0.770459 0.770459 0.770459
0.77525 0.77525 0.77525
0.787533 0.787533 0.787533
0.818357 0.818357 0.818357
0.86865 0.86865 0.86865
0.854459 0.854459 0.854459
0.827649 0.827649 0.827649
0.822889 0.822889 0.822889
0.822385 0.822385 0.822385
0.824338 0.824338 0.824338
0.826734 0.826734 0.826734
0.833539 0.833539 0.833539
0.853712 0.853712 0.853712
0.899275 0.899275 0.899275
0.943099 0.943099 0.943099
0.913161 0.913161 0.913161
0.896513 0.896513 0.896513
0.853056 0.853056 0.853056
0.85359 0.85359 0.85359
0.854231 0.854231 0.854231
0.856092 0.856092 0.856092
0.862013 0.862013 0.862013
0.878599 0.878599 0.878599
0.913985 0.913985 0.913985
0.927642 0.927642 0.927642
0.93489 0.93489 0.93489
0.893629 0.893629 0.893629
0.893904 0.893904 0.893904
0.89424 0.89424 0.89424
0.895247 0.895247 0.895247
0.898466 0.898466 0.898466
0.908186 0.908186 0.908186
0.933715 0.933715 0.933715
0.957519 0.957519 0.957519
0.958709 0.958709 0.958709
0.121477 0.121477 0.121477
0.121584 0.121584 0.121584
0.105119 0.105119 0.105119
0.19115 0.19115 0.19115
0.3617 0.3617 0.3617
0.555901 0.555901 0.555901
0.592981 0.592981 0.592981
0.669886 0.669886 0.669886
0.750042 0.750042 0.750042
0.121492 0.121492 0.121492
0.121614 0.121614 0.121614
0.100465 0.100465 0.100465
0.196353 0.196353 0.196353
0.364309 0.364309 0.364309
0.568231 0.568231 0.568231
0.611048 0.611048 0.611048
0.676982 0.676982 0.676982
0.75227 0.75227 0.75227
0.203235 0.203235 0.203235
0.206012 0.206012 0.206012
0.134615 0.134615 0.134615
0.206989 0.206989 0.206989
0.378393 0.378393 0.378393
0.58674 0.58674 0.58674
0.630335 0.630335 0.630335
0.685176 0.685176 0.685176
0.754971 0.754971 0.754971
0.48249 0.48249 0.48249
0.442771 0.442771 0.442771
0.381582 0.381582 0.381582
0.39147 0.39147 0.39147
0.491646 0.491646 0.491646
0.638315 0.638315 0.638315
0.674968 0.674968 0.674968
0.706752 0.706752 0.706752
0.762631 0.762631 0.762631
0.62359 0.62359 0.62359
0.607507 0.607507 0.607507
0.596933 0.596933 0.596933
0.621424 0.621424 0.621424
0.673961 0.673961 0.673961
0.755642 0.755642 0.755642
0.758221 0.758221 0.758221
0.757015 0.757015 0.757015
0.784497 0.784497 0.784497
0.754879 0.754879 0.754879
0.759289 0.759289 0.759289
0.763607 0.763607 0.763607
0.777523 0.777523 0.777523
0.811917 0.811917 0.811917
0.866621 0.866621 0.866621
0.863661 0.863661 0.863661
0.839521 0.839521 0.839521
0.833936 0.833936 0.833936
0.832746 0.832746 0.832746
0.834455 0.834455 0.834455
0.836622 0.836622 0.836622
0.842817 0.842817 0.842817
0.862211 0.862211 0.862211
0.907958 0.907958 0.907958
0.958846 0.958846 0.958846
0.929458 0.929458 0.929458
0.908537 0.908537 0.908537
0.868833 0.868833 0.868833
0.869413 0.869413 0.869413
0.8701 0.8701 0.8701
0.87219 0.87219 0.87219
0.878676 0.878676 0.878676
0.897063 0.897063 0.897063
0.936156 0.936156 0.936156
0.958495 0.958495 0.958495
0.954376 0.954376 0.954376
0.899321 0.899321 0.899321
0.899611 0.899611 0.899611
0.899962 0.899962 0.899962
0.90103 0.90103 0.90103
0.904341 0.904341 0.904341
0.914641 0.914641 0.914641
0.941909 0.941909 0.941909
0.975418 0.975418 0.975418
0.967956 0.967956 0.967956
0.142443 0.142443 0.142443
0.14258 0.14258 0.14258
0.142489 0.142489 0.142489
0.132418 0.132418 0.132418
0.323934 0.323934 0.323934
0.52195 0.52195 0.52195
0.583032 0.583032 0.583032
0.664927 0.664927 0.664927
0.751064 0.751064 0.751064
0.142535 0.142535 0.142535
0.14258 0.14258 0.14258
0.142489 0.142489 0.142489
0.132769 0.132769 0.132769
0.325658 0.325658 0.325658
0.522728 0.522728 0.522728
0.6009 0.6009 0.6009
0.671717 0.671717 0.671717
0.753231 0.753231 0.753231
0.142535 0.142535 0.142535
0.142351 0.142351 0.142351
0.14258 0.14258 0.14258
0.136568 0.136568 0.136568
0.327626 0.327626 0.327626
0.536706 0.536706 0.536706
0.620081 0.620081 0.620081
0.679561 0.679561 0.679561
0.755871 0.755871 0.755871
0.358724 0.358724 0.358724
0.359472 0.359472 0.359472
0.361166 0.361166 0.361166
0.295628 0.295628 0.295628
0.434516 0.434516 0.434516
0.60293 0.60293 0.60293
0.663111 0.663111 0.663111
0.700877 0.700877 0.700877
0.763638 0.763638 0.763638
0.641947 0.641947 0.641947
0.642054 0.642054 0.642054
0.553979 0.553979 0.553979
0.534524 0.534524 0.534524
0.616892 0.616892 0.616892
0.719097 0.719097 0.719097
0.744457 0.744457 0.744457
0.751827 0.751827 0.751827
0.786084 0.786084 0.786084
0.693874 0.693874 0.693874
0.692821 0.692821 0.692821
0.696269 0.696269 0.696269
0.710307 0.710307 0.710307
0.750484 0.750484 0.750484
0.823713 0.823713 0.823713
0.8542 0.8542 0.8542
0.835126 0.835126 0.835126
0.835676 0.835676 0.835676
0.824918 0.824918 0.824918
0.82649 0.82649 0.82649
0.828321 0.828321 0.828321
0.833951 0.833951 0.833951
0.850172 0.850172 0.850172
0.891051 0.891051 0.891051
0.948592 0.948592 0.948592
0.932845 0.932845 0.932845
0.913832 0.913832 0.913832
0.867796 0.867796 0.867796
0.868452 0.868452 0.868452
0.869352 0.869352 0.869352
0.871992 0.871992 0.871992
0.880003 0.880003 0.880003
0.901228 0.901228 0.901228
0.945983 0.945983 0.945983
0.98352 0.98352 0.98352
0.977829 0.977829 0.977829
0.893904 0.893904 0.893904
0.89424 0.89424 0.89424
0.894652 0.894652 0.894652
0.895872 0.895872 0.895872
0.899825 0.899825 0.899825
0.911528 0.911528 0.911528
0.942443 0.942443 0.942443
0.99295 0.99295 0.99295
0.98732 0.98732 0.98732
0.507179 0.507179 0.507179
0.507332 0.507332 0.507332
0.507332 0.507332 0.507332
0.507332 0.507332 0.507332
0.507485 0.507485 0.507485
0.387976 0.387976 0.387976
0.575326 0.575326 0.575326
0.633753 0.633753 0.633753
0.727352 0.727352 0.727352
0.507179 0.507179 0.507179
0.507332 0.507332 0.507332
0.507332 0.507332 0.507332
0.507332 0.507332 0.507332
0.507485 0.507485 0.507485
0.389029 0.389029 0.389029
0.575326 0.575326 0.575326
0.640009 0.640009 0.640009
0.729549 0.729549 0.729549
0.507179 0.507179 0.507179
0.507332 0.507332 0.507332
0.507332 0.507332 0.507332
0.507332 0.507332 0.507332
0.507485 0.507485 0.507485
0.390341 0.390341 0.390341
0.579141 0.579141 0.579141
0.647272 0.647272 0.647272
0.732235 0.732235 0.732235
0.507332 0.507332 0.507332
0.50779 0.50779 0.50779
0.508553 0.508553 0.508553
0.510842 0.510842 0.510842
0.518166 0.518166 0.518166
0.40972 0.40972 0.40972
0.616953 0.616953 0.616953
0.666575 0.666575 0.666575
0.740337 0.740337 0.740337
0.688518 0.688518 0.688518
0.688716 0.688716 0.688716
0.688914 0.688914 0.688914
0.689509 0.689509 0.689509
0.6916 0.6916 0.6916
0.551217 0.551217 0.551217
0.691218 0.691218 0.691218
0.714641 0.714641 0.714641
0.763119 0.763119 0.763119
0.797848 0.797848 0.797848
0.797848 0.797848 0.797848
0.797848 0.797848 0.797848
0.797848 0.797848 0.797848
0.726696 0.726696 0.726696
0.699992 0.699992 0.699992
0.800137 0.800137 0.800137
0.802625 0.802625 0.802625
0.814542 0.814542 0.814542
0.797848 0.797848 0.797848
0.797848 0.797848 0.797848
0.797848 0.797848 0.797848
0.80148 0.80148 0.80148
0.818204 0.818204 0.818204
0.84715 0.84715 0.84715
0.892576 0.892576 0.892576
0.911254 0.911254 0.911254
0.899855 0.899855 0.899855
0.850172 0.850172 0.850172
0.850843 0.850843 0.850843
0.851667 0.851667 0.851667
0.854276 0.854276 0.854276
0.862547 0.862547 0.862547
0.885512 0.885512 0.885512
0.935714 0.935714 0.935714
0.999512 0.999512 0.999512
0.992935 0.992935 0.992935
0.886397 0.886397 0.886397
0.886732 0.886732 0.886732
0.887114 0.887114 0.887114
0.888304 0.888304 0.888304
0.892042 0.892042 0.892042
0.903807 0.903807 0.903807
0.934234 0.934234 0.934234
0.992493 0.992493 0.992493
1 1 1
0.797848 0.797848 0.797848
0.797848 0.797848 0.797848
0.797848 0.797848 0.797848
0.797848 0.797848 0.797848
0.797848 0.797848 0.797848
0.797848 0.797848 0.797848
0.797848 0.797848 0.797848
0.676036 0.676036 0.676036
0.707042 0.707042 0.707042
0.797848 0.797848 0.797848
0.797848 0.797848 0.797848
0.797848 0.797848 0.797848
0.797848 0.797848 0.797848
0.797848 0.797848 0.797848
0.797848 0.797848 0.797848
0.797848 0.797848 0.797848
0.675959 0.675959 0.675959
0.708568 0.708568 0.708568
0.797848 0.797848 0.797848
0.797848 0.797848 0.797848
0.797848 0.797848 0.797848
0.797848 0.797848 0.797848
0.797848 0.797848 0.797848
0.797848 0.797848 0.797848
0.797848 0.797848 0.797848
0.675914 0.675914 0.675914
0.710521 0.710521 0.710521
0.797848 0.797848 0.797848
0.797848 0.797848 0.797848
0.797848 0.797848 0.797848
0.797848 0.797848 0.797848
0.797848 0.797848 0.797848
0.797848 0.797848 0.797848
0.797848 0.797848 0.797848
0.683818 0.683818 0.683818
0.716106 0.716106 0.716106
0.797848 0.797848 0.797848
0.797848 0.797848 0.797848
0.797848 0.797848 0.797848
0.797848 0.797848 0.797848
0.797848 0.797848 0.797848
0.797848 0.797848 0.797848
0.797848 0.797848 0.797848
0.726436 0.726436 0.726436
0.732921 0.732921 0.732921
0.797848 0.797848 0.797848
0.797848 0.797848 0.797848
0.797848 0.797848 0.797848
0.797848 0.797848 0.797848
0.797848 0.797848 0.797848
0.797848 0.797848 0.797848
0.797848 0.797848 0.797848
0.813809 0.813809 0.813809
0.778027 0.778027 0.778027
0.797848 0.797848 0.797848
0.797848 0.797848 0.797848
0.797848 0.797848 0.797848
0.797848 0.797848 0.797848
0.797848 0.797848 0.797848
0.797848 0.797848 0.797848
0.797848 0.797848 0.797848
0.930129 0.930129 0.930129
0.870619 0.870619 0.870619
0.797848 0.797848 0.797848
0.797848 0.797848 0.797848
0.797848 0.797848 0.797848
0.797848 0.797848 0.797848
0.797848 0.797848 0.797848
0.797848 0.797848 0.797848
0.797848 0.797848 0.797848
0.978775 0.978775 0.978775
0.994965 0.994965 0.994965
0.797848 0.797848 0.797848
0.797848 0.797848 0.797848
0.797848 0.797848 0.797848
0.797848 0.797848 0.797848
0.797848 0.797848 0.797848
0.797848 0.797848 0.797848
0.871946 0.871946 0.871946
0.975204 0.975204 0.975204
1 1 1
