Luts/Fujifilm/FLog2C_to_WDR_VLog.cube
TITLE "Generated by Resolve"
LUT_3D_SIZE 33
0 0 0
0 0 0
0 0 0
0 0 0
0 0 0
0 0 0
0.0099794 0.0011902 0.0011902
0.0547189 0.00654612 0.00654612
0.107042 0.0128023 0.0128023
0.157214 0.0188144 0.0188144
0.208713 0.0249638 0.0249638
0.26479 0.031693 0.0318151
0.32575 0.0387884 0.0390326
0.396872 0.0450904 0.0453193
0.4795 0.051194 0.051194
0.567468 0.056672 0.056672
0.650477 0.060914 0.0611429
0.728649 0.0641489 0.0641489
0.80177 0.0665599 0.0675822
0.841657 0.0676127 0.0695201
0.842008 0.0676585 0.0735485
0.842344 0.0677043 0.0775158
0.842924 0.0677806 0.0845045
0.843839 0.0679026 0.095552
0.845258 0.0680858 0.112749
0.847196 0.0683146 0.1364
0.850141 0.0686503 0.172869
0.894972 0.186816 0.220844
0.943328 0.332799 0.276371
0.983734 0.435599 0.33576
1 0.523583 0.419532
1 0.601205 0.514076
1 0.666911 0.610132
0 0 0
0 0 0
0 0 0
0 0 0
0 0 0
0 0 0
0.0180972 0.00216678 0.00216678
0.0627298 0.00750744 0.00750744
0.113298 0.01355 0.01355
0.161501 0.0193179 0.0193179
0.212512 0.0254215 0.0254215
0.267597 0.0320287 0.0321965
0.328176 0.0390326 0.0393072
0.398993 0.0452583 0.0454871
0.481315 0.0513161 0.0513161
0.568627 0.056733 0.056733
0.651408 0.0609598 0.0611887
0.729229 0.0641642 0.0641642
0.802182 0.0665599 0.0676127
0.84155 0.0675975 0.06804
0.841825 0.0676432 0.0713207
0.842161 0.067689 0.0753796
0.842756 0.0677653 0.0823987
0.843595 0.0678721 0.0926375
0.84509 0.0680552 0.110719
0.846952 0.0682841 0.133318
0.849989 0.0686351 0.171038
0.901381 0.206439 0.220447
0.945953 0.341039 0.275151
0.985245 0.440467 0.3346
1 0.526665 0.419257
1 0.603098 0.513954
1 0.668208 0.609964
0 0 0
0 0 0
0 0 0
0 0 0
0 0 0
0 0 0
0.0268254 0.00320439 0.00320439
0.0703746 0.00842298 0.00842298
0.119158 0.0142519 0.0142519
0.165576 0.0198062 0.0198062
0.216007 0.0258488 0.0258488
0.269871 0.0323033 0.032578
0.330602 0.039292 0.0395666
0.401114 0.0454261 0.045655
0.483146 0.0514382 0.0514382
0.56994 0.0568093 0.0568093
0.652323 0.0610056 0.0612345
0.729961 0.0641947 0.0641947
0.800748 0.0665293 0.0674449
0.84152 0.0675975 0.0675975
0.841627 0.0676127 0.0689403
0.842008 0.0676585 0.0734112
0.842527 0.0677348 0.0796979
0.843458 0.0678569 0.0908522
0.844846 0.0680247 0.107713
0.84686 0.0682841 0.132204
0.849851 0.0686198 0.169299
0.907668 0.225727 0.219806
0.948562 0.349279 0.273945
0.986481 0.444907 0.333394
1 0.529702 0.41883
1 0.605158 0.513695
1 0.66952 0.609812
0 0 0
0 0 0
0 0 0
0 0 0
0 0 0
0.000885023 0.000106813 0.000106813
0.0353094 0.00422675 0.00422675
0.0786297 0.00941482 0.00941482
0.124712 0.0149233 0.0149233
0.169741 0.0203098 0.0203098
0.219104 0.026215 0.026215
0.272679 0.032639 0.032929
0.333013 0.0395514 0.039826
0.403098 0.045594 0.0458076
0.484977 0.0515755 0.0515755
0.571633 0.0569009 0.0569467
0.652003 0.0609903 0.0611124
0.727825 0.0641184 0.0641184
0.79823 0.0664378 0.0667277
0.84155 0.0675975 0.0679332
0.84152 0.0675975 0.0675975
0.841856 0.0676432 0.0716411
0.842329 0.0677043 0.0773022
0.843153 0.0678111 0.0872053
0.844617 0.0679942 0.104967
0.846647 0.0682536 0.129732
0.852979 0.0775616 0.16733
0.912215 0.240909 0.218677
0.950942 0.355779 0.272282
0.987594 0.449241 0.331777
1 0.532738 0.418387
1 0.607065 0.513436
1 0.670802 0.609766
0 0 0
0 0 0
0 0 0
0 0 0
0 0 0
0.00827039 0.000991836 0.000991836
0.0455482 0.00544747 0.00544747
0.0888533 0.0106355 0.0106813
0.131121 0.0157015 0.0161288
0.174319 0.0208591 0.0209354
0.222431 0.0266423 0.0272068
0.274144 0.0328222 0.0333257
0.333532 0.0396429 0.0401465
0.403067 0.045594 0.0456092
0.483787 0.0514992 0.0514992
0.568887 0.0567483 0.0567483
0.649516 0.0608835 0.0608835
0.725063 0.0640269 0.0640269
0.795758 0.0663767 0.0663767
0.84152 0.0675975 0.0675975
0.84152 0.0675975 0.0675975
0.841657 0.0676127 0.0692912
0.84213 0.0676738 0.0749981
0.842969 0.0677958 0.0849622
0.844373 0.0679637 0.102037
0.846448 0.0682231 0.127321
0.860914 0.099321 0.166629
0.915572 0.253193 0.217273
0.953368 0.362493 0.270085
0.988663 0.453346 0.330755
1 0.535576 0.418143
1 0.608988 0.513176
1 0.671977 0.609628
0.005066 0.0240787 0.005066
0.00518807 0.0246433 0.00518807
0.00531014 0.0252079 0.00531014
0.00543221 0.0257572 0.00543221
0.00553903 0.0263218 0.00553903
0.00743114 0.0253605 0.00556954
0.0373388 0.0247196 0.00831617
0.080827 0.0252232 0.0126345
0.124483 0.0244602 0.0168917
0.168612 0.0234226 0.0211337
0.217136 0.0259861 0.0261845
0.269947 0.0323033 0.0324559
0.329458 0.0392615 0.0392615
0.39968 0.0453193 0.0453193
0.480964 0.0513008 0.0513008
0.565972 0.0565957 0.0565957
0.646906 0.0607614 0.0607614
0.722499 0.06392 0.06392
0.793194 0.0663005 0.0663005
0.84152 0.0675975 0.067628
0.84152 0.0675975 0.0675975
0.84155 0.0675975 0.0679484
0.841978 0.0676585 0.0730297
0.842725 0.0677653 0.082002
0.844221 0.0679484 0.100191
0.846235 0.0682078 0.12462
0.868559 0.120302 0.166003
0.918837 0.265171 0.215915
0.955734 0.368978 0.268254
0.989746 0.457465 0.329549
1 0.538598 0.417884
1 0.61088 0.513069
1 0.673274 0.609476
0.0111543 0.0529488 0.0111543
0.0112764 0.0535286 0.0112764
0.0113985 0.0541238 0.0113985
0.0115358 0.0547799 0.0115358
0.0116579 0.0553597 0.0116579
0.0113527 0.0538796 0.0113527
0.0283665 0.0525368 0.0127413
0.0722667 0.0531777 0.0171359
0.120363 0.0525521 0.0216831
0.16527 0.0496529 0.0254673
0.215122 0.0441291 0.0292363
0.265873 0.0365759 0.0327153
0.325567 0.0390173 0.0389563
0.396262 0.0450446 0.0450446
0.477882 0.0511025 0.0511025
0.563287 0.0564431 0.0564431
0.643915 0.0606241 0.0606241
0.719936 0.0638285 0.0638285
0.790784 0.0662242 0.0662242
0.84152 0.0675975 0.0675975
0.84152 0.0675975 0.0675975
0.84152 0.0675975 0.067628
0.841764 0.067628 0.0706188
0.842496 0.0677348 0.0793469
0.8439 0.0679179 0.0963455
0.846021 0.0681773 0.121996
0.876173 0.141314 0.164691
0.922087 0.27718 0.21413
0.958114 0.375448 0.26659
0.990799 0.461631 0.327993
1 0.541466 0.417472
1 0.612619 0.512978
1 0.674449 0.609323
0.0185397 0.0880446 0.0185397
0.0186465 0.0885023 0.0186465
0.0187381 0.0889601 0.0187381
0.0188296 0.0894331 0.0188296
0.0189975 0.0901961 0.0189975
0.0184482 0.087602 0.0184482
0.0223392 0.084947 0.0183261
0.061387 0.0855726 0.0222324
0.114244 0.0859693 0.0274205
0.163241 0.0845502 0.0319066
0.214832 0.078584 0.0357671
0.267247 0.0704356 0.0390478
0.325139 0.0560464 0.0414893
0.391546 0.0450904 0.0447395
0.473945 0.0508278 0.0508278
0.559823 0.0562448 0.0562448
0.640543 0.0604562 0.0604562
0.716793 0.0637064 0.0637064
0.787457 0.0661173 0.0661173
0.84152 0.0675975 0.0675975
0.84152 0.0675975 0.0675975
0.84152 0.0675975 0.0675975
0.841566 0.0675975 0.0681163
0.842191 0.067689 0.0756695
0.843687 0.0678874 0.0936141
0.847929 0.0736248 0.11902
0.885054 0.165713 0.16376
0.925994 0.291478 0.212451
0.960922 0.383185 0.264225
0.992111 0.466651 0.326482
1 0.545007 0.416953
1 0.614984 0.512673
1 0.67599 0.609262
0.0263371 0.125048 0.0263371
0.0264134 0.125414 0.0264134
0.0265049 0.125872 0.0265049
0.0265812 0.126238 0.0265812
0.026688 0.126741 0.026688
0.0260471 0.123705 0.0260471
0.0254673 0.120928 0.0254673
0.0471351 0.120378 0.0274662
0.102754 0.122774 0.0333104
0.158663 0.123384 0.0386969
0.214908 0.119753 0.0425727
0.271107 0.113146 0.0456092
0.331716 0.0998398 0.0478981
0.396765 0.0794537 0.0495003
0.470802 0.0560006 0.0512551
0.554833 0.0559701 0.0559701
0.635813 0.0602426 0.0602426
0.7122 0.0635386 0.0635386
0.783032 0.0659953 0.0659953
0.84152 0.0675975 0.0675975
0.84152 0.0675975 0.0675975
0.84152 0.0675975 0.0675975
0.84152 0.0675975 0.0675975
0.841856 0.0676432 0.0715953
0.84329 0.0678264 0.0888685
0.851011 0.0822003 0.114931
0.894316 0.195468 0.160143
0.930983 0.309636 0.209949
0.964584 0.39321 0.261479
0.993835 0.473304 0.324437
1 0.549722 0.416281
1 0.618067 0.512261
1 0.678096 0.608881
0.0351263 0.166796 0.0351263
0.0352026 0.167147 0.0352026
0.0352636 0.167407 0.0352636
0.0353552 0.167834 0.0353552
0.0351263 0.166751 0.0351263
0.034699 0.164767 0.034699
0.0342565 0.162661 0.0342565
0.0377661 0.160571 0.0342107
0.0820478 0.162402 0.0388342
0.147341 0.16585 0.0442206
0.209018 0.165499 0.0483406
0.270268 0.162509 0.0517586
0.336187 0.154192 0.0545663
0.405982 0.139101 0.0566567
0.481834 0.112139 0.0577554
0.556115 0.0776989 0.0581064
0.629755 0.0599527 0.0599527
0.706081 0.0632944 0.0632944
0.777447 0.0658122 0.0658122
0.840558 0.0675822 0.0675822
0.84152 0.0675975 0.0675975
0.84152 0.0675975 0.0675975
0.84152 0.0675975 0.0675975
0.841703 0.067628 0.0698558
0.842817 0.0677653 0.0833143
0.860746 0.109682 0.110414
0.905943 0.233295 0.155688
0.937194 0.328771 0.205035
0.969177 0.406302 0.257404
0.996124 0.482094 0.321859
1 0.555932 0.415717
1 0.622171 0.511864
1 0.680827 0.608545
0.0431373 0.211231 0.0431373
0.0431983 0.211597 0.0431983
0.0432441 0.211872 0.0432441
0.0433051 0.212314 0.0433051
0.0430457 0.21059 0.0430457
0.042771 0.208743 0.042771
0.0424964 0.207004 0.0424964
0.0421149 0.204562 0.0421149
0.0555276 0.203082 0.0428931
0.124605 0.207996 0.0482795
0.196918 0.210864 0.0530098
0.264286 0.209781 0.0565347
0.334798 0.205661 0.0595407
0.409995 0.196277 0.0619364
0.492012 0.179034 0.0637217
0.571374 0.15169 0.0645457
0.641794 0.117983 0.064622
0.705669 0.0836652 0.0646525
0.771817 0.071519 0.0659495
0.832959 0.0673838 0.0673838
0.84152 0.0675975 0.0675975
0.84152 0.0675975 0.0675975
0.84152 0.0675975 0.0675975
0.843458 0.0721752 0.0688182
0.858045 0.108141 0.0792096
0.886397 0.182635 0.104234
0.918242 0.275654 0.148577
0.945159 0.353277 0.198459
0.974014 0.422019 0.251728
0.997971 0.493324 0.319066
1 0.564004 0.414725
1 0.627604 0.511147
1 0.684459 0.608225
0.0504616 0.26363 0.0504616
0.0505074 0.263951 0.0505074
0.0505531 0.264347 0.0505531
0.0504463 0.263508 0.0504463
0.050248 0.261891 0.050248
0.0500649 0.260533 0.0500649
0.049836 0.258717 0.049836
0.0495613 0.256687 0.0495613
0.0492561 0.254322 0.0492561
0.0793927 0.254704 0.051133
0.170459 0.261265 0.0569162
0.249027 0.262882 0.0607004
0.32668 0.261265 0.0636149
0.407401 0.255894 0.0658885
0.494606 0.244053 0.0675669
0.579843 0.227497 0.0686351
0.657542 0.205844 0.0691997
0.727718 0.18027 0.0694285
0.790906 0.152514 0.0695506
0.845518 0.124407 0.0694743
0.858869 0.11223 0.0692149
0.852735 0.0962387 0.0687114
0.859449 0.113283 0.069398
0.867002 0.135027 0.0696727
0.885145 0.184985 0.0741741
0.907774 0.251438 0.0922408
0.929656 0.319326 0.138216
0.954772 0.381704 0.188922
0.980163 0.441962 0.244617
0.998703 0.50782 0.316228
1 0.574228 0.413504
1 0.634775 0.510475
1 0.689265 0.607645
0.0572366 0.322591 0.0572366
0.0572824 0.322942 0.0572824
0.0572061 0.32224 0.0572061
0.0570687 0.320928 0.0570687
0.0569619 0.319799 0.0569619
0.0568093 0.318334 0.0568093
0.0566873 0.317189 0.0566873
0.0565347 0.315679 0.0565347
0.0562448 0.313069 0.0562448
0.0564584 0.310231 0.0559854
0.111757 0.313191 0.0589151
0.218494 0.319738 0.0638437
0.307774 0.321248 0.0666819
0.396429 0.318502 0.068574
0.490074 0.31107 0.0697948
0.579904 0.299397 0.0703746
0.662242 0.285084 0.0705272
0.737667 0.268696 0.0704509
0.807157 0.251713 0.0702525
0.870649 0.236652 0.0700236
0.898466 0.224979 0.0699321
0.896193 0.218494 0.0698863
0.898573 0.225254 0.0699474
0.903807 0.242634 0.0693523
0.913161 0.274098 0.0682689
0.925856 0.317067 0.0780652
0.943694 0.364767 0.119661
0.9664 0.41474 0.174609
0.986984 0.466117 0.235294
0.999649 0.526375 0.312901
1 0.586999 0.412009
1 0.643442 0.509544
1 0.695354 0.607004
0.0632486 0.3906 0.0632486
0.0631571 0.389517 0.0631571
0.0630808 0.388357 0.0630808
0.062974 0.387091 0.062974
0.0628977 0.386084 0.0628977
0.0628061 0.384894 0.0628061
0.0627298 0.383917 0.0627298
0.0626383 0.382574 0.0626383
0.0624857 0.380621 0.0624857
0.0622568 0.377874 0.0622568
0.0663615 0.375265 0.0622416
0.150668 0.380346 0.0654154
0.271412 0.387045 0.0687572
0.373785 0.387259 0.0701305
0.475639 0.383001 0.0705577
0.57026 0.375189 0.0703288
0.656992 0.365087 0.0696727
0.736446 0.353857 0.0687724
0.809857 0.342412 0.0677348
0.877104 0.332113 0.0665904
0.927321 0.324529 0.0656291
0.926314 0.320272 0.0657816
0.926772 0.322881 0.0656291
0.930282 0.334249 0.0646067
0.934752 0.352392 0.0633097
0.944976 0.379644 0.0627756
0.959884 0.413169 0.0948653
0.977874 0.451987 0.156603
0.994553 0.495033 0.223316
1 0.548653 0.309117
1 0.603204 0.409979
1 0.654704 0.508232
1 0.703151 0.606241
0.0677043 0.465415 0.0677043
0.0676738 0.464469 0.0676738
0.067628 0.463493 0.067628
0.0675822 0.462547 0.0675822
0.0675364 0.461738 0.0675364
0.0675059 0.460807 0.0675059
0.0674601 0.459831 0.0674601
0.0673991 0.458717 0.0673991
0.0673075 0.456703 0.0673075
0.0672007 0.454704 0.0672007
0.0670634 0.45182 0.0670634
0.0789654 0.448997 0.0672465
0.197421 0.456916 0.0695811
0.332174 0.462272 0.0705425
0.446784 0.461311 0.0699168
0.548623 0.456214 0.068574
0.640085 0.449241 0.066865
0.723873 0.440497 0.0649119
0.801495 0.431281 0.0620127
0.874174 0.422217 0.0572366
0.939345 0.414267 0.0513008
0.955077 0.409064 0.0506294
0.954787 0.408377 0.0508736
0.956207 0.412543 0.0495613
0.960327 0.423346 0.0465095
0.966461 0.440864 0.0419318
0.975982 0.464622 0.061738
0.989288 0.494041 0.132738
0.998688 0.529168 0.21178
1 0.575601 0.304997
1 0.622538 0.407431
1 0.669123 0.506615
1 0.713176 0.605066
0.0700847 0.539849 0.0700847
0.0700542 0.53875 0.0700542
0.0700389 0.537942 0.0700389
0.0700236 0.537148 0.0700236
0.0700084 0.536294 0.0700084
0.0699931 0.535409 0.0699931
0.0699779 0.534569 0.0699779
0.0699626 0.533455 0.0699626
0.0699168 0.531868 0.0699168
0.0698863 0.529961 0.0698863
0.0698253 0.527352 0.0698253
0.069749 0.523644 0.069749
0.0989853 0.522133 0.0699626
0.273274 0.533135 0.0701152
0.407767 0.535515 0.0682689
0.517433 0.532952 0.0657359
0.614618 0.527687 0.0624094
0.704494 0.520699 0.0545815
0.788296 0.512215 0.0462348
0.866026 0.503487 0.0381018
0.937774 0.495048 0.0302129
0.981369 0.48838 0.0256199
0.980575 0.485374 0.0267033
0.980789 0.486168 0.0264134
0.982162 0.491173 0.0246586
0.985534 0.502647 0.0207523
0.990585 0.518944 0.0265049
0.998016 0.540429 0.106432
1 0.568215 0.20145
1 0.60618 0.299779
1 0.646067 0.404288
1 0.686091 0.504356
1 0.725872 0.603784
0.0704967 0.609583 0.0704967
0.0705119 0.608804 0.0705119
0.0705119 0.608026 0.0705119
0.0705119 0.607111 0.0705119
0.0705119 0.606363 0.0705119
0.0705272 0.605615 0.0705272
0.0705272 0.604807 0.0705272
0.0705272 0.603723 0.0705272
0.0705425 0.602319 0.0705425
0.0705425 0.600549 0.0705425
0.0705577 0.598123 0.0705577
0.0705577 0.594644 0.0705577
0.0729686 0.590463 0.070573
0.199496 0.597696 0.0695964
0.361044 0.603922 0.0661479
0.480323 0.603876 0.0611887
0.583993 0.601358 0.0499886
0.678187 0.595651 0.0391241
0.766033 0.588159 0.0286564
0.84715 0.579904 0.0187076
0.922316 0.571481 0.009308
0.98497 0.564004 0.00366217
0.997681 0.559228 0.00363165
0.998825 0.557168 0.00180056
0.998245 0.558984 0.0028687
0.998276 0.565057 0.00273136
1 0.575463 0.007187
1 0.590997 0.0824598
1 0.611093 0.191211
1 0.640558 0.293873
1 0.672984 0.400778
1 0.706798 0.501778
1 0.740902 0.602121
0.069398 0.674723 0.069398
0.0694285 0.673991 0.0694285
0.0694438 0.673182 0.0694438
0.0694591 0.672526 0.0694591
0.0694896 0.671672 0.0694896
0.0695048 0.670985 0.0695048
0.0695201 0.670146 0.0695201
0.0695506 0.66923 0.0695506
0.0695811 0.667887 0.0695811
0.0696269 0.666224 0.0696269
0.069688 0.663859 0.069688
0.0697642 0.660777 0.0697642
0.0698558 0.656428 0.0698558
0.131716 0.657618 0.068925
0.311238 0.667659 0.0631571
0.438148 0.671183 0.0509957
0.546838 0.670329 0.0369726
0.645502 0.666224 0.0237583
0.736309 0.659709 0.0113375
0.819989 0.651865 0.00135805
0.894194 0.643687 0
0.960433 0.636316 0
0.999084 0.630472 0
1 0.62652 0
1 0.625757 0
1 0.627695 0
1 0.633249 0.00102235
1 0.642512 0.059968
1 0.656046 0.179355
1 0.678111 0.287419
1 0.703395 0.396185
1 0.730846 0.498817
1 0.759228 0.600092
0.0671855 0.734462 0.0671855
0.067216 0.73373 0.067216
0.0672465 0.733089 0.0672465
0.0672923 0.732357 0.0672923
0.0673228 0.731548 0.0673228
0.0673533 0.730922 0.0673533
0.0673838 0.730175 0.0673838
0.0674296 0.729335 0.0674296
0.0674754 0.728084 0.0674754
0.0675517 0.72639 0.0675517
0.0676585 0.724193 0.0676585
0.0677806 0.721157 0.0677806
0.0679484 0.717281 0.0679484
0.0977035 0.71574 0.0673228
0.257801 0.726833 0.0580301
0.39585 0.734157 0.0404669
0.507881 0.734981 0.0241093
0.608728 0.73196 0.00895705
0.701625 0.725856 0
0.785229 0.717586 0
0.860548 0.709697 0
0.928512 0.702342 0
0.98613 0.696071 0
1 0.691234 0
1 0.688258 0
1 0.687617 0
1 0.689219 0
1 0.69395 0.0375525
1 0.701839 0.166506
1 0.717891 0.279469
1 0.736736 0.391211
1 0.757656 0.495369
1 0.780575 0.597681
0.06421 0.788724 0.06421
0.0642557 0.788006 0.0642557
0.0643015 0.78732 0.0643015
0.0643473 0.786618 0.0643473
0.0643931 0.785977 0.0643931
0.0644388 0.78526 0.0644388
0.0644846 0.784527 0.0644846
0.0645304 0.783795 0.0645304
0.0645914 0.782589 0.0645914
0.0646983 0.780926 0.0646983
0.0648203 0.778897 0.0648203
0.0649729 0.776303 0.0649729
0.0651865 0.772839 0.0651865
0.0798505 0.770367 0.0648051
0.2094 0.781933 0.0504921
0.359762 0.792996 0.0292363
0.471336 0.794934 0.0112154
0.573358 0.791562 0.000595102
0.666316 0.784482 0
0.750683 0.777066 0
0.827359 0.76965 0
0.896422 0.762509 0
0.958587 0.756039 0
0.998032 0.750591 0
1 0.746395 0
1 0.743709 0
1 0.742962 0
1 0.744137 0.0244602
1 0.748074 0.149813
1 0.758633 0.27129
1 0.772 0.385977
1 0.78735 0.491676
1 0.804639 0.595117
0.0570382 0.839887 0.0570382
0.0571908 0.839139 0.0571908
0.0573434 0.838392 0.0573434
0.0574655 0.837781 0.0574655
0.0576181 0.837018 0.0576181
0.0577554 0.836362 0.0577554
0.0578927 0.83563 0.0578927
0.0580758 0.83476 0.0580758
0.0582895 0.833631 0.0582895
0.0585794 0.832212 0.0585794
0.0589609 0.830274 0.0589609
0.0594339 0.827893 0.0594339
0.060029 0.824887 0.060029
0.0697032 0.822705 0.0594492
0.185473 0.835172 0.0412757
0.330877 0.847639 0.0170748
0.442481 0.849744 0.000595102
0.543297 0.844007 0
0.635081 0.837629 0
0.718395 0.830854 0
0.795316 0.823987 0
0.86511 0.817227 0
0.9281 0.810773 0
0.985 0.804913 0
1 0.799969 0
1 0.796063 0
1 0.793439 0
1 0.79234 0.0100404
1 0.79295 0.133837
1 0.799634 0.263615
1 0.808286 0.380972
1 0.818845 0.487999
1 0.831144 0.592309
0.0469673 0.887114 0.0469673
0.0470893 0.886595 0.0470893
0.0472114 0.886015 0.0472114
0.0473487 0.885405 0.0473487
0.0474861 0.884825 0.0474861
0.0476081 0.884245 0.0476081
0.0477302 0.883696 0.0477302
0.0478828 0.882979 0.0478828
0.0480659 0.8822 0.0480659
0.0483253 0.881025 0.0483253
0.048661 0.879454 0.048661
0.0490883 0.877562 0.0490883
0.0559854 0.876112 0.0485695
0.0707408 0.875502 0.0468452
0.200992 0.889952 0.0238804
0.323171 0.897688 0.00509651
0.427558 0.895811 0
0.523827 0.890684 0
0.610086 0.885039 0
0.691493 0.879026 0
0.766354 0.87274 0
0.835691 0.866407 0
0.899031 0.860197 0
0.956558 0.854276 0
0.99826 0.848905 0
1 0.844266 0
1 0.840467 0
1 0.837751 0
1 0.83624 0.120073
1 0.839796 0.257221
1 0.84509 0.376638
1 0.851331 0.484459
1 0.859174 0.589471
0.0370794 0.929763 0.0370794
0.0371557 0.929412 0.0371557
0.0372625 0.928969 0.0372625
0.0373693 0.928512 0.0373693
0.0374914 0.928054 0.0374914
0.0375982 0.927611 0.0375982
0.0376898 0.927184 0.0376898
0.0378271 0.926635 0.0378271
0.037995 0.925933 0.037995
0.0381933 0.925109 0.0381933
0.040528 0.924239 0.0381018
0.0541085 0.924865 0.0360113
0.0713664 0.92575 0.0333257
0.135836 0.93164 0.0216983
0.247501 0.942687 0.00109865
0.340429 0.940215 0.000122072
0.430137 0.936477 0
0.514275 0.932219 0
0.594553 0.927367 0
0.670344 0.922026 0
0.742672 0.91632 0
0.809598 0.910536 0
0.872038 0.904692 0
0.929595 0.898955 0
0.981628 0.893446 0
1 0.888441 0
1 0.883909 0
1 0.880018 0.00395209
1 0.877241 0.112902
1 0.878447 0.253635
1 0.880858 0.373709
1 0.884276 0.481514
1 0.888441 0.586908
0.0276341 0.967865 0.0276341
0.0277104 0.967605 0.0277104
0.0280308 0.967376 0.0277104
0.0330358 0.967819 0.0268101
0.0375067 0.968215 0.0259861
0.0425116 0.968658 0.0250706
0.0469978 0.969039 0.0242618
0.052781 0.969543 0.0231937
0.0604105 0.970214 0.0218051
0.0701915 0.97113 0.0200046
0.0832685 0.972274 0.0176242
0.109651 0.9738 0.0141909
0.166094 0.975845 0.0091249
0.239109 0.978454 0.00256352
0.307897 0.978103 0
0.380575 0.975601 0
0.448646 0.972549 0
0.51838 0.968994 0
0.588937 0.964858 0
0.657847 0.96025 0
0.724285 0.95523 0
0.788663 0.949981 0
0.848692 0.944549 0
0.905058 0.939071 0
0.956985 0.9337 0
0.997299 0.928527 0
1 0.92369 0
1 0.919051 0.00151064
1 0.915282 0.109789
1 0.91519 0.253513
1 0.915587 0.372122
1 0.916503 0.479881
1 0.917952 0.585031
0.117311 0.995727 0.00637827
0.123247 0.996506 0.00529488
0.130587 0.996826 0.00482185
0.139574 0.997009 0.00454719
0.147921 0.997177 0.00430304
0.156603 0.99733 0.00407416
0.16495 0.997497 0.00381476
0.17586 0.997711 0.00347906
0.18999 0.998001 0.0030518
0.208637 0.998383 0.00247196
0.233036 0.998871 0.00172427
0.265156 0.999512 0.000732433
0.300725 1 0
0.335805 1 0
0.380392 1 0
0.427039 0.999664 0
0.480415 0.998978 0
0.53576 0.997086 0
0.593835 0.994904 0
0.653773 0.992462 0
0.713741 0.989639 0
0.772473 0.985183 0
0.829786 0.980179 0
0.883818 0.975113 0
0.934554 0.96997 0
0.981048 0.964828 0
1 0.959792 0
1 0.954833 0
1 0.9505 0.11574
1 0.949493 0.257404
1 0.948562 0.373632
1 0.947753 0.479881
1 0.947188 0.583978
0.310887 1 0
0.315831 1 0
0.320043 1 0
0.323873 1 0
0.327718 1 0
0.331548 1 0
0.335378 1 0
0.340368 1 0
0.346502 1 0
0.354925 1 0
0.36669 1 0
0.381262 1 0
0.400824 1 0
0.423667 1 0
0.449912 1 0
0.48333 1 0
0.519799 1 0
0.562737 1 0
0.609033 1 0
0.658747 1 0
0.710643 1 0
0.763073 1 0
0.815427 1 0
0.866575 0.999283 0
0.915343 0.997314 0
0.961212 0.995682 0
0.996307 0.992493 0
1 0.98735 0.0182956
1 0.982864 0.140475
1 0.981201 0.268956
1 0.979416 0.379217
1 0.977447 0.482628
1 0.975372 0.584558
0.433753 1 0
0.436057 1 0
0.438376 1 0
0.440681 1 0
0.44271 1 0
0.445014 1 0
0.447333 1 0
0.449928 1 0
0.453681 1 0
0.458305 1 0
0.464942 1 0
0.47332 1 0
0.484581 1 0
0.499519 1 0
0.517021 1 0
0.538399 1 0
0.565362 1 0
0.595926 1 0
0.631968 1 0
0.671855 1 0
0.714916 1 0
0.76051 1 0
0.807019 1 0
0.853773 1 0
0.899504 1 0
0.943603 1 0
0.985016 1 0.000854505
1 1 0.0358434
1 1 0.173175
1 1 0.288289
1 1 0.390097
1 0.99968 0.488075
1 0.997696 0.587396
0.525124 1 0
0.526528 1 0
0.527932 1 0
0.529335 1 0
0.53051 1 0
0.531914 1 0
0.533318 1 0
0.534966 1 0
0.537072 1 0
