Luts/Fujifilm/FLog2C_to_PRO-Neg.Std_VLog.cube
TITLE "Generated by Resolve"
LUT_3D_SIZE 33
0.000457771 0.000396735 9.15541e-05
0.000457771 0.000396735 9.15541e-05
0.000457771 0.000396735 9.15541e-05
0.000457771 0.000396735 9.15541e-05
0.000457771 0.000396735 9.15541e-05
0.000457771 0.000396735 9.15541e-05
0.013077 0.00280766 0.00309758
0.0530404 0.00886549 0.0151369
0.105867 0.0175631 0.0285954
0.180011 0.0242466 0.0512551
0.290227 0.0345769 0.0804303
0.430793 0.0436255 0.118395
0.603113 0.0511482 0.168811
0.767468 0.0636301 0.241505
0.902373 0.0811322 0.335576
0.947631 0.109453 0.428824
0.956466 0.183322 0.46157
0.965805 0.25449 0.483986
0.966094 0.257221 0.484733
0.966094 0.257221 0.484733
0.966094 0.257221 0.484733
0.966094 0.257221 0.484733
0.966094 0.257221 0.484733
0.966094 0.257221 0.484733
0.966674 0.272908 0.473518
0.969299 0.301305 0.453986
0.970871 0.335119 0.440986
0.973983 0.373465 0.44976
0.977127 0.411597 0.462379
0.980926 0.451423 0.478294
0.983536 0.490715 0.499321
0.985534 0.530236 0.526741
0.989166 0.575067 0.567742
0.000457771 0.000396735 9.15541e-05
0.000457771 0.000396735 9.15541e-05
0.000457771 0.000396735 9.15541e-05
0.000457771 0.000396735 9.15541e-05
0.000457771 0.000396735 9.15541e-05
0.000457771 0.000396735 9.15541e-05
0.02121 0.0047303 0.0047303
0.0606088 0.00926223 0.0168307
0.112657 0.0191806 0.0303349
0.189059 0.0250248 0.0537118
0.298802 0.0353246 0.0827955
0.438926 0.0439307 0.120668
0.609598 0.0513008 0.170672
0.771527 0.0641337 0.24387
0.905089 0.0815595 0.337819
0.947768 0.109758 0.429679
0.956558 0.184314 0.461936
0.965835 0.254841 0.484077
0.966094 0.257221 0.484733
0.966094 0.257221 0.484733
0.966094 0.257221 0.484733
0.966094 0.257221 0.484733
0.966094 0.257221 0.484733
0.96643 0.25861 0.483696
0.967041 0.280461 0.468269
0.969039 0.307149 0.449775
0.970916 0.340459 0.439673
0.97406 0.377722 0.44889
0.977066 0.414603 0.461616
0.981109 0.453956 0.477638
0.983597 0.492607 0.498756
0.985565 0.531655 0.52639
0.989181 0.576089 0.567437
0.000457771 0.000396735 9.15541e-05
0.000457771 0.000396735 9.15541e-05
0.000457771 0.000396735 9.15541e-05
0.000457771 0.000396735 9.15541e-05
0.000457771 0.000396735 9.15541e-05
0.000457771 0.000396735 9.15541e-05
0.028748 0.00683604 0.00569162
0.0678874 0.00975052 0.0184939
0.121111 0.0194705 0.0334325
0.198352 0.0257267 0.0562753
0.306569 0.0360113 0.0849622
0.444846 0.0441596 0.122332
0.616251 0.0514687 0.172595
0.775616 0.0646372 0.246235
0.907805 0.082002 0.340047
0.947967 0.110323 0.430808
0.956649 0.185306 0.462303
0.965896 0.255283 0.484199
0.966094 0.257221 0.484733
0.966094 0.257221 0.484733
0.966094 0.257221 0.484733
0.966094 0.257221 0.484733
0.966094 0.257221 0.484733
0.967712 0.26424 0.479515
0.967269 0.287572 0.463447
0.968765 0.313695 0.445258
0.970962 0.345647 0.438453
0.974121 0.381888 0.447944
0.977005 0.417639 0.460868
0.981125 0.456413 0.477028
0.983642 0.494514 0.498131
0.985611 0.533181 0.525933
0.989212 0.577111 0.567132
0.000457771 0.000396735 9.15541e-05
0.000457771 0.000396735 9.15541e-05
0.000457771 0.000396735 9.15541e-05
0.000457771 0.000396735 9.15541e-05
0.000457771 0.000396735 9.15541e-05
0.00164797 0.000411994 0.000274662
0.0359503 0.00784314 0.00823987
0.0763104 0.0112459 0.0208438
0.129656 0.01944 0.0367285
0.207492 0.0263981 0.0587625
0.313085 0.0365911 0.0868238
0.452995 0.0444648 0.124605
0.622904 0.0516365 0.174517
0.779324 0.065095 0.248402
0.910521 0.0824292 0.342306
0.947768 0.107561 0.429816
0.955917 0.160403 0.454871
0.962112 0.225498 0.474586
0.966094 0.25687 0.484611
0.966094 0.257221 0.484733
0.966094 0.257221 0.484733
0.966094 0.257221 0.484733
0.965728 0.259693 0.483207
0.968093 0.271656 0.474708
0.96759 0.29485 0.458656
0.968704 0.319417 0.441184
0.97113 0.350713 0.437064
0.974365 0.385901 0.446754
0.977096 0.420737 0.460212
0.981064 0.458839 0.47628
0.983703 0.496422 0.49749
0.985641 0.534569 0.52549
0.989242 0.578134 0.566918
0.000457771 0.000396735 9.15541e-05
0.000457771 0.000396735 9.15541e-05
0.000457771 0.000396735 9.15541e-05
0.000457771 0.000396735 9.15541e-05
0.000457771 0.000396735 9.15541e-05
0.0105898 0.00230411 0.00242618
0.0433967 0.00839246 0.0120089
0.084123 0.0131075 0.0224002
0.134966 0.0184939 0.0395514
0.207889 0.0256657 0.0590372
0.30573 0.0357519 0.0841993
0.434775 0.0437171 0.11902
0.580423 0.0502785 0.161257
0.731197 0.0593576 0.221668
0.852033 0.0734722 0.29514
0.937728 0.0916152 0.384909
0.949798 0.12694 0.442634
0.9579 0.190448 0.463096
0.966186 0.252522 0.483848
0.966094 0.257221 0.484733
0.966094 0.257221 0.484733
0.966094 0.257221 0.484733
0.965484 0.263859 0.480461
0.967803 0.280995 0.469139
0.967987 0.301503 0.454475
0.969024 0.325475 0.436759
0.971481 0.355596 0.436149
0.974731 0.389807 0.445441
0.977203 0.423911 0.459312
0.981003 0.461204 0.475776
0.983749 0.498207 0.496956
0.985687 0.535988 0.525063
0.989258 0.579049 0.566644
0.00482185 0.0272679 0.00224308
0.00488289 0.0278477 0.00222782
0.00495918 0.0284581 0.0021973
0.00502022 0.0290684 0.00218204
0.00508125 0.0296941 0.00215152
0.00630198 0.0265202 0.000366217
0.0334936 0.0240024 0.00221256
0.0667735 0.0226902 0.0126345
0.110323 0.0234836 0.0268711
0.170932 0.0260319 0.0466773
0.254032 0.0317082 0.0706951
0.366598 0.0388647 0.102098
0.506401 0.0483406 0.138598
0.66743 0.0543526 0.190738
0.79913 0.0675517 0.259953
0.914992 0.0848707 0.344808
0.945663 0.103563 0.431891
0.954696 0.16379 0.454353
0.964157 0.234379 0.479011
0.966094 0.257221 0.484733
0.966094 0.257221 0.484733
0.966491 0.260838 0.482383
0.966567 0.272267 0.474357
0.968002 0.289052 0.463645
0.968353 0.308202 0.450278
0.969345 0.33135 0.432425
0.971847 0.360327 0.435279
0.975097 0.393606 0.444144
0.97731 0.427008 0.458579
0.980941 0.463539 0.475196
0.98381 0.500114 0.496406
0.985733 0.537408 0.524712
0.989288 0.580072 0.566339
0.00872816 0.0561074 0.00177005
0.00881972 0.0566567 0.00177005
0.00891127 0.0572213 0.00175479
0.00901808 0.0578317 0.00173953
0.00910964 0.0583963 0.00173953
0.0075227 0.0500191 1.5259e-05
0.0248722 0.0459602 0.000457771
0.0568093 0.0459449 0.00363165
0.0989548 0.0458686 0.0120089
0.153597 0.0462959 0.0314641
0.229038 0.0490272 0.0523232
0.328389 0.0502174 0.0830396
0.458183 0.0515145 0.119051
0.611261 0.0550088 0.168399
0.755627 0.0636606 0.233677
0.877867 0.0766461 0.31281
0.942199 0.0970016 0.408255
0.952911 0.145006 0.44741
0.960861 0.213931 0.472374
0.965835 0.258625 0.484215
0.967407 0.263523 0.479698
0.967407 0.269383 0.476799
0.967025 0.280735 0.468055
0.968551 0.296925 0.457649
0.968658 0.314641 0.445274
0.96965 0.337041 0.42826
0.972198 0.364996 0.434089
0.975448 0.397375 0.442679
0.977417 0.430137 0.457923
0.98088 0.465858 0.474464
0.983856 0.501915 0.495811
0.985763 0.53872 0.524392
0.989303 0.581003 0.566064
0.0135653 0.0864118 0.00117494
0.0135653 0.0870222 0.00115969
0.0135805 0.0876326 0.00115969
0.0135958 0.0882582 0.00114443
0.0138247 0.088426 0.0009308
0.010956 0.0759594 7.62951e-05
0.0182803 0.0699168 0.000549325
0.0510719 0.068513 0.000549325
0.0886549 0.0684672 0.00410468
0.140795 0.0686046 0.0131075
0.209277 0.0718242 0.0308232
0.30161 0.0751507 0.0579385
0.424643 0.0765393 0.0931868
0.572122 0.0803998 0.135729
0.717845 0.0833295 0.196353
0.842084 0.0940414 0.273243
0.940322 0.108751 0.368887
0.951186 0.142092 0.43386
0.959365 0.206134 0.456809
0.966751 0.268681 0.475425
0.967315 0.274098 0.473518
0.967575 0.282673 0.46685
0.966827 0.292439 0.459266
0.968917 0.30576 0.451179
0.968963 0.322591 0.438682
0.970214 0.34345 0.424704
0.97261 0.370474 0.432975
0.975891 0.401892 0.441123
0.977539 0.433783 0.456947
0.980819 0.468711 0.473747
0.983917 0.504143 0.495079
0.985809 0.540475 0.523873
0.989334 0.582223 0.565789
0.0180667 0.135149 0.000366217
0.0181125 0.135729 0.000366217
0.0181735 0.136416 0.000381476
0.0182345 0.137011 0.000381476
0.016846 0.126375 0.000457771
0.015671 0.109285 0.000289921
0.0161898 0.098436 0.000106813
0.0411536 0.0968032 0.000167849
0.0798352 0.0941176 0.000732433
0.129625 0.0962539 0.00361639
0.194583 0.0968643 0.0125277
0.279576 0.10135 0.0320592
0.394598 0.104784 0.0624094
0.531365 0.107774 0.101137
0.679026 0.114855 0.152316
0.806882 0.126787 0.224781
0.925643 0.142123 0.312352
0.951888 0.161975 0.404242
0.958679 0.21326 0.429801
0.96759 0.278111 0.459373
0.968719 0.291142 0.460365
0.968078 0.297795 0.456367
0.967849 0.304891 0.451728
0.968856 0.317388 0.443046
0.96936 0.332418 0.430884
0.971008 0.351522 0.420508
0.9729 0.377905 0.430106
0.976425 0.407706 0.439033
0.977707 0.438605 0.455833
0.980728 0.47245 0.472755
0.983993 0.507118 0.494087
0.985885 0.542748 0.523186
0.989364 0.583856 0.565209
0.0225223 0.197055 4.57771e-05
0.0225528 0.197726 4.57771e-05
0.0225528 0.19823 1.5259e-05
0.0225834 0.19881 3.0518e-05
0.0217746 0.170535 0.00015259
0.0182956 0.152697 0.000747692
0.0183566 0.139055 0.000488289
0.0318151 0.133577 6.10361e-05
0.0749828 0.131136 4.57771e-05
0.119921 0.130449 0.000289921
0.18085 0.130999 0.00173953
0.261982 0.134447 0.00732433
0.365972 0.138979 0.0258488
0.496452 0.14255 0.0615549
0.639277 0.151217 0.110948
0.773419 0.163195 0.173495
0.892103 0.177432 0.255879
0.951629 0.195773 0.351629
0.95967 0.229404 0.399207
0.965377 0.286854 0.432425
0.968994 0.311727 0.446403
0.968627 0.315419 0.444343
0.969192 0.321523 0.439551
0.969543 0.332021 0.431495
0.969879 0.344976 0.421805
0.971786 0.362585 0.415747
0.973236 0.387442 0.426444
0.976608 0.415213 0.436759
0.977951 0.444984 0.45391
0.980621 0.47744 0.471504
0.984115 0.511055 0.492973
0.985962 0.545815 0.522347
0.98941 0.586007 0.564553
0.0239261 0.2869 0.000137331
0.0239109 0.287663 0.000137331
0.0239109 0.288182 0.000137331
0.0241093 0.260334 0.000579843
0.0231937 0.230365 9.15541e-05
0.0230564 0.207385 0.000213626
0.0220188 0.194934 0.000335698
0.0249027 0.181964 0.000167849
0.0628824 0.177325 3.0518e-05
0.110979 0.173831 0.000564584
0.169894 0.17406 0.000244144
0.247486 0.17644 0.000106813
0.343038 0.178912 0.000122072
0.465675 0.185748 0.0144961
0.600809 0.195148 0.0598917
0.735348 0.206104 0.118029
0.856779 0.220996 0.193149
0.95349 0.2392 0.286336
0.959594 0.258381 0.360922
0.96556 0.300786 0.398306
0.969284 0.336782 0.4271
0.969741 0.338384 0.426963
0.970321 0.342458 0.423743
0.970565 0.350179 0.416785
0.970748 0.361578 0.409171
0.972107 0.378256 0.410071
0.973846 0.399756 0.421805
0.976822 0.424796 0.433707
0.978393 0.453056 0.450278
0.980911 0.483879 0.46949
0.984253 0.516106 0.491386
0.986084 0.549844 0.521126
0.989487 0.588876 0.563806
0.0178378 0.406912 0.000289921
0.0177768 0.40766 0.000289921
0.0213931 0.375586 0.000259403
0.022034 0.331106 0.000228885
0.0236362 0.299931 0.000732433
0.0234684 0.279194 0.000671397
0.0242313 0.262425 0.000427253
0.0245212 0.250111 0.000213626
0.0480507 0.240482 0.000411994
0.0998856 0.234516 0.000335698
0.158816 0.232959 0.000122072
0.234119 0.229053 0.000198367
0.326787 0.229908 1.5259e-05
0.438193 0.237537 0.000167849
0.56556 0.24477 0.00663767
0.699504 0.257816 0.0556039
0.821927 0.271992 0.124605
0.932052 0.287221 0.211597
0.961196 0.303136 0.304952
0.966033 0.325872 0.352148
0.970855 0.362173 0.395285
0.971222 0.366903 0.401862
0.971115 0.369406 0.401907
0.971313 0.373205 0.398871
0.971878 0.382635 0.396536
0.97348 0.396948 0.403372
0.974899 0.415534 0.416434
0.977432 0.437705 0.429648
0.978958 0.46331 0.445762
0.981949 0.492226 0.466178
0.984421 0.523125 0.488975
0.986236 0.555154 0.519661
0.989563 0.59266 0.562661
0.0151064 0.544671 0.000106813
0.014786 0.496666 0.000167849
0.0160983 0.448142 0.000183108
0.0180209 0.411002 0.000381476
0.0208286 0.383322 0.00030518
0.021149 0.3608 9.15541e-05
0.0229801 0.344472 0.000228885
0.0227817 0.332265 0.000244144
0.0350347 0.317067 0.000274662
0.0816968 0.309422 0.000244144
0.143435 0.303319 0.000320439
0.216709 0.301305 0.00047303
0.307942 0.298848 4.57771e-05
0.415717 0.300298 4.57771e-05
0.535821 0.308949 0
0.664332 0.317617 0.00508125
0.788266 0.329 0.0529335
0.90161 0.343389 0.131273
0.9608 0.357305 0.227024
0.964492 0.366491 0.297276
0.969909 0.39324 0.348959
0.972061 0.401511 0.375967
0.972015 0.400946 0.375708
0.972717 0.402975 0.377356
0.973129 0.408316 0.384268
0.974365 0.420203 0.394888
0.976562 0.43566 0.409277
0.978576 0.455009 0.424018
0.979171 0.476921 0.440269
0.983261 0.502983 0.462074
0.984665 0.532235 0.48571
0.986648 0.562036 0.517021
0.989685 0.597726 0.561135
0.0131075 0.60383 0.000518807
0.0140383 0.555993 0.000198367
0.0147097 0.52398 0.000137331
0.0149386 0.494636 0.000610361
0.0149538 0.473594 4.57771e-05
0.016022 0.455238 1.5259e-05
0.0162661 0.441688 0.000137331
0.0161135 0.427665 0.000320439
0.0201419 0.414115 0.000289921
0.0563821 0.401541 0.000183108
0.1205 0.392416 0.000411994
0.199695 0.383444 0.000503548
0.28925 0.37847 0.000411994
0.394003 0.377493 7.62951e-05
0.51191 0.37969 0.000289921
0.634348 0.384833 0.000106813
0.756725 0.395239 0.00247196
0.86862 0.407691 0.0527962
0.957794 0.418769 0.142992
0.966491 0.42269 0.228656
0.969268 0.431922 0.292149
0.972763 0.441779 0.341634
0.973297 0.438087 0.348791
0.973129 0.437873 0.358907
0.97467 0.440482 0.36965
0.975372 0.447776 0.383627
0.977218 0.460761 0.398993
0.978149 0.475731 0.415534
0.978943 0.494331 0.433722
0.983444 0.517006 0.456794
0.985 0.54374 0.481483
0.987167 0.570932 0.513497
0.989883 0.604776 0.558877
0.0120394 0.654261 0.000381476
0.0126497 0.625071 0.000640879
0.0133211 0.601007 0.000289921
0.0137026 0.580774 0.000183108
0.0142824 0.563302 0.000106813
0.013962 0.550561 0.000122072
0.0153964 0.538735 0.000411994
0.0153811 0.526894 0.000320439
0.0157931 0.512749 0.000228885
0.0356451 0.50013 0.000610361
0.0974289 0.488014 0.0010071
0.178042 0.477195 0.000366217
0.26952 0.469841 0.000106813
0.373159 0.463615 0.000167849
0.485328 0.462699 0.000198367
0.607126 0.463188 0.000411994
0.725475 0.470176 7.62951e-05
0.838041 0.47686 0.00251774
0.937163 0.48539 0.0599222
0.966445 0.489906 0.16051
0.969955 0.48539 0.233677
0.974136 0.487617 0.301915
0.974456 0.482353 0.326101
0.97528 0.478828 0.337575
0.97586 0.477623 0.352224
0.976516 0.480934 0.368597
0.977462 0.489555 0.386847
0.979156 0.499947 0.40531
0.981109 0.516518 0.425742
0.98291 0.534661 0.450401
0.985275 0.55845 0.476066
0.987823 0.582345 0.509041
0.990127 0.613794 0.55584
0.00993362 0.717556 0.000320439
0.0102083 0.698726 0.000122072
0.0108949 0.682612 0.000274662
0.0124361 0.66746 0.00030518
0.0125277 0.655528 0.000137331
0.0122072 0.645319 0.000396735
0.011902 0.636545 0.000640879
0.0124361 0.625956 0.000183108
0.0127871 0.613687 0.000503548
0.0178225 0.600732 0.000640879
0.0626078 0.589197 0.000350958
0.149569 0.57763 0.000198367
0.243595 0.569497 4.57771e-05
0.349462 0.560555 0.000213626
0.459693 0.553811 0.000198367
0.578668 0.549691 1.5259e-05
0.696773 0.552316 0.000137331
0.806455 0.557153 0.000259403
0.907988 0.559152 0.00265507
0.966369 0.5608 0.0756542
0.970489 0.549432 0.162478
0.974105 0.542885 0.244511
0.97615 0.53106 0.299351
0.976547 0.524849 0.312795
0.976776 0.520272 0.328878
0.977737 0.520424 0.348409
0.978973 0.523232 0.370703
0.980255 0.531182 0.392416
0.981659 0.54255 0.414832
0.984161 0.557702 0.441428
0.98558 0.576776 0.469184
0.987686 0.597101 0.504143
0.990372 0.625391 0.552117
0.00714122 0.785748 0.000579843
0.00802625 0.773632 6.10361e-05
0.00790417 0.764035 0.000213626
0.00794995 0.75462 0.000366217
0.00889601 0.746777 0.000335698
0.00926223 0.739055 0.000381476
0.00833143 0.732204 0.00062562
0.00779736 0.723827 0.000823987
0.0102235 0.71342 0.000717174
0.0129244 0.70312 0.000488289
0.0410468 0.692699 0.00047303
0.114672 0.68249 0.000274662
0.211749 0.672251 0.00047303
0.319097 0.661646 0.000457771
0.43238 0.651637 0.00030518
0.551247 0.647059 3.0518e-05
0.668513 0.6421 0.00015259
0.778424 0.641245 0
0.87744 0.640238 0.000427253
0.957198 0.63946 0.00595102
0.96965 0.626581 0.0771191
0.973358 0.609445 0.171054
0.976608 0.587518 0.252735
0.97673 0.576471 0.278187
0.977035 0.569574 0.300542
0.978607 0.565164 0.323262
0.980102 0.564736 0.346777
0.981262 0.566552 0.373175
0.982467 0.574624 0.398718
0.984237 0.584695 0.42948
0.986709 0.598856 0.459709
0.987594 0.615488 0.497993
0.98996 0.640375 0.547112
0.00207523 0.851606 0.00030518
0.00225834 0.845258 0.000320439
0.00309758 0.838834 0.000427253
0.00363165 0.83331 0.000457771
0.00341802 0.828168 0.000350958
0.00320439 0.823453 0.000274662
0.00383001 0.818677 0.000244144
0.00523384 0.812985 0.000244144
0.00646983 0.805783 0.000274662
0.00639353 0.796841 0.000381476
0.0121614 0.788037 0.000381476
0.0690318 0.779934 0.000198367
0.1729 0.771267 0.000366217
0.282765 0.761273 0.000549325
0.398718 0.752773 1.5259e-05
0.519432 0.742733 1.5259e-05
0.636469 0.733684 0.000228885
0.748501 0.726894 7.62951e-05
0.845747 0.723629 9.15541e-05
0.939834 0.7196 1.5259e-05
0.966705 0.708446 0.00256352
0.971389 0.684886 0.0763409
0.97528 0.652461 0.185672
0.976867 0.633677 0.235966
0.977798 0.623804 0.263371
0.979355 0.616022 0.291051
0.980529 0.61059 0.31989
0.980728 0.609903 0.348486
0.982849 0.612299 0.38146
0.984649 0.617472 0.412558
0.98706 0.625895 0.447486
0.988006 0.638163 0.489036
0.989517 0.658946 0.540932
0.000289921 0.91519 0.000106813
0.00030518 0.910796 0.000183108
0.00030518 0.906691 0.000259403
0.000335698 0.902907 0.000320439
0.000442512 0.899123 0.000320439
0.000564584 0.895933 0.000320439
0.000701915 0.892409 0.000320439
0.000732433 0.888991 0.000350958
0.000701915 0.884291 0.000381476
0.00151064 0.878065 0.000396735
0.00407416 0.870008 0.00030518
0.0408331 0.862638 0.000137331
0.124376 0.855558 7.62951e-05
0.238117 0.848371 0.000122072
0.357549 0.841077 0.000366217
0.480232 0.831754 9.15541e-05
0.600061 0.818555 0.000442512
0.713649 0.807279 0.000518807
0.816342 0.797131 3.0518e-05
0.907637 0.788235 7.62951e-05
0.963302 0.788739 0.000106813
0.969039 0.766094 0.000244144
0.973312 0.72668 0.0892042
0.976547 0.695583 0.184802
0.978378 0.681956 0.218982
0.978622 0.671183 0.250721
0.980316 0.662837 0.284184
0.981186 0.657023 0.319951
0.982849 0.654627 0.355001
0.984985 0.654658 0.39292
0.986694 0.658839 0.43267
0.987625 0.665934 0.476936
0.989151 0.681422 0.533455
1.5259e-05 0.972061 0.000213626
3.0518e-05 0.969924 0.000213626
3.0518e-05 0.967819 0.000213626
3.0518e-05 0.965713 0.000244144
1.5259e-05 0.963684 0.000366217
1.5259e-05 0.961532 0.000503548
0 0.959365 0.000656138
0 0.957107 0.000869764
1.5259e-05 0.95375 0.000717174
6.10361e-05 0.94966 0.000564584
0.00128176 0.94464 0.000457771
0.0043946 0.93753 0.000488289
0.0771954 0.931289 0.000854505
0.183642 0.924285 0.000564584
0.308064 0.913741 0.000137331
0.434928 0.900923 9.15541e-05
0.557809 0.88838 0.000457771
0.677043 0.874968 0
0.781445 0.862638 9.15541e-05
0.874952 0.850721 3.0518e-05
0.954757 0.842496 0
0.962951 0.838117 0.000122072
0.968658 0.805676 0.00793469
0.973663 0.762356 0.109255
0.975662 0.741924 0.164309
0.976608 0.729046 0.202289
0.978775 0.717494 0.240589
0.979965 0.708324 0.282063
0.98117 0.702022 0.323262
0.983383 0.697948 0.366888
0.983856 0.696757 0.410254
0.987076 0.698299 0.461601
0.988266 0.70901 0.520821
0 0.999695 0.000274662
0 0.999649 0.000274662
0 0.999603 0.000274662
0 0.999619 0.000274662
0 0.999588 0.000274662
0 0.999557 0.000274662
0 0.999527 0.000274662
0 0.999481 0.000274662
0 0.999435 0.000274662
0 0.9991 0.000427253
0 0.998505 0.000640879
0.00517281 0.996277 0.00062562
0.0185702 0.990707 0.000350958
0.121752 0.983871 9.15541e-05
0.25066 0.974441 1.5259e-05
0.381476 0.963821 0
0.509819 0.952102 0.000198367
0.633738 0.937896 0.000183108
0.745159 0.924468 0
0.841871 0.911482 0.000183108
0.926757 0.900587 6.10361e-05
0.95729 0.884794 0
0.962371 0.86952 4.57771e-05
0.968399 0.834989 0.0177768
0.972412 0.803876 0.0970932
0.97351 0.7897 0.140856
0.975174 0.775647 0.187808
0.977569 0.76437 0.236011
0.979324 0.75378 0.283207
0.981292 0.744442 0.33283
0.982971 0.739269 0.38555
0.984909 0.735088 0.43978
0.986343 0.740627 0.506981
0 1 0.000289921
0 1 0.000289921
0 1 0.000289921
0 1 0.000289921
0 1 0.000289921
0 1 0.000289921
0 1 0.000289921
0 1 0.000289921
0 1 0.000289921
0 1 0.000289921
0 1 0.000289921
0 1 0.000289921
0.0202792 1 0.000366217
0.0641947 1 0.000442512
0.182406 0.99939 0.00030518
0.317678 0.99971 0.000640879
0.452384 0.999588 0.000335698
0.584482 0.994446 0.000549325
0.70132 0.97995 0.00047303
0.802945 0.966003 0.000289921
0.888975 0.949248 1.5259e-05
0.952544 0.932342 0
0.956847 0.909926 0
0.962203 0.895537 3.0518e-05
0.967651 0.864912 0.0185245
0.970565 0.848173 0.0646067
0.973022 0.83241 0.120073
0.975586 0.818952 0.176501
0.976806 0.806378 0.232486
0.979141 0.795041 0.290684
0.979767 0.785412 0.349126
0.983673 0.776516 0.413092
0.985916 0.775937 0.485176
0 1 0.000289921
0 1 0.000289921
0 1 0.000289921
0 1 0.000289921
0 1 0.000289921
0 1 0.000289921
0 1 0.000289921
0 1 0.000289921
0 1 0.000289921
0 1 0.000289921
0 1 0.000289921
0 1 0.000289921
0 1 0.000289921
0.0403754 0.999985 0.000579843
0.118746 0.999954 0.00129702
0.240299 0.999908 0.000350958
0.374075 0.999939 7.62951e-05
0.509071 0.999741 0.000335698
0.636667 0.999603 0.000488289
0.74551 0.999283 0.000198367
0.840925 0.991211 0.00030518
0.921172 0.976898 0.000366217
0.954742 0.957427 0.000320439
0.956741 0.932692 1.5259e-05
0.961273 0.918761 0
0.966217 0.905699 0.00273136
0.968521 0.89041 0.0374304
0.971405 0.873823 0.100954
0.974334 0.859342 0.168872
0.976471 0.845716 0.236301
0.979049 0.832044 0.305043
0.981399 0.819791 0.377432
0.983993 0.814298 0.457176
0 1 0.000289921
0 1 0.000289921
0 1 0.000289921
0 1 0.000289921
0 1 0.000289921
0 1 0.000289921
0 1 0.000289921
0 1 0.000289921
0 1 0.000289921
0 1 0.000289921
0 1 0.000289921
0.00436408 0.999969 0.000320439
0.0207218 0.999863 0.000442512
0.0414435 0.999725 0.000564584
0.104631 0.999725 0.000488289
0.203296 0.999756 0.000381476
0.315053 0.999451 0.00030518
0.437247 0.999435 0.000259403
0.562188 0.999878 0.000656138
0.680201 0.999298 0.000289921
0.781308 0.999649 0.000274662
0.869291 0.999313 7.62951e-05
0.939223 0.994339 0.000137331
0.954772 0.975753 0.000183108
0.955291 0.952117 3.0518e-05
0.961044 0.941283 9.15541e-05
0.96257 0.939101 0
0.966323 0.929366 0.0182345
0.969467 0.912978 0.0832532
0.972457 0.89749 0.164706
0.975875 0.881224 0.244587
0.979492 0.865888 0.327993
0.982513 0.855955 0.421958
0 1 0.000289921
0 1 0.000289921
0 1 0.000289921
0 1 0.000289921
0 1 0.000289921
0 1 0.000289921
0 1 0.000289921
0 1 0.000289921
0 1 0.000289921
0 1 0.000289921
0 1 0.000289921
0 1 0.000289921
0.0127565 0.999969 0.000289921
0.0498817 0.999878 0.000289921
0.0965438 0.999756 0.00030518
0.170321 0.999771 0.000381476
0.267857 0.999802 0.000518807
0.375662 0.999634 0.000320439
0.490349 0.999695 0.000183108
0.608301 0.999634 0.000122072
0.716808 0.999664 0.000183108
0.810712 0.999741 0.000137331
0.892576 0.999878 4.57771e-05
0.947204 0.99968 0.000274662
0.953506 0.99057 4.57771e-05
0.95491 0.96965 6.10361e-05
0.958251 0.964508 0.000106813
0.961532 0.965759 3.0518e-05
0.964874 0.963256 0.00540169
0.96875 0.94876 0.0703899
0.972473 0.930709 0.166842
0.975891 0.912978 0.265995
0.980255 0.899886 0.373785
0 1 0.000289921
0.000518807 1 0.000289921
0.0019379 0.999985 0.00030518
0.00320439 0.999985 0.00030518
0.00450141 0.999969 0.000320439
0.00576791 0.999954 0.000320439
0.00704967 0.999954 0.000335698
0.00869764 0.999939 0.000350958
0.0107118 0.999924 0.000366217
0.013489 0.999908 0.000381476
0.0172885 0.999878 0.000411994
0.021973 0.999847 0.000442512
0.0281987 0.999802 0.000488289
0.0508583 0.999786 0.000534066
0.0946059 0.999786 0.000595102
0.149966 0.999771 0.000656138
0.224994 0.999588 0.000564584
0.318242 0.999496 0.000518807
0.420401 0.999954 0.000518807
0.530663 0.999786 0.000106813
0.642039 0.999786 0.000289921
0.743648 0.999771 0.000381476
0.834089 0.99971 0
0.911788 0.999771 0.000366217
0.949737 0.999573 0.000396735
0.952956 0.997421 0.000137331
0.954742 0.993088 0
0.956161 0.988571 0.000213626
0.959594 0.9906 0
0.963241 0.99324 4.57771e-05
0.967422 0.979995 0.0627298
0.972152 0.961196 0.178775
0.975723 0.946151 0.306477
0.00112917 1 0.000274662
0.00340276 0.999985 0.000274662
0.0056611 0.999969 0.000274662
0.00793469 0.999954 0.000259403
0.0099031 0.999954 0.000259403
