Luts/Fujifilm/FLog2C_to_PRO-Neg_Std_VLog.cube
TITLE "Generated by Resolve"
LUT_3D_SIZE 9
0 0 0
0.0178836 0.00422675 0.00370794
0.260838 0.0316777 0.073579
0.835691 0.0720836 0.283574
0.966094 0.257221 0.484733
0.966094 0.257221 0.484733
0.966232 0.260853 0.48217
0.971511 0.369726 0.401389
0.973754 0.525795 0.251865
0.00163272 0.012192 0.000411994
0.00836194 0.00225834 0.00062562
0.172992 0.0243229 0.0497902
0.639216 0.0509804 0.179446
0.95349 0.145586 0.44947
0.966094 0.257221 0.484733
0.967346 0.282521 0.466392
0.971344 0.382055 0.391302
0.973968 0.530709 0.246204
0.0208133 0.165408 0.000640879
0.0157778 0.10634 0.000564584
0.104936 0.0893416 0.00262455
0.431189 0.10013 0.0787366
0.940963 0.132845 0.348608
0.967987 0.27747 0.470771
0.968521 0.312306 0.446784
0.971817 0.39617 0.379065
0.974166 0.536599 0.2392
0.0148623 0.48716 0.000183108
0.0223697 0.347967 0.000717174
0.0576028 0.303334 0.000335698
0.33785 0.28838 0.000885023
0.816724 0.317388 0.0812543
0.972015 0.383993 0.381811
0.971115 0.384543 0.389578
0.972717 0.434836 0.345586
0.974502 0.55346 0.218219
0.00750744 0.762234 1.5259e-05
0.00875868 0.723995 0.000411994
0.00929274 0.694728 0.00030518
0.251301 0.654459 0.000335698
0.700465 0.62327 4.57771e-05
0.967666 0.600214 0.0433051
0.974273 0.54052 0.234562
0.974075 0.535958 0.238972
0.97261 0.604807 0.1505
0 0.996933 0.000320439
1.5259e-05 0.996201 0.000335698
0 0.989166 9.15541e-05
0.104509 0.972503 0.000411994
0.573343 0.932097 0
0.955612 0.879057 0
0.963745 0.786038 0.000396735
0.966415 0.736263 9.15541e-05
0.965942 0.731365 0.000900282
0.00794995 0.999832 0.000534066
0.0108034 0.999771 0.000640879
0.0220645 0.999741 0.000762951
0.144701 0.999939 0.00120546
0.427787 0.999313 7.62951e-05
0.807736 0.999969 0.000137331
0.954925 0.962768 0
0.957198 0.911925 0
0.957443 0.880079 0.000198367
0.262562 0.999542 0.000656138
0.271183 0.999512 0.000686656
0.281758 0.999496 0.000717174
0.310124 0.999496 0.00062562
0.395117 0.999542 0.000106813
0.616007 0.999878 0.000457771
0.917601 0.999619 0.000106813
0.9505 0.999695 0.000671397
0.952331 1 0
0.661631 0.999496 9.15541e-05
0.663401 0.999481 7.62951e-05
0.665461 0.999481 6.10361e-05
0.671107 0.999466 4.57771e-05
0.688426 0.999512 0.000183108
0.741726 0.999741 0.000549325
0.855924 0.999344 9.15541e-05
0.9505 0.999695 0.000671397
0.9505 0.999695 0.000671397
0 0 0
0.0109255 0.00282292 0.00161746
0.238712 0.029099 0.0665446
0.80766 0.0685893 0.263706
0.966094 0.257221 0.484733
0.966094 0.257221 0.484733
0.96553 0.261402 0.482063
0.971511 0.369894 0.401236
0.973754 0.525902 0.251728
0.00390631 0.0168154 0.018555
0.000442512 0.000381476 9.15541e-05
0.153552 0.020676 0.0446021
0.59202 0.0502022 0.164874
0.950484 0.130297 0.44387
0.966094 0.257221 0.484733
0.967453 0.284031 0.466346
0.971328 0.382239 0.39115
0.973968 0.530831 0.246067
0.023682 0.186206 0.014374
0.0157626 0.115129 0
0.0934157 0.0948806 0.00137331
0.403159 0.105409 0.0648814
0.930022 0.139727 0.320562
0.967147 0.283986 0.465522
0.968475 0.312749 0.446418
0.971817 0.396353 0.378897
0.974166 0.536721 0.239048
0.0141756 0.52079 7.62951e-05
0.0205997 0.371054 7.62951e-05
0.0407111 0.313619 0.000213626
0.312001 0.298116 1.5259e-05
0.792599 0.326741 0.0555123
0.970184 0.387472 0.365438
0.971756 0.386892 0.387778
0.972717 0.434943 0.34548
0.974502 0.55346 0.218219
0.00637827 0.781048 0.000228885
0.00862135 0.742077 0.000213626
0.0104982 0.710628 0.000396735
0.214969 0.668513 9.15541e-05
0.673991 0.637018 6.10361e-05
0.966659 0.616556 0.0173342
0.973648 0.543435 0.232059
0.974075 0.535958 0.238972
0.97261 0.604807 0.1505
0 0.998505 0.000289921
1.5259e-05 0.997757 0.00030518
0 0.997101 0.000335698
0.0428016 0.985733 0.000259403
0.522545 0.944152 0.000320439
0.945769 0.888472 1.5259e-05
0.962615 0.788815 0.000244144
0.966415 0.736263 9.15541e-05
0.965942 0.731365 0.000900282
0 1 0.000289921
0 1 0.000289921
0.00260929 1 0.000320439
0.0408942 0.999969 0.000747692
0.32192 0.999832 0.000244144
0.756283 0.999619 0
0.954574 0.973846 1.5259e-05
0.957198 0.911925 0
0.957443 0.880079 0.000198367
0.212222 0.999969 0.000274662
0.220768 0.999969 0.000274662
0.231739 0.999985 0.000289921
0.260655 0.999985 0.000320439
0.344839 0.999939 0.000503548
0.55523 0.999969 0.000656138
0.876249 0.999603 0
0.9505 0.999695 0.000671397
0.952331 1 0
0.65272 0.999435 0.000396735
0.654658 0.99942 0.000396735
0.656703 0.999405 0.000396735
0.662287 0.99939 0.000396735
0.679271 0.999451 0.000335698
0.731868 0.999619 0.000122072
0.84773 0.999847 0.000183108
0.9505 0.999695 0.000671397
0.9505 0.999695 0.000671397
0.00537118 0.00109865 0.0753948
0.00628672 0.00167849 0.0534066
0.21236 0.024506 0.0750134
0.76347 0.0633097 0.237201
0.965469 0.252354 0.483467
0.966094 0.257221 0.484733
0.966369 0.270481 0.475074
0.971511 0.379705 0.393591
0.97377 0.526024 0.251591
0.0134737 0.015671 0.124559
0.00636301 0.00265507 0.0832837
0.143801 0.0139925 0.0933242
0.539605 0.042298 0.174304
0.946609 0.106981 0.43212
0.966094 0.257221 0.484733
0.967681 0.299855 0.455604
0.971008 0.391653 0.384787
0.973968 0.530831 0.246067
0.0334783 0.216648 0.223423
0.025864 0.134432 0.130159
0.0967727 0.102861 0.104768
0.392554 0.105547 0.147341
0.89572 0.143374 0.32961
0.967651 0.29659 0.458427
0.970428 0.329381 0.432563
0.971893 0.406638 0.371237
0.974166 0.536721 0.239048
0.026627 0.559579 0.200397
0.0246128 0.42089 0.104219
0.0291142 0.35787 0.0738537
0.312505 0.3205 0.083772
0.773678 0.329625 0.18056
0.972519 0.393851 0.391791
0.971725 0.406897 0.369955
0.971801 0.447303 0.334707
0.974502 0.553582 0.218067
0.00805676 0.812009 0.000534066
0.0100099 0.77818 0.000518807
0.0113069 0.748363 0.00047303
0.178073 0.70103 0.000366217
0.649195 0.654917 0.000335698
0.974304 0.628946 0.166705
0.975082 0.569253 0.259785
0.973678 0.550256 0.222217
0.97261 0.604807 0.1505
0 0.999954 0.00030518
0 0.999771 0.000366217
0 0.998978 0.000320439
0.00579843 0.996979 0.000320439
0.464668 0.960586 1.5259e-05
0.912291 0.903212 1.5259e-05
0.968582 0.80589 0.0149081
0.964782 0.754513 1.5259e-05
0.965942 0.731365 0.000900282
0 1 0.000289921
0 1 0.000289921
0 1 0.000289921
0 1 0.000289921
0.250736 0.999939 0.00030518
0.713619 0.999756 1.5259e-05
0.953658 0.988174 1.5259e-05
0.955886 0.925322 7.62951e-05
0.957443 0.880079 0.000198367
0.181674 0.999466 3.0518e-05
0.190448 0.999451 3.0518e-05
0.201434 0.99942 3.0518e-05
0.230655 0.99942 9.15541e-05
0.317174 0.999451 0.000396735
0.525994 0.999908 0.000595102
0.853223 0.999329 0.000106813
0.9505 0.999695 0.000671397
0.952331 1 0
0.644282 0.999771 1.5259e-05
0.646052 0.999771 1.5259e-05
0.648081 0.999771 1.5259e-05
0.653681 0.999771 1.5259e-05
0.67071 0.999695 1.5259e-05
0.723308 0.999405 0
0.839521 0.999573 1.5259e-05
0.9505 0.999695 0.000671397
0.9505 0.999695 0.000671397
0.0189975 0.00303655 0.214252
0.0157321 0.00195315 0.168017
0.221042 0.0154726 0.179049
0.739178 0.0407874 0.320439
0.964965 0.24445 0.500496
0.969512 0.26183 0.520775
0.97026 0.294255 0.528008
0.975357 0.409964 0.445945
0.973495 0.554208 0.217014
0.0363622 0.0112154 0.33048
0.0258183 0.00340276 0.24271
0.153307 0.0091249 0.222736
0.522362 0.0146792 0.316732
0.94873 0.0676585 0.551858
0.972473 0.274022 0.569223
0.975158 0.323232 0.52929
0.975052 0.423011 0.441794
0.973465 0.559045 0.210773
0.0438544 0.245899 0.543465
0.0387579 0.152422 0.375616
0.111269 0.110384 0.299779
0.410483 0.100969 0.328496
0.881346 0.124269 0.490318
0.977066 0.327398 0.575158
0.975967 0.356191 0.525231
0.976272 0.437354 0.435935
0.973312 0.565118 0.20296
0.037171 0.587045 0.583597
0.0362554 0.45716 0.445136
0.0358434 0.391424 0.378164
0.328161 0.338109 0.351232
0.772091 0.327764 0.409857
0.97995 0.403479 0.548363
0.980926 0.430472 0.512657
0.978485 0.476967 0.420691
0.97258 0.583719 0.17911
0.0209964 0.816556 0.400183
0.0217899 0.785153 0.360403
0.023331 0.758572 0.332464
0.163104 0.71191 0.297581
0.644144 0.658351 0.299458
0.98497 0.627192 0.417441
0.985031 0.579721 0.464317
0.980926 0.576776 0.371542
0.971344 0.637263 0.102983
0.000183108 0.999817 0.0809949
0.000244144 0.999359 0.0750744
0.000259403 0.998779 0.0670634
0.00108339 0.99675 0.0531472
0.422751 0.97908 0.0463874
0.898116 0.922835 0.131456
0.980087 0.798459 0.318563
0.9776 0.757534 0.233661
0.966674 0.762295 0.000122072
0 1 0.000289921
0 1 0.000289921
0 1 0.000289921
0 1 0.000289921
0.183948 0.999496 4.57771e-05
0.656428 0.999466 0.000244144
0.957382 0.999298 0
0.960906 0.951812 0.00015259
0.957427 0.900099 4.57771e-05
0.16878 0.999878 0.000289921
0.176379 0.999863 0.000274662
0.185794 0.999847 0.000244144
0.212314 0.999863 0.000183108
0.292165 0.999924 7.62951e-05
0.49276 0.999283 0.000274662
0.818524 0.999924 4.57771e-05
0.9505 0.999695 0.000671397
0.950866 0.999649 0.000381476
0.632654 0.999847 1.5259e-05
0.634424 0.999847 1.5259e-05
0.636286 0.999847 1.5259e-05
0.641688 0.999863 1.5259e-05
0.658946 0.999863 0.000122072
0.712215 0.999863 0.000411994
0.824842 0.999512 7.62951e-05
0.950454 0.99968 0.000656138
0.9505 0.999695 0.000671397
0.0466926 0.00782788 0.485908
0.0402533 0.00560006 0.407187
0.254246 0.00697337 0.374456
0.736339 0.00015259 0.512291
0.969162 0.203571 0.624323
0.976577 0.266865 0.644511
0.979171 0.31841 0.651484
0.986175 0.442771 0.617777
0.987228 0.57969 0.499901
0.0854963 0.0131685 0.705989
0.0662852 0.00929274 0.579034
0.176883 0.00518807 0.496071
0.525032 3.0518e-05 0.556252
0.946746 0.00047303 0.745083
0.978576 0.269535 0.684489
0.983948 0.351415 0.657435
0.986694 0.453803 0.617868
0.987472 0.584329 0.498024
0.0535134 0.261295 0.903563
0.0538491 0.165255 0.741848
0.138689 0.114641 0.633844
0.446265 0.0855726 0.628122
0.873533 0.101381 0.717693
0.983474 0.31841 0.702571
0.984695 0.387869 0.663783
0.988098 0.46685 0.616587
0.987503 0.589822 0.495918
0.0467536 0.596689 0.907301
0.0473487 0.479393 0.804547
0.0476387 0.416831 0.740353
0.353994 0.35462 0.696223
0.780453 0.319936 0.703593
0.989136 0.398001 0.731563
0.989563 0.465431 0.673213
0.988861 0.503609 0.613794
0.987152 0.605509 0.490379
0.0294652 0.816999 0.787686
0.031342 0.789471 0.758526
0.031754 0.763622 0.731411
0.154849 0.717357 0.693233
0.643351 0.657649 0.673304
0.995987 0.618326 0.706172
0.994476 0.596353 0.665721
0.991867 0.590951 0.596155
0.988006 0.650339 0.471427
0.0115511 0.984619 0.609339
0.0117494 0.981033 0.602731
0.0116579 0.976883 0.595163
0.0126955 0.964675 0.579751
0.379416 0.942504 0.567147
0.876707 0.892012 0.564248
0.989136 0.79086 0.602457
0.987747 0.751064 0.537728
0.983429 0.755337 0.410086
9.15541e-05 0.999725 0.292424
9.15541e-05 0.999817 0.291814
9.15541e-05 0.999908 0.291127
9.15541e-05 0.999893 0.291279
0.16321 0.999802 0.299474
0.607721 0.999695 0.28719
0.970474 0.999008 0.338079
0.977142 0.938628 0.34966
0.97467 0.916411 0.224414
0.229633 0.99968 0.18085
0.23473 0.999695 0.178897
0.24155 0.99971 0.175631
0.260945 0.999756 0.166629
0.32105 0.999893 0.139208
0.485649 0.999313 0.0668498
0.783688 0.999802 7.62951e-05
0.957244 0.999847 0.0358434
0.951675 0.999771 0.00344854
0.634058 0.999847 0.373495
0.635569 0.999847 0.373053
0.637278 0.999863 0.37229
0.642237 0.999863 0.370153
0.657511 0.999863 0.364141
0.705211 0.999847 0.344594
0.818448 0.999985 0.293797
0.964706 0.999725 0.180636
0.952682 0.999634 0.0134432
0.100328 0.0349737 0.836362
0.0880598 0.0231785 0.81117
0.265553 0.00454719 0.758511
0.66688 0.00015259 0.812741
0.963287 0.000213626 0.946838
0.979156 0.19379 0.818036
0.985565 0.294728 0.794888
0.992584 0.442786 0.764096
0.996185 0.602747 0.721645
0.164874 0.0714885 0.92929
0.137469 0.0520333 0.885771
0.19266 0.0210727 0.882765
0.528542 0.000122072 0.931456
0.909438 0.000411994 0.983307
0.98439 0.233097 0.850217
0.989044 0.327321 0.801617
0.993393 0.455848 0.76495
0.996063 0.606561 0.721218
0.141222 0.26041 0.99971
0.12639 0.185428 0.999832
0.15996 0.118776 0.985473
0.474388 0.0759442 0.9832
0.860716 0.0755169 0.988968
0.988006 0.255146 0.892958
0.991043 0.361303 0.807218
0.994583 0.470985 0.765759
0.996078 0.611063 0.720897
0.053254 0.542763 0.999832
0.0555276 0.482963 0.999847
0.0621958 0.424598 0.999969
0.374777 0.358602 0.996201
0.78529 0.305882 0.990738
0.998047 0.349233 0.955245
0.994354 0.442649 0.814313
0.996216 0.511147 0.76965
0.99617 0.623941 0.719982
0.0378424 0.767254 0.999802
0.0388342 0.753033 0.99704
0.0391394 0.737743 0.991119
0.165316 0.70782 0.978378
0.645029 0.652247 0.975601
0.99826 0.589883 0.963775
0.999573 0.594553 0.822843
0.998245 0.607034 0.776074
0.994797 0.662623 0.715434
0.0208286 0.932937 0.892302
0.0227207 0.928893 0.887922
0.0229648 0.924834 0.884321
0.0216526 0.916716 0.873182
0.332891 0.898344 0.872389
0.841871 0.852979 0.866133
0.996643 0.784634 0.824018
0.995865 0.747997 0.768902
0.993591 0.748409 0.696971
0.00852979 0.999832 0.697856
0.00862135 0.999771 0.697124
0.00869764 0.999725 0.696498
0.00839246 0.999878 0.692805
0.0312963 0.999847 0.686992
0.528817 0.999863 0.698207
0.961639 0.976028 0.711009
0.986664 0.910185 0.694072
0.985962 0.88835 0.618647
0.160525 0.999802 0.624598
0.168261 0.999786 0.623987
0.178119 0.999771 0.623117
0.206516 0.999741 0.620691
0.291463 0.999634 0.614862
0.491203 0.999817 0.602258
0.76704 0.999786 0.54847
0.974365 0.999832 0.493599
0.972381 0.999573 0.390509
0.613535 0.999634 0.724575
0.615686 0.999634 0.724361
0.617548 0.999619 0.724254
0.623621 0.999603 0.723888
0.64181 0.999588 0.723369
0.698161 0.999557 0.721752
0.808881 0.99971 0.709361
0.975174 0.999588 0.647761
0.973663 0.999832 0.466651
0.180575 0.0809644 0.953109
0.177325 0.0806287 0.951705
0.173022 0.0808728 0.948638
0.513283 0.0408484 0.999847
0.880766 0.000167849 0.999786
0.98706 0.107805 0.999573
0.994095 0.270207 0.976883
0.998749 0.40621 0.926589
0.999771 0.576883 0.873854
0.194049 0.0886702 0.970794
0.18938 0.0837262 0.964263
0.182376 0.0805524 0.956573
0.479973 0.0517281 0.999542
0.850126 0.00546273 0.99942
0.990478 0.133394 0.999649
0.995941 0.296437 0.980072
0.999115 0.418738 0.927016
0.999786 0.581476 0.873716
0.209201 0.193805 0.999191
0.198932 0.172885 0.999603
0.186847 0.14815 0.999969
0.440253 0.117037 0.99913
0.829007 0.0839094 0.999298
0.994705 0.169406 0.99968
0.997452 0.326314 0.982086
0.999557 0.433188 0.927596
0.999786 0.58703 0.873549
0.163302 0.391424 0.999847
0.153201 0.362539 0.99968
0.147631 0.343877 0.99968
0.361501 0.333318 0.999664
0.762402 0.296468 0.999756
0.999802 0.277897 0.999207
0.999924 0.398505 0.984161
0.999756 0.470954 0.927993
0.999817 0.602487 0.873045
0.0475471 0.63299 1
0.0489357 0.624674 0.999802
0.0521706 0.616342 0.999847
0.225711 0.606378 0.999908
0.596277 0.588113 0.999908
0.972366 0.530587 0.999329
0.999634 0.542885 0.981414
0.999481 0.564477 0.92575
0.999817 0.646525 0.870436
0.0302434 0.845212 0.987671
0.0298009 0.84303 0.988098
0.0307317 0.840635 0.989212
0.0474403 0.833494 0.99205
0.349157 0.823209 0.999817
0.787106 0.794583 0.999435
0.999664 0.740795 0.989212
0.999603 0.722866 0.912947
0.998779 0.740139 0.867628
0.0139773 0.996414 0.926436
0.0139467 0.996078 0.927108
0.0139315 0.995636 0.92784
0.0142977 0.993881 0.928176
0.0143893 0.988739 0.931289
0.458549 0.972656 0.949722
0.92108 0.931517 0.942275
0.993439 0.887266 0.899168
0.993179 0.866056 0.856428
0.0200961 0.999908 0.899733
0.0205386 0.999924 0.899138
0.0212406 0.999924 0.898299
0.0413367 0.999939 0.896422
0.136828 0.999878 0.891402
0.372183 0.999878 0.877256
0.736034 0.999649 0.846494
0.988418 0.999512 0.812085
0.985199 0.99913 0.760357
0.501976 0.999741 0.950866
0.503731 0.999741 0.950896
0.506188 0.999741 0.950957
0.512856 0.999741 0.950896
0.534707 0.999725 0.949996
0.601801 0.999664 0.947173
0.759426 0.999695 0.930419
0.959258 0.999542 0.907301
0.988891 0.999634 0.818402
0.13196 0.476814 0.999786
0.149966 0.430762 0.999847
0.209003 0.206455 0.999847
0.268208 0.0754406 0.997696
0.63386 0.0490883 0.999268
0.99025 0.0894636 0.999023
0.999939 0.252506 0.99971
0.999878 0.356298 0.998566
0.999939 0.518029 0.999863
0.103349 0.532219 0.999451
0.142321 0.450202 0.999939
0.20267 0.246448 0.999939
0.26865 0.0944991 0.998489
0.61619 0.0839551 0.999329
0.986984 0.127199 0.999374
0.999878 0.269398 0.999847
0.999817 0.366949 0.998688
0.999908 0.522286 0.999847
0.0653544 0.58938 1
0.137911 0.46421 0.999985
0.19237 0.291325 0.999908
0.271031 0.143038 0.999176
0.59707 0.134173 0.999268
0.972427 0.170336 0.999863
0.999878 0.289342 0.999908
0.999664 0.379248 0.998871
0.999863 0.527443 0.999863
0.0449073 0.67892 0.999847
0.115663 0.511009 1
0.160021 0.406332 0.99971
0.272938 0.275853 0.999374
0.55346 0.258152 0.999863
0.932143 0.274601 0.999542
0.999725 0.345281 0.999847
0.99968 0.412558 0.999222
0.999725 0.542229 0.999863
0.0432593 0.693049 0.999863
0.046891 0.649836 0.999939
0.0597696 0.609354 0.999969
0.203235 0.534127 0.99968
0.49221 0.466529 0.999649
0.840589 0.471687 0.999847
0.999832 0.456489 0.999481
0.999847 0.496513 0.999557
0.999893 0.586023 0.999054
0.0322728 0.843336 0.988159
0.0314183 0.835065 0.990295
0.0314946 0.825895 0.992187
0.0473487 0.800855 0.997848
0.338338 0.749905 0.999878
0.705928 0.697551 0.999802
0.997894 0.678767 0.99942
0.999634 0.656123 0.999466
0.999771 0.683101 0.999649
0.0144198 0.992798 0.928328
0.0144656 0.991241 0.929366
0.0145418 0.989517 0.930541
0.0160372 0.983963 0.932967
0.0423896 0.967346 0.945205
0.463066 0.925612 0.993286
0.863951 0.870283 0.999496
0.99826 0.837354 0.999176
0.998535 0.827222 0.996002
0.0144503 0.999573 0.922988
0.0144503 0.999573 0.922988
0.0144503 0.999573 0.922988
0.0209049 0.999619 0.923644
0.0538186 0.999863 0.927047
0.277073 0.999786 0.941787
0.661219 0.999756 0.965301
0.986053 0.995254 0.995377
0.994904 0.973846 0.969192
0.450294 0.999924 0.953246
0.452323 0.999924 0.953399
0.454658 0.999924 0.953552
0.461967 0.999924 0.95404
0.483406 0.999924 0.955352
0.548699 0.999924 0.959381
0.707866 0.999847 0.96791
0.929397 0.998322 0.987411
0.999863 0.999985 0.999725
0.0229038 0.916045 0.964416
0.0229038 0.916167 0.964355
0.0343633 0.809201 0.994965
0.0465705 0.654322 0.999725
0.393256 0.50695 0.999817
0.749325 0.380911 0.999878
0.999924 0.277134 0.999207
0.999939 0.302541 0.999435
0.999786 0.429236 0.999481
0.0225071 0.9243 0.960723
0.0224918 0.924437 0.960662
0.0347753 0.807126 0.998047
0.0461433 0.664424 0.999695
0.388357 0.520409 0.999893
0.744869 0.397009 0.99968
0.999939 0.293629 0.999222
0.999939 0.310475 0.999374
0.999786 0.432639 0.999466
0.021149 0.933471 0.957107
0.0235294 0.919707 0.961913
0.0343328 0.805417 0.996918
0.0452125 0.675212 0.999771
0.380941 0.536278 0.999741
0.739467 0.416419 0.999435
0.999954 0.312612 0.999191
0.999924 0.319677 0.999313
0.999771 0.436866 0.999435
0.01738 0.958846 0.946883
0.0273442 0.881697 0.978683
0.0342107 0.80679 0.997909
0.0420386 0.705882 0.999557
0.360662 0.580407 0.999359
0.724712 0.468681 0.999283
0.999954 0.363989 0.998978
0.999939 0.344778 0.99913
0.999756 0.448585 0.999359
0.024506 0.894469 0.972778
0.0306401 0.861082 0.98294
0.0315251 0.833112 0.991409
0.0372931 0.77554 0.999512
0.299062 0.684916 0.999786
0.69221 0.588327 0.999542
0.996796 0.485451 0.999466
0.999954 0.416999 0.999847
0.999939 0.485603 0.99968
0.0225681 0.927626 0.960021
0.0233921 0.919646 0.963439
0.0237736 0.910872 0.966171
0.0267643 0.888899 0.976211
0.123461 0.843458 0.994079
0.602564 0.769696 0.999832
0.925902 0.695445 0.999817
0.999527 0.592233 0.99942
0.99971 0.589593 0.99971
0.0139467 0.999573 0.91928
0.0141451 0.999725 0.919478
0.014374 0.999908 0.919707
0.0145113 0.999573 0.920348
0.0137942 0.998123 0.926055
0.31342 0.963745 0.967514
0.811994 0.898985 0.999741
0.999405 0.83003 0.999969
0.999741 0.771038 0.999527
0.0144503 0.999573 0.922988
0.0144503 0.999573 0.922988
0.0144503 0.999573 0.922988
0.0144503 0.999573 0.922988
0.0144503 0.999573 0.922988
0.19556 0.999863 0.937102
0.603037 0.999924 0.962478
0.960113 0.99855 0.992081
0.995865 0.969741 0.999908
0.387106 0.999695 0.948821
0.389151 0.999695 0.948943
0.39202 0.999695 0.949111
0.399588 0.999695 0.949554
0.42211 0.999695 0.950912
0.491402 0.99971 0.955093
0.660517 0.999802 0.965408
0.902586 0.998138 0.985245
1 1 1
