Luts/Fujifilm/FLog2C_to_FLog2C-709_VLog.cube
TITLE "Generated by Resolve"
#LUMIXPHOTOSTYLE VLOG
LUT_3D_SIZE 5
0 0 0
0.321706 0 0
0.672663 0 0
0.975067 0.0987259 0
1 0.463218 0
0 0.265568 0
0.229709 0.239292 0
0.613489 0.184878 0
0.957275 0.227161 0
1 0.472343 0
0 0.535088 0
0.005066 0.527001 0
0.479576 0.501793 0
0.893538 0.460426 0
1 0.524605 0
0.0703899 0.805341 0
0.127092 0.804288 0
0.327596 0.798138 0
0.737606 0.770687 0
1 0.734218 0
0.459922 1 0
0.462699 1 0
0.479515 1 0
0.612894 1 0
0.990662 1 0
0 0 0.251972
0.316869 0 0.250111
0.670405 0 0.24332
0.973526 0.0688487 0.168276
1 0.463432 0
0 0.248844 0.232532
0.21854 0.221866 0.228473
0.61033 0.161685 0.219883
0.955764 0.210285 0.154726
1 0.47245 0
0 0.525765 0.173449
0.00296025 0.51754 0.17142
0.476051 0.492058 0.162966
0.892042 0.451362 0.10045
1 0.524605 0
0.0629587 0.798489 0.039704
0.114885 0.79736 0.038819
0.322377 0.79115 0.031693
0.735485 0.764477 0
1 0.734218 0
0.458167 1 0.0563973
0.46096 1 0.0561074
0.477836 1 0.0533761
0.611521 1 0.0242466
0.989746 1 0
0 0 0.518074
0.303929 0 0.517281
0.66215 0 0.514366
0.967453 0.00332647 0.492119
1 0.428962 0.417594
0 0.213336 0.507607
0.18851 0.18085 0.506416
0.599359 0.104097 0.502785
0.950088 0.152316 0.487144
1 0.438895 0.416541
0 0.503105 0.481621
0 0.494484 0.480934
0.463874 0.468421 0.477241
0.886915 0.422889 0.469032
1 0.494469 0.409964
0.045594 0.783719 0.431205
0.0851911 0.782696 0.431067
0.310033 0.776379 0.43003
0.730144 0.748241 0.423331
1 0.712856 0.37612
0.452155 1 0.369039
0.454994 1 0.369009
0.471901 1 0.368521
0.606821 1 0.364401
0.986999 1 0.323323
0 0.098558 0.782544
0.0590677 0.0513466 0.781933
0.581674 0 0.779706
0.942077 0.0108797 0.771221
1 0.381872 0.745953
0 0.253864 0.778424
0 0.225559 0.777752
0.546761 0.152392 0.77586
0.928878 0.124636 0.768933
1 0.39234 0.745357
0 0.475944 0.76527
0 0.466438 0.764889
0.436011 0.437476 0.763592
0.873091 0.386236 0.759213
1 0.451713 0.741741
0.0106966 0.757839 0.735103
0.024033 0.756695 0.735027
0.283101 0.750118 0.734569
0.717128 0.721599 0.7308
1 0.681254 0.722698
0.437079 1 0.688411
0.44004 1 0.688411
0.457786 1 0.688319
0.595987 1 0.687282
0.981933 0.997299 0.681193
0 0.472145 1
0 0.462989 1
0.312139 0.417624 1
0.841505 0.352316 1
1 0.39823 1
0 0.48452 1
0 0.472755 1
0.304387 0.430655 1
0.836973 0.367208 1
1 0.405371 1
0 0.538048 1
0 0.528481 1
0.261234 0.500587 1
0.81033 0.444526 1
1 0.448356 1
0 0.733608 1
0 0.732494 1
0.192645 0.725597 1
0.690669 0.694499 1
1 0.650324 0.999878
0.409354 1 0.989075
0.412543 1 0.989059
0.431434 1 0.989013
0.57644 0.998703 0.988525
0.970718 0.975433 0.98471
