Luts/Fujifilm/FLog2C_to_ACROS_VLog.cube
TITLE "Generated by Resolve"
LUT_3D_SIZE 33
0.000106813 0.000106813 0.000106813
0.000106813 0.000106813 0.000106813
0.000106813 0.000106813 0.000106813
0.000106813 0.000106813 0.000106813
0.000106813 0.000106813 0.000106813
0.000106813 0.000106813 0.000106813
0.00262455 0.00262455 0.00262455
0.013611 0.013611 0.013611
0.0303349 0.0303349 0.0303349
0.055375 0.055375 0.055375
0.0974899 0.0974899 0.0974899
0.145785 0.145785 0.145785
0.205188 0.205188 0.205188
0.274006 0.274006 0.274006
0.356039 0.356039 0.356039
0.44007 0.44007 0.44007
0.507088 0.507088 0.507088
0.556802 0.556802 0.556802
0.558587 0.558587 0.558587
0.558587 0.558587 0.558587
0.558587 0.558587 0.558587
0.558587 0.558587 0.558587
0.558587 0.558587 0.558587
0.558587 0.558587 0.558587
0.568887 0.568887 0.568887
0.585 0.585 0.585
0.604181 0.604181 0.604181
0.624857 0.624857 0.624857
0.646387 0.646387 0.646387
0.668894 0.668894 0.668894
0.691264 0.691264 0.691264
0.714046 0.714046 0.714046
0.739681 0.739681 0.739681
0.000106813 0.000106813 0.000106813
0.000106813 0.000106813 0.000106813
0.000106813 0.000106813 0.000106813
0.000106813 0.000106813 0.000106813
0.000106813 0.000106813 0.000106813
0.000106813 0.000106813 0.000106813
0.00468452 0.00468452 0.00468452
0.0158541 0.0158541 0.0158541
0.0326238 0.0326238 0.0326238
0.058732 0.058732 0.058732
0.100618 0.100618 0.100618
0.148318 0.148318 0.148318
0.207523 0.207523 0.207523
0.276051 0.276051 0.276051
0.357916 0.357916 0.357916
0.440864 0.440864 0.440864
0.507836 0.507836 0.507836
0.557031 0.557031 0.557031
0.558587 0.558587 0.558587
0.558587 0.558587 0.558587
0.558587 0.558587 0.558587
0.558587 0.558587 0.558587
0.558587 0.558587 0.558587
0.559731 0.559731 0.559731
0.573175 0.573175 0.573175
0.588357 0.588357 0.588357
0.607019 0.607019 0.607019
0.627115 0.627115 0.627115
0.64802 0.64802 0.64802
0.670222 0.670222 0.670222
0.692256 0.692256 0.692256
0.714778 0.714778 0.714778
0.740261 0.740261 0.740261
0.000106813 0.000106813 0.000106813
0.000106813 0.000106813 0.000106813
0.000106813 0.000106813 0.000106813
0.000106813 0.000106813 0.000106813
0.000106813 0.000106813 0.000106813
0.000106813 0.000106813 0.000106813
0.00683604 0.00683604 0.00683604
0.0180209 0.0180209 0.0180209
0.035111 0.035111 0.035111
0.06215 0.06215 0.06215
0.103456 0.103456 0.103456
0.150134 0.150134 0.150134
0.209934 0.209934 0.209934
0.278111 0.278111 0.278111
0.359762 0.359762 0.359762
0.442039 0.442039 0.442039
0.508583 0.508583 0.508583
0.557321 0.557321 0.557321
0.558587 0.558587 0.558587
0.558587 0.558587 0.558587
0.558587 0.558587 0.558587
0.558587 0.558587 0.558587
0.558587 0.558587 0.558587
0.56434 0.56434 0.56434
0.576974 0.576974 0.576974
0.592111 0.592111 0.592111
0.609766 0.609766 0.609766
0.629313 0.629313 0.629313
0.649668 0.649668 0.649668
0.671519 0.671519 0.671519
0.693263 0.693263 0.693263
0.715572 0.715572 0.715572
0.740841 0.740841 0.740841
0.000106813 0.000106813 0.000106813
0.000106813 0.000106813 0.000106813
0.000106813 0.000106813 0.000106813
0.000106813 0.000106813 0.000106813
0.000106813 0.000106813 0.000106813
0.000274662 0.000274662 0.000274662
0.00883497 0.00883497 0.00883497
0.0206607 0.0206607 0.0206607
0.0375372 0.0375372 0.0375372
0.0654765 0.0654765 0.0654765
0.105852 0.105852 0.105852
0.152682 0.152682 0.152682
0.212329 0.212329 0.212329
0.279957 0.279957 0.279957
0.361639 0.361639 0.361639
0.439536 0.439536 0.439536
0.490349 0.490349 0.490349
0.537758 0.537758 0.537758
0.558373 0.558373 0.558373
0.558587 0.558587 0.558587
0.558587 0.558587 0.558587
0.558587 0.558587 0.558587
0.560128 0.560128 0.560128
0.568826 0.568826 0.568826
0.581003 0.581003 0.581003
0.595285 0.595285 0.595285
0.612421 0.612421 0.612421
0.631449 0.631449 0.631449
0.651316 0.651316 0.651316
0.672786 0.672786 0.672786
0.694255 0.694255 0.694255
0.716289 0.716289 0.716289
0.741421 0.741421 0.741421
0.000106813 0.000106813 0.000106813
0.000106813 0.000106813 0.000106813
0.000106813 0.000106813 0.000106813
0.000106813 0.000106813 0.000106813
0.000106813 0.000106813 0.000106813
0.00209049 0.00209049 0.00209049
0.0108797 0.0108797 0.0108797
0.0231785 0.0231785 0.0231785
0.0386816 0.0386816 0.0386816
0.0653849 0.0653849 0.0653849
0.10277 0.10277 0.10277
0.146136 0.146136 0.146136
0.19707 0.19707 0.19707
0.256382 0.256382 0.256382
0.321447 0.321447 0.321447
0.39852 0.39852 0.39852
0.461234 0.461234 0.461234
0.51342 0.51342 0.51342
0.555749 0.555749 0.555749
0.558587 0.558587 0.558587
0.558587 0.558587 0.558587
0.558907 0.558907 0.558907
0.562768 0.562768 0.562768
0.573465 0.573465 0.573465
0.584848 0.584848 0.584848
0.598413 0.598413 0.598413
0.615015 0.615015 0.615015
0.633539 0.633539 0.633539
0.65301 0.65301 0.65301
0.674037 0.674037 0.674037
0.695186 0.695186 0.695186
0.717021 0.717021 0.717021
0.741939 0.741939 0.741939
0.0113527 0.0113527 0.0113527
0.0116274 0.0116274 0.0116274
0.011902 0.011902 0.011902
0.012192 0.012192 0.012192
0.0124666 0.0124666 0.0124666
0.0110628 0.0110628 0.0110628
0.0144503 0.0144503 0.0144503
0.0228733 0.0228733 0.0228733
0.0330663 0.0330663 0.0330663
0.0525673 0.0525673 0.0525673
0.0842908 0.0842908 0.0842908
0.123812 0.123812 0.123812
0.171725 0.171725 0.171725
0.229068 0.229068 0.229068
0.291035 0.291035 0.291035
0.364279 0.364279 0.364279
0.437201 0.437201 0.437201
0.492256 0.492256 0.492256
0.544396 0.544396 0.544396
0.558587 0.558587 0.558587
0.558587 0.558587 0.558587
0.561563 0.561563 0.561563
0.568185 0.568185 0.568185
0.577798 0.577798 0.577798
0.588708 0.588708 0.588708
0.60145 0.60145 0.60145
0.617517 0.617517 0.617517
0.635569 0.635569 0.635569
0.654658 0.654658 0.654658
0.675288 0.675288 0.675288
0.696193 0.696193 0.696193
0.717754 0.717754 0.717754
0.742519 0.742519 0.742519
0.0258335 0.0258335 0.0258335
0.0261845 0.0261845 0.0261845
0.0265354 0.0265354 0.0265354
0.0269322 0.0269322 0.0269322
0.0272831 0.0272831 0.0272831
0.0224155 0.0224155 0.0224155
0.0246128 0.0246128 0.0246128
0.0304112 0.0304112 0.0304112
0.0398413 0.0398413 0.0398413
0.0539101 0.0539101 0.0539101
0.0803693 0.0803693 0.0803693
0.115404 0.115404 0.115404
0.156359 0.156359 0.156359
0.209155 0.209155 0.209155
0.268421 0.268421 0.268421
0.337652 0.337652 0.337652
0.416236 0.416236 0.416236
0.478096 0.478096 0.478096
0.530861 0.530861 0.530861
0.559274 0.559274 0.559274
0.562173 0.562173 0.562173
0.567071 0.567071 0.567071
0.573312 0.573312 0.573312
0.582238 0.582238 0.582238
0.592233 0.592233 0.592233
0.604395 0.604395 0.604395
0.619974 0.619974 0.619974
0.637568 0.637568 0.637568
0.656306 0.656306 0.656306
0.676509 0.676509 0.676509
0.697139 0.697139 0.697139
0.718441 0.718441 0.718441
0.743038 0.743038 0.743038
0.0437171 0.0437171 0.0437171
0.0440528 0.0440528 0.0440528
0.0443885 0.0443885 0.0443885
0.0447242 0.0447242 0.0447242
0.0447089 0.0447089 0.0447089
0.0369268 0.0369268 0.0369268
0.0375067 0.0375067 0.0375067
0.0415503 0.0415503 0.0415503
0.0495918 0.0495918 0.0495918
0.061738 0.061738 0.061738
0.0842145 0.0842145 0.0842145
0.117174 0.117174 0.117174
0.156283 0.156283 0.156283
0.204059 0.204059 0.204059
0.258183 0.258183 0.258183
0.325246 0.325246 0.325246
0.402975 0.402975 0.402975
0.469139 0.469139 0.469139
0.523415 0.523415 0.523415
0.566445 0.566445 0.566445
0.56936 0.56936 0.56936
0.573785 0.573785 0.573785
0.579843 0.579843 0.579843
0.587091 0.587091 0.587091
0.596475 0.596475 0.596475
0.60798 0.60798 0.60798
0.622873 0.622873 0.622873
0.639979 0.639979 0.639979
0.658244 0.658244 0.658244
0.678019 0.678019 0.678019
0.698299 0.698299 0.698299
0.719341 0.719341 0.719341
0.74374 0.74374 0.74374
0.0694591 0.0694591 0.0694591
0.0697642 0.0697642 0.0697642
0.0701152 0.0701152 0.0701152
0.0704204 0.0704204 0.0704204
0.064622 0.064622 0.064622
0.0555123 0.0555123 0.0555123
0.0533913 0.0533913 0.0533913
0.0568704 0.0568704 0.0568704
0.0631723 0.0631723 0.0631723
0.0732433 0.0732433 0.0732433
0.0926833 0.0926833 0.0926833
0.122286 0.122286 0.122286
0.158618 0.158618 0.158618
0.202136 0.202136 0.202136
0.25594 0.25594 0.25594
0.319646 0.319646 0.319646
0.39881 0.39881 0.39881
0.471168 0.471168 0.471168
0.521935 0.521935 0.521935
0.570367 0.570367 0.570367
0.579385 0.579385 0.579385
0.582208 0.582208 0.582208
0.58732 0.58732 0.58732
0.59321 0.59321 0.59321
0.601801 0.601801 0.601801
0.612604 0.612604 0.612604
0.626932 0.626932 0.626932
0.643091 0.643091 0.643091
0.660807 0.660807 0.660807
0.680003 0.680003 0.680003
0.699855 0.699855 0.699855
0.720516 0.720516 0.720516
0.744656 0.744656 0.744656
0.109865 0.109865 0.109865
0.110307 0.110307 0.110307
0.110643 0.110643 0.110643
0.111009 0.111009 0.111009
0.0922408 0.0922408 0.0922408
0.0788128 0.0788128 0.0788128
0.0738994 0.0738994 0.0738994
0.0758831 0.0758831 0.0758831
0.0811475 0.0811475 0.0811475
0.0890822 0.0890822 0.0890822
0.10457 0.10457 0.10457
0.131441 0.131441 0.131441
0.165042 0.165042 0.165042
0.206775 0.206775 0.206775
0.257771 0.257771 0.257771
0.321263 0.321263 0.321263
0.396429 0.396429 0.396429
0.473075 0.473075 0.473075
0.523995 0.523995 0.523995
0.571237 0.571237 0.571237
0.590738 0.590738 0.590738
0.592782 0.592782 0.592782
0.596628 0.596628 0.596628
0.601267 0.601267 0.601267
0.608789 0.608789 0.608789
0.618509 0.618509 0.618509
0.632181 0.632181 0.632181
0.647227 0.647227 0.647227
0.66421 0.66421 0.66421
0.682643 0.682643 0.682643
0.701915 0.701915 0.701915
0.722103 0.722103 0.722103
0.745861 0.745861 0.745861
0.168826 0.168826 0.168826
0.169345 0.169345 0.169345
0.169696 0.169696 0.169696
0.151003 0.151003 0.151003
0.130983 0.130983 0.130983
0.115602 0.115602 0.115602
0.109804 0.109804 0.109804
0.107362 0.107362 0.107362
0.108873 0.108873 0.108873
0.114 0.114 0.114
0.128298 0.128298 0.128298
0.150423 0.150423 0.150423
0.181033 0.181033 0.181033
0.220264 0.220264 0.220264
0.268757 0.268757 0.268757
0.328511 0.328511 0.328511
0.399878 0.399878 0.399878
0.474891 0.474891 0.474891
0.528969 0.528969 0.528969
0.572564 0.572564 0.572564
0.604562 0.604562 0.604562
0.605386 0.605386 0.605386
0.607706 0.607706 0.607706
0.611261 0.611261 0.611261
0.617334 0.617334 0.617334
0.625986 0.625986 0.625986
0.638621 0.638621 0.638621
0.652491 0.652491 0.652491
0.668635 0.668635 0.668635
0.686091 0.686091 0.686091
0.70457 0.70457 0.70457
0.724178 0.724178 0.724178
0.747494 0.747494 0.747494
0.238025 0.238025 0.238025
0.238437 0.238437 0.238437
0.220188 0.220188 0.220188
0.19411 0.19411 0.19411
0.175036 0.175036 0.175036
0.161151 0.161151 0.161151
0.153201 0.153201 0.153201
0.150866 0.150866 0.150866
0.149859 0.149859 0.149859
0.153353 0.153353 0.153353
0.16376 0.16376 0.16376
0.181598 0.181598 0.181598
0.209201 0.209201 0.209201
0.243519 0.243519 0.243519
0.286732 0.286732 0.286732
0.341909 0.341909 0.341909
0.407874 0.407874 0.407874
0.478416 0.478416 0.478416
0.538262 0.538262 0.538262
0.577722 0.577722 0.577722
0.614633 0.614633 0.614633
0.619852 0.619852 0.619852
0.621363 0.621363 0.621363
0.62324 0.62324 0.62324
0.628061 0.628061 0.628061
0.635798 0.635798 0.635798
0.646342 0.646342 0.646342
0.659266 0.659266 0.659266
0.674266 0.674266 0.674266
0.690593 0.690593 0.690593
0.708202 0.708202 0.708202
0.72694 0.72694 0.72694
0.74963 0.74963 0.74963
0.318334 0.318334 0.318334
0.288396 0.288396 0.288396
0.259144 0.259144 0.259144
0.237415 0.237415 0.237415
0.222477 0.222477 0.222477
0.210666 0.210666 0.210666
0.204044 0.204044 0.204044
0.202518 0.202518 0.202518
0.200549 0.200549 0.200549
0.201266 0.201266 0.201266
0.210193 0.210193 0.210193
0.225559 0.225559 0.225559
0.247303 0.247303 0.247303
0.277455 0.277455 0.277455
0.315419 0.315419 0.315419
0.363394 0.363394 0.363394
0.421546 0.421546 0.421546
0.48719 0.48719 0.48719
0.548806 0.548806 0.548806
0.587304 0.587304 0.587304
0.623423 0.623423 0.623423
0.636927 0.636927 0.636927
0.636194 0.636194 0.636194
0.637766 0.637766 0.637766
0.641032 0.641032 0.641032
0.647578 0.647578 0.647578
0.656687 0.656687 0.656687
0.667994 0.667994 0.667994
0.681315 0.681315 0.681315
0.696406 0.696406 0.696406
0.712902 0.712902 0.712902
0.730449 0.730449 0.730449
0.752392 0.752392 0.752392
0.353063 0.353063 0.353063
0.322255 0.322255 0.322255
0.301549 0.301549 0.301549
0.284031 0.284031 0.284031
0.271305 0.271305 0.271305
0.26183 0.26183 0.26183
0.257557 0.257557 0.257557
0.255619 0.255619 0.255619
0.254337 0.254337 0.254337
0.255619 0.255619 0.255619
0.262196 0.262196 0.262196
0.27451 0.27451 0.27451
0.293355 0.293355 0.293355
0.319112 0.319112 0.319112
0.35169 0.35169 0.35169
0.393042 0.393042 0.393042
0.443717 0.443717 0.443717
0.502052 0.502052 0.502052
0.560922 0.560922 0.560922
0.601801 0.601801 0.601801
0.633738 0.633738 0.633738
0.655283 0.655283 0.655283
0.654658 0.654658 0.654658
0.654948 0.654948 0.654948
0.657115 0.657115 0.657115
0.662013 0.662013 0.662013
0.669367 0.669367 0.669367
0.678676 0.678676 0.678676
0.689967 0.689967 0.689967
0.703761 0.703761 0.703761
0.718807 0.718807 0.718807
0.734997 0.734997 0.734997
0.756024 0.756024 0.756024
0.381033 0.381033 0.381033
0.362295 0.362295 0.362295
0.346746 0.346746 0.346746
0.333761 0.333761 0.333761
0.323781 0.323781 0.323781
0.318502 0.318502 0.318502
0.31606 0.31606 0.31606
0.313802 0.313802 0.313802
0.311467 0.311467 0.311467
0.31371 0.31371 0.31371
0.319478 0.319478 0.319478
0.329351 0.329351 0.329351
0.345907 0.345907 0.345907
0.366903 0.366903 0.366903
0.394308 0.394308 0.394308
0.429816 0.429816 0.429816
0.472709 0.472709 0.472709
0.52343 0.52343 0.52343
0.577829 0.577829 0.577829
0.621592 0.621592 0.621592
0.649058 0.649058 0.649058
0.672969 0.672969 0.672969
0.675959 0.675959 0.675959
0.674846 0.674846 0.674846
0.675349 0.675349 0.675349
0.67895 0.67895 0.67895
0.684077 0.684077 0.684077
0.69131 0.69131 0.69131
0.70132 0.70132 0.70132
0.712963 0.712963 0.712963
0.726406 0.726406 0.726406
0.74081 0.74081 0.74081
0.760678 0.760678 0.760678
0.419577 0.419577 0.419577
0.405982 0.405982 0.405982
0.39472 0.39472 0.39472
0.386252 0.386252 0.386252
0.382208 0.382208 0.382208
0.379675 0.379675 0.379675
0.377981 0.377981 0.377981
0.377096 0.377096 0.377096
0.377172 0.377172 0.377172
0.379263 0.379263 0.379263
0.38439 0.38439 0.38439
0.392264 0.392264 0.392264
0.405768 0.405768 0.405768
0.422461 0.422461 0.422461
0.444389 0.444389 0.444389
0.472908 0.472908 0.472908
0.509651 0.509651 0.509651
0.552682 0.552682 0.552682
0.600107 0.600107 0.600107
0.643717 0.643717 0.643717
0.668971 0.668971 0.668971
0.690639 0.690639 0.690639
0.698604 0.698604 0.698604
0.696529 0.696529 0.696529
0.69572 0.69572 0.69572
0.697459 0.697459 0.697459
0.701045 0.701045 0.701045
0.706142 0.706142 0.706142
0.714275 0.714275 0.714275
0.724193 0.724193 0.724193
0.735882 0.735882 0.735882
0.748211 0.748211 0.748211
0.766598 0.766598 0.766598
0.46009 0.46009 0.46009
0.45211 0.45211 0.45211
0.448661 0.448661 0.448661
0.445914 0.445914 0.445914
0.445167 0.445167 0.445167
0.444556 0.444556 0.444556
0.444175 0.444175 0.444175
0.444205 0.444205 0.444205
0.44564 0.44564 0.44564
0.449271 0.449271 0.449271
0.454551 0.454551 0.454551
0.461189 0.461189 0.461189
0.470222 0.470222 0.470222
0.483162 0.483162 0.483162
0.500603 0.500603 0.500603
0.5243 0.5243 0.5243
0.553292 0.553292 0.553292
0.588571 0.588571 0.588571
0.628748 0.628748 0.628748
0.668605 0.668605 0.668605
0.693721 0.693721 0.693721
0.711131 0.711131 0.711131
0.721386 0.721386 0.721386
0.719539 0.719539 0.719539
0.718318 0.718318 0.718318
0.7187 0.7187 0.7187
0.720073 0.720073 0.720073
0.723796 0.723796 0.723796
0.729183 0.729183 0.729183
0.737255 0.737255 0.737255
0.746838 0.746838 0.746838
0.757473 0.757473 0.757473
0.773739 0.773739 0.773739
0.51107 0.51107 0.51107
0.51014 0.51014 0.51014
0.510079 0.510079 0.510079
0.510307 0.510307 0.510307
0.510979 0.510979 0.510979
0.511681 0.511681 0.511681
0.512627 0.512627 0.512627
0.514076 0.514076 0.514076
0.515846 0.515846 0.515846
0.51809 0.51809 0.51809
0.522438 0.522438 0.522438
0.528222 0.528222 0.528222
0.535592 0.535592 0.535592
0.545586 0.545586 0.545586
0.559838 0.559838 0.559838
0.578393 0.578393 0.578393
0.600351 0.600351 0.600351
0.628244 0.628244 0.628244
0.661585 0.661585 0.661585
0.695994 0.695994 0.695994
0.72137 0.72137 0.72137
0.734493 0.734493 0.734493
0.743999 0.743999 0.743999
0.743999 0.743999 0.743999
0.741924 0.741924 0.741924
0.741024 0.741024 0.741024
0.741421 0.741421 0.741421
0.742916 0.742916 0.742916
0.746807 0.746807 0.746807
0.752682 0.752682 0.752682
0.759625 0.759625 0.759625
0.768917 0.768917 0.768917
0.782818 0.782818 0.782818
0.573663 0.573663 0.573663
0.574548 0.574548 0.574548
0.575891 0.575891 0.575891
0.57705 0.57705 0.57705
0.578012 0.578012 0.578012
0.579065 0.579065 0.579065
0.57995 0.57995 0.57995
0.581338 0.581338 0.581338
0.582849 0.582849 0.582849
0.585061 0.585061 0.585061
0.588403 0.588403 0.588403
0.592279 0.592279 0.592279
0.598077 0.598077 0.598077
0.606226 0.606226 0.606226
0.617105 0.617105 0.617105
0.63183 0.63183 0.63183
0.649943 0.649943 0.649943
0.671138 0.671138 0.671138
0.696529 0.696529 0.696529
0.725902 0.725902 0.725902
0.7514 0.7514 0.7514
0.761593 0.761593 0.761593
0.767422 0.767422 0.767422
0.769497 0.769497 0.769497
0.766796 0.766796 0.766796
0.764736 0.764736 0.764736
0.763958 0.763958 0.763958
0.764416 0.764416 0.764416
0.766659 0.766659 0.766659
0.769879 0.769879 0.769879
0.77525 0.77525 0.77525
0.782483 0.782483 0.782483
0.794247 0.794247 0.794247
0.633982 0.633982 0.633982
0.634897 0.634897 0.634897
0.635798 0.635798 0.635798
0.636713 0.636713 0.636713
0.637766 0.637766 0.637766
0.638682 0.638682 0.638682
0.639582 0.639582 0.639582
0.640711 0.640711 0.640711
0.642451 0.642451 0.642451
0.644907 0.644907 0.644907
0.647913 0.647913 0.647913
0.651225 0.651225 0.651225
0.656687 0.656687 0.656687
0.663844 0.663844 0.663844
0.67303 0.67303 0.67303
0.684016 0.684016 0.684016
0.697581 0.697581 0.697581
0.713817 0.713817 0.713817
0.734554 0.734554 0.734554
0.758404 0.758404 0.758404
0.782284 0.782284 0.782284
0.791913 0.791913 0.791913
0.793622 0.793622 0.793622
0.794797 0.794797 0.794797
0.792264 0.792264 0.792264
0.789441 0.789441 0.789441
0.787518 0.787518 0.787518
0.786923 0.786923 0.786923
0.786923 0.786923 0.786923
0.789014 0.789014 0.789014
0.792386 0.792386 0.792386
0.797711 0.797711 0.797711
0.80798 0.80798 0.80798
0.686488 0.686488 0.686488
0.687343 0.687343 0.687343
0.688212 0.688212 0.688212
0.689113 0.689113 0.689113
0.69015 0.69015 0.69015
0.691035 0.691035 0.691035
0.691997 0.691997 0.691997
0.693172 0.693172 0.693172
0.694652 0.694652 0.694652
0.696742 0.696742 0.696742
0.699321 0.699321 0.699321
0.703014 0.703014 0.703014
0.707927 0.707927 0.707927
0.713756 0.713756 0.713756
0.721325 0.721325 0.721325
0.73106 0.73106 0.73106
0.742138 0.742138 0.742138
0.756008 0.756008 0.756008
0.771908 0.771908 0.771908
0.791836 0.791836 0.791836
0.812375 0.812375 0.812375
0.821408 0.821408 0.821408
0.820462 0.820462 0.820462
0.819867 0.819867 0.819867
0.817426 0.817426 0.817426
0.814084 0.814084 0.814084
0.812192 0.812192 0.812192
0.81059 0.81059 0.81059
0.809766 0.809766 0.809766
0.810162 0.810162 0.810162
0.812039 0.812039 0.812039
0.815366 0.815366 0.815366
0.823026 0.823026 0.823026
0.723507 0.723507 0.723507
0.724926 0.724926 0.724926
0.726253 0.726253 0.726253
0.727565 0.727565 0.727565
0.728695 0.728695 0.728695
0.729839 0.729839 0.729839
0.730953 0.730953 0.730953
0.732341 0.732341 0.732341
0.734112 0.734112 0.734112
0.736446 0.736446 0.736446
0.739208 0.739208 0.739208
0.742718 0.742718 0.742718
0.747417 0.747417 0.747417
0.753613 0.753613 0.753613
0.760723 0.760723 0.760723
0.769741 0.769741 0.769741
0.779919 0.779919 0.779919
0.791806 0.791806 0.791806
0.805402 0.805402 0.805402
0.820386 0.820386 0.820386
0.836728 0.836728 0.836728
0.848051 0.848051 0.848051
0.847349 0.847349 0.847349
0.844739 0.844739 0.844739
0.841657 0.841657 0.841657
0.83859 0.83859 0.83859
0.836072 0.836072 0.836072
0.833906 0.833906 0.833906
0.833112 0.833112 0.833112
0.832761 0.832761 0.832761
0.832944 0.832944 0.832944
0.83444 0.83444 0.83444
0.840406 0.840406 0.840406
0.740795 0.740795 0.740795
0.741817 0.741817 0.741817
0.742794 0.742794 0.742794
0.743862 0.743862 0.743862
0.744961 0.744961 0.744961
0.745998 0.745998 0.745998
0.747005 0.747005 0.747005
0.748272 0.748272 0.748272
0.749935 0.749935 0.749935
0.752117 0.752117 0.752117
0.755001 0.755001 0.755001
0.758801 0.758801 0.758801
0.763668 0.763668 0.763668
0.769863 0.769863 0.769863
0.777493 0.777493 0.777493
0.787305 0.787305 0.787305
0.799039 0.799039 0.799039
0.810819 0.810819 0.810819
0.823911 0.823911 0.823911
0.838972 0.838972 0.838972
0.854353 0.854353 0.854353
0.867048 0.867048 0.867048
0.870542 0.870542 0.870542
0.867338 0.867338 0.867338
0.864057 0.864057 0.864057
0.860731 0.860731 0.860731
0.858701 0.858701 0.858701
0.856596 0.856596 0.856596
0.855207 0.855207 0.855207
0.854704 0.854704 0.854704
0.854322 0.854322 0.854322
0.854292 0.854292 0.854292
0.858824 0.858824 0.858824
0.75465 0.75465 0.75465
0.755428 0.755428 0.755428
0.756161 0.756161 0.756161
0.757015 0.757015 0.757015
0.757763 0.757763 0.757763
0.758618 0.758618 0.758618
0.759365 0.759365 0.759365
0.760342 0.760342 0.760342
0.761624 0.761624 0.761624
0.763302 0.763302 0.763302
0.765515 0.765515 0.765515
0.76846 0.76846 0.76846
0.772229 0.772229 0.772229
0.777111 0.777111 0.777111
0.7832 0.7832 0.7832
0.790768 0.790768 0.790768
0.800473 0.800473 0.800473
0.811399 0.811399 0.811399
0.824857 0.824857 0.824857
0.841154 0.841154 0.841154
0.858106 0.858106 0.858106
0.874876 0.874876 0.874876
0.885939 0.885939 0.885939
0.886076 0.886076 0.886076
0.883055 0.883055 0.883055
0.879927 0.879927 0.879927
0.878447 0.878447 0.878447
0.87715 0.87715 0.87715
0.876051 0.876051 0.876051
0.875166 0.875166 0.875166
0.874723 0.874723 0.874723
0.874281 0.874281 0.874281
0.878202 0.878202 0.878202
0.766018 0.766018 0.766018
0.766598 0.766598 0.766598
0.767147 0.767147 0.767147
0.767758 0.767758 0.767758
0.768322 0.768322 0.768322
0.768902 0.768902 0.768902
0.769467 0.769467 0.769467
0.770199 0.770199 0.770199
0.77116 0.77116 0.77116
0.772412 0.772412 0.772412
0.774044 0.774044 0.774044
0.776181 0.776181 0.776181
0.779034 0.779034 0.779034
0.782818 0.782818 0.782818
0.78764 0.78764 0.78764
0.793774 0.793774 0.793774
0.801389 0.801389 0.801389
0.810376 0.810376 0.810376
0.82211 0.82211 0.82211
0.835386 0.835386 0.835386
0.850584 0.850584 0.850584
0.867399 0.867399 0.867399
0.883955 0.883955 0.883955
0.893599 0.893599 0.893599
0.896071 0.896071 0.896071
0.895308 0.895308 0.895308
0.894423 0.894423 0.894423
0.894545 0.894545 0.894545
0.894026 0.894026 0.894026
0.894224 0.894224 0.894224
0.893507 0.893507 0.893507
0.893355 0.893355 0.893355
0.896529 0.896529 0.896529
0.774227 0.774227 0.774227
0.774624 0.774624 0.774624
0.775113 0.775113 0.775113
0.77554 0.77554 0.77554
0.775967 0.775967 0.775967
0.776394 0.776394 0.776394
0.776837 0.776837 0.776837
0.777401 0.777401 0.777401
0.778088 0.778088 0.778088
0.779034 0.779034 0.779034
0.780377 0.780377 0.780377
0.782025 0.782025 0.782025
0.784222 0.784222 0.784222
0.787198 0.787198 0.787198
0.791058 0.791058 0.791058
0.795972 0.795972 0.795972
0.801694 0.801694 0.801694
0.808835 0.808835 0.808835
0.818448 0.818448 0.818448
0.829435 0.829435 0.829435
0.843183 0.843183 0.843183
0.858 0.858 0.858
0.874418 0.874418 0.874418
0.889143 0.889143 0.889143
0.896269 0.896269 0.896269
0.901793 0.901793 0.901793
0.905577 0.905577 0.905577
0.907042 0.907042 0.907042
0.908522 0.908522 0.908522
0.909392 0.909392 0.909392
0.909575 0.909575 0.909575
0.910399 0.910399 0.910399
0.914351 0.914351 0.914351
0.781277 0.781277 0.781277
0.781613 0.781613 0.781613
0.781949 0.781949 0.781949
0.782284 0.782284 0.782284
0.782574 0.782574 0.782574
0.78291 0.78291 0.78291
0.783246 0.783246 0.783246
0.783612 0.783612 0.783612
0.784161 0.784161 0.784161
0.784833 0.784833 0.784833
0.785794 0.785794 0.785794
0.786999 0.786999 0.786999
0.788632 0.788632 0.788632
0.790784 0.790784 0.790784
0.793622 0.793622 0.793622
0.797345 0.797345 0.797345
0.802045 0.802045 0.802045
0.80798 0.80798 0.80798
0.81532 0.81532 0.81532
0.824643 0.824643 0.824643
0.835874 0.835874 0.835874
