Luts/Fujifilm/FLog2C_to_PROVIA_VLog.cube
TITLE "Generated by Resolve"
LUT_3D_SIZE 9
0.00047303 0.000289921 6.10361e-05
0.00047303 0.000289921 6.10361e-05
0.151446 0.00872816 0.0116732
0.742443 0.0213016 0.117403
0.999603 0.173404 0.460548
1 0.25713 0.480659
0.999283 0.276814 0.463142
0.999664 0.419196 0.443061
0.999908 0.582269 0.549706
0.00047303 0.000289921 6.10361e-05
1.5259e-05 0.00077821 6.10361e-05
0.193561 0.00758373 0.0198825
0.721782 0.0202182 0.111177
0.999908 0.116152 0.444862
1 0.25713 0.480659
0.999619 0.306325 0.438758
0.999802 0.432212 0.438605
0.999924 0.586191 0.547997
0.00288396 0.146517 0
0.00271611 0.13431 3.0518e-05
0.073991 0.0942397 7.62951e-05
0.503502 0.0831464 0.00901808
0.999481 0.122225 0.281529
0.999863 0.293355 0.449592
0.99968 0.338277 0.411185
0.999954 0.447807 0.433921
0.999939 0.590814 0.54583
4.57771e-05 0.578439 0.000122072
3.0518e-05 0.411032 0.000183108
0 0.348486 0.000320439
0.321492 0.306371 6.10361e-05
0.91165 0.320455 0
0.999908 0.399008 0.318151
0.999695 0.418952 0.361334
0.999557 0.485435 0.417517
0.999924 0.604578 0.539788
0.000335698 0.829282 0.00062562
3.0518e-05 0.789929 0.000396735
0.000213626 0.758007 0.000640879
0.00953689 0.706493 0.000244144
0.710704 0.650492 0.000411994
0.999084 0.635767 0.0155337
0.99968 0.580652 0.256672
0.999664 0.583474 0.366888
0.999344 0.648524 0.523568
0 1 0.000289921
0 1 0.000289921
0 1 0.000289921
0 1 0.000289921
0.229007 0.97406 0.000717174
0.98233 0.8748 0.000213626
0.999359 0.811078 0.00984207
0.999298 0.760098 0.216541
0.999847 0.744945 0.470909
0 1 0.000289921
0 1 0.000289921
0 1 0.000289921
0 1 0.000289921
0 1 0.000289921
0.552453 0.999573 0.000350958
0.995865 0.966567 0.00842298
0.999207 0.92903 0
0.999405 0.902129 0.298848
0 1 0.000289921
0 1 0.000289921
0 1 0.000289921
0 1 0.000289921
0 1 0.000289921
0.0252689 0.999939 0.000244144
0.750591 0.999619 0.000259403
0.983261 0.985748 0.0161593
0.9841 0.997803 0.0322423
0.0241245 0.999985 0.476661
0.0272068 0.999985 0.476143
0.0311437 0.999985 0.475776
0.042298 0.999969 0.474403
0.0791791 0.999954 0.470573
0.257206 0.999878 0.440848
0.641245 0.999588 0.373022
0.981003 0.999725 0.290883
0.980941 0.999451 0.328557
0.000457771 0.000518807 0.00106813
0.000442512 0.000335698 0.000106813
0.183795 0.00833143 0.0172122
0.758846 0.0218814 0.123018
0.999603 0.175937 0.461265
1 0.25713 0.480659
0.999283 0.276585 0.46331
0.999664 0.419089 0.443168
0.999908 0.582269 0.549706
0.000442512 0.000396735 0.000534066
0.00047303 0.000289921 6.10361e-05
0.224537 0.00828565 0.0231327
0.740185 0.0208591 0.115984
0.999924 0.118654 0.446738
1 0.25713 0.480659
0.999619 0.306081 0.438941
0.999786 0.432013 0.438758
0.999924 0.586191 0.547997
0.00288396 0.145541 1.5259e-05
0.00161746 0.122515 0.000289921
0.0946975 0.0924849 0.000198367
0.518837 0.0823072 0.0121462
0.999481 0.122393 0.286824
0.999863 0.292912 0.449989
0.99968 0.338003 0.411414
0.999939 0.447761 0.433997
0.999939 0.590814 0.545953
6.10361e-05 0.543236 0.000366217
6.10361e-05 0.397299 0.000610361
0.000213626 0.343343 0.000228885
0.334859 0.305028 0
0.915663 0.320348 0
0.999908 0.398886 0.319173
0.999695 0.418936 0.361395
0.999542 0.485451 0.417594
0.999924 0.604578 0.539788
0.000244144 0.822232 0.000335698
1.5259e-05 0.785 0.000289921
0.000167849 0.754681 0.000610361
0.011429 0.704509 0.000183108
0.715496 0.649973 0.000396735
0.999084 0.635493 0.0159915
0.999664 0.580621 0.256764
0.999664 0.583474 0.366888
0.999344 0.648524 0.523568
0 1 0.000289921
0 1 0.000289921
0 1 0.000289921
0 1 0.000289921
0.23743 0.973114 0.000732433
0.982651 0.874571 0.000198367
0.999359 0.811017 0.00987259
0.999298 0.760098 0.216541
0.999847 0.744945 0.471046
0 1 0.000289921
0 1 0.000289921
0 1 0.000289921
0 1 0.000289921
0 1 0.000289921
0.554925 0.999557 0.000350958
0.995911 0.96643 0.00836194
0.999207 0.928985 0
0.999405 0.902129 0.298848
0 1 0.000289921
0 1 0.000289921
0 1 0.000289921
0 1 0.000289921
0 1 0.000289921
0.0260471 0.999939 0.000244144
0.750988 0.999619 0.000259403
0.983261 0.985748 0.0161593
0.984115 0.997803 0.0322728
0.0245518 0.999985 0.476616
0.0276341 0.999985 0.476097
0.0314488 0.999985 0.475685
0.0431525 0.999969 0.474311
0.0799268 0.999954 0.470436
0.257923 0.999878 0.441032
0.641703 0.999588 0.3729
0.981003 0.999725 0.290715
0.980941 0.999451 0.328557
0.00996414 0.00112917 0.121386
0.00978103 0.00114443 0.120409
0.171069 0.000137331 0.0823377
0.707851 0.0159915 0.122957
0.999207 0.150942 0.455619
1 0.25713 0.480659
0.999268 0.276265 0.463554
0.999664 0.418997 0.443198
0.999908 0.582162 0.549752
0.00985733 0.00114443 0.120836
0.00663767 0.000457771 0.101427
0.209628 0.000350958 0.0839094
0.694636 0.0146181 0.127871
0.999985 0.101244 0.442802
1 0.25713 0.480659
0.999634 0.305821 0.43917
0.999786 0.431983 0.438743
0.999924 0.586084 0.548028
0 0.179034 0.183658
0.000457771 0.130907 0.124117
0.0900282 0.0920729 0.0895094
0.499977 0.0787671 0.101732
0.999619 0.119341 0.300587
0.999741 0.297917 0.446876
0.999664 0.337713 0.411688
0.999939 0.447654 0.434028
0.999939 0.590814 0.545953
3.0518e-05 0.582834 0.135683
7.62951e-05 0.437034 0.035111
9.15541e-05 0.37409 0.0108034
0.321187 0.322408 0.00523384
0.896498 0.318532 0.0916609
0.999527 0.401083 0.363134
0.999695 0.418585 0.361624
0.999542 0.485313 0.417624
0.999924 0.604578 0.539788
0 0.853544 0.000534066
0.000167849 0.819654 0.000137331
6.10361e-05 0.789136 9.15541e-05
0.00547799 0.734157 0.000244144
0.691218 0.664332 0
0.999084 0.636973 0.0933547
0.99968 0.580453 0.256977
0.999664 0.583322 0.366949
0.999344 0.648524 0.52369
0 1 0.000289921
0 1 0.000289921
0 1 0.000289921
0 1 0.000289921
0.172717 0.986862 0.000991836
0.976089 0.878004 0.000228885
0.999359 0.810941 0.010071
0.999298 0.760189 0.216373
0.999847 0.744945 0.471046
0 1 0.000289921
0 1 0.000289921
0 1 0.000289921
0 1 0.000289921
0 1 0.000289921
0.557015 0.999573 0.000335698
0.995911 0.966445 0.00836194
0.999207 0.928985 0
0.999405 0.902113 0.299062
0 1 0.000289921
0 1 0.000289921
0 1 0.000289921
0 1 0.000289921
0 1 0.000289921
0.0273136 0.999939 0.000244144
0.751431 0.999619 0.000259403
0.983276 0.985748 0.0161593
0.984115 0.997803 0.0322728
0.0252995 0.999985 0.476478
0.0283665 0.999985 0.476204
0.0323033 0.999985 0.475593
0.043473 0.999969 0.47422
0.080354 0.999954 0.47039
0.259312 0.999878 0.440726
0.642161 0.999588 0.372778
0.981003 0.999725 0.290715
0.980941 0.999451 0.328557
0.0438697 0 0.433356
0.0401007 7.62951e-05 0.380346
0.170504 0.000183108 0.259297
0.67364 0.000183108 0.298543
0.999557 0.110109 0.543465
0.999542 0.260029 0.51133
0.999741 0.293996 0.519417
0.999649 0.418494 0.443534
0.999908 0.582071 0.549905
0.0437934 0 0.433021
0.0333104 9.15541e-05 0.331884
0.211154 0.000259403 0.256901
0.67509 0.000244144 0.308125
0.999985 0.0558175 0.561257
0.999756 0.269276 0.563638
0.999664 0.324437 0.514519
0.999771 0.431312 0.439109
0.999924 0.585992 0.548196
0.0011902 0.225772 0.611719
0.000549325 0.132677 0.440406
0.101366 0.0846723 0.341787
0.504616 0.0632029 0.326207
0.999985 0.0887007 0.483207
0.999313 0.324941 0.568414
0.999405 0.356603 0.509621
0.999924 0.44715 0.434318
0.999939 0.590723 0.546105
0.000320439 0.605768 0.6271
9.15541e-05 0.467643 0.466117
1.5259e-05 0.39881 0.388602
0.329854 0.329778 0.329656
0.880613 0.308202 0.363287
0.999893 0.407095 0.530999
0.99971 0.433555 0.489265
0.999542 0.485084 0.417899
0.999924 0.604471 0.539956
0.000228885 0.852232 0.342596
4.57771e-05 0.822644 0.299962
0.000350958 0.795895 0.270375
0.0009308 0.743603 0.228275
0.662531 0.661646 0.197208
0.999496 0.633463 0.367208
0.999481 0.586816 0.425162
0.999664 0.583276 0.367117
0.999344 0.648402 0.52372
0 1 0.000289921
0 1 0.000289921
0 1 0.000289921
0 1 0.000289921
0.0572061 1 0.000549325
0.939941 0.926375 0.000259403
0.999344 0.80354 0.233387
0.999298 0.759762 0.216922
0.999847 0.744839 0.47126
0 1 0.000289921
0 1 0.000289921
0 1 0.000289921
0 1 0.000289921
0 1 0.000289921
0.450568 0.999802 0.000106813
0.995789 0.967895 0.00961318
0.999222 0.92903 0
0.999405 0.902113 0.299062
0 1 0.000289921
0 1 0.000289921
0 1 0.000289921
0 1 0.000289921
0 1 0.000289921
0.0265965 1 0.000366217
0.751919 0.999634 0.000274662
0.983291 0.985748 0.0161746
0.9841 0.997833 0.0323033
0.0268864 0.999985 0.476234
0.0299687 0.999985 0.475959
0.0337987 0.999985 0.475547
0.0450599 0.999969 0.47422
0.0819409 0.999954 0.470161
0.261357 0.999878 0.440299
0.643061 0.999588 0.372534
0.981003 0.99971 0.290547
0.980941 0.999451 0.328878
0.13814 0.000228885 0.872984
0.129213 0.000534066 0.843885
0.170779 0.000244144 0.607141
0.640406 4.57771e-05 0.574716
1 0.00823987 0.7608
0.999954 0.268238 0.639048
0.999649 0.315618 0.651347
0.999924 0.442573 0.600931
0.999893 0.581765 0.550271
0.138155 0.000228885 0.873075
0.110079 4.57771e-05 0.777005
0.20972 0.000122072 0.594369
0.661875 1.5259e-05 0.578759
0.999237 4.57771e-05 0.761807
0.999359 0.258579 0.685664
0.999786 0.350591 0.651682
0.999939 0.454673 0.599054
0.999908 0.585687 0.548562
0.0898909 0.184848 0.999695
0.0725261 0.115297 0.900587
0.143145 0.0555886 0.734554
0.534142 0.0220798 0.668849
0.999664 0.0419318 0.738964
0.999985 0.318059 0.701854
0.999939 0.38761 0.656733
0.999802 0.469078 0.597528
0.999924 0.590326 0.546517
9.15541e-05 0.619196 0.999939
0.000701915 0.47924 0.915053
0.00030518 0.407645 0.833768
0.361975 0.327123 0.742321
0.872602 0.283253 0.703197
0.999359 0.400046 0.72192
0.999634 0.46511 0.659815
0.99968 0.505104 0.591302
0.999939 0.604013 0.540398
0.000534066 0.847684 0.856275
0.000366217 0.818067 0.82092
1.5259e-05 0.79144 0.790234
0.00424201 0.740429 0.736507
0.653071 0.653529 0.653239
0.999863 0.620081 0.677302
0.999542 0.599924 0.641245
0.999649 0.593271 0.567483
0.999344 0.648051 0.524163
1.5259e-05 0.999634 0.597177
7.62951e-05 0.999619 0.590158
0.000244144 0.99939 0.583642
4.57771e-05 0.997314 0.564691
0 0.977905 0.528191
0.894957 0.898024 0.490303
0.999695 0.79295 0.556466
0.999237 0.752773 0.489235
0.999847 0.744732 0.471595
4.57771e-05 0.999451 0.108263
4.57771e-05 0.99942 0.109331
3.0518e-05 0.999374 0.11136
4.57771e-05 0.999329 0.115145
7.62951e-05 0.999634 0.128679
0.308339 0.999786 0.0692607
0.99324 0.999146 0.152102
0.9991 0.945235 0.224659
0.999405 0.901976 0.29984
0 0.999802 0.0594644
0 0.999802 0.0572519
1.5259e-05 0.999802 0.0542763
3.0518e-05 0.999817 0.0461433
4.57771e-05 0.999863 0.0242161
0.0231327 0.999924 0.000320439
0.702342 0.999786 0.000213626
0.985351 0.986816 0.0185245
0.984085 0.997909 0.0323796
0.0255283 0.99971 0.571237
0.0281987 0.999725 0.570642
0.0314641 0.999725 0.569909
0.0409094 0.999756 0.567773
0.0713207 0.999832 0.560937
0.282765 0.999634 0.542153
0.643656 0.999832 0.458686
0.980865 0.999695 0.310445
0.980941 0.999451 0.329213
0.358999 1.5259e-05 0.999405
0.359075 1.5259e-05 0.999405
0.261814 6.10361e-05 0.977676
0.594903 6.10361e-05 0.997589
1 0 0.99971
0.999893 0.19086 0.822644
0.99968 0.275731 0.801007
0.999741 0.440375 0.756634
0.99971 0.596643 0.709209
0.358999 1.5259e-05 0.999405
0.358984 1.5259e-05 0.999405
0.242573 0.000183108 0.966033
0.612757 1.5259e-05 0.996414
1 0 0.99971
0.999985 0.208957 0.851225
0.999924 0.309895 0.806836
0.999786 0.454292 0.756222
0.999695 0.600336 0.708965
0.363989 0.0759442 0.999969
0.362615 0.0797894 0.999969
0.255879 0.00691234 0.993164
0.570504 9.15541e-05 0.999817
0.989532 1.5259e-05 0.99971
0.999664 0.237293 0.893935
0.999924 0.346258 0.810803
0.999802 0.470573 0.754879
0.99968 0.604776 0.708675
0.096376 0.522133 0.999573
0.118898 0.469581 1
0.102556 0.379141 0.999405
0.422065 0.282032 0.999878
0.876722 0.225696 0.999786
0.999435 0.32871 0.95758
0.999176 0.434379 0.812634
0.999237 0.510719 0.755688
0.999649 0.617334 0.707805
0.000595102 0.794247 0.999985
0.000213626 0.776333 0.999893
0.000259403 0.757488 1
0.0375372 0.71754 0.999954
0.668223 0.632197 0.998871
0.999557 0.576974 0.961563
0.999847 0.594034 0.810193
0.999771 0.607065 0.75964
0.999725 0.653956 0.701915
0.000427253 0.945327 0.97641
0.000854505 0.943526 0.971633
0.000747692 0.940932 0.96669
0.000686656 0.936202 0.955322
0.0597696 0.9243 0.922835
0.854017 0.855665 0.854627
0.999557 0.78349 0.802136
0.999756 0.746136 0.742748
0.999695 0.741131 0.67834
3.0518e-05 0.999847 0.707149
4.57771e-05 0.999863 0.706218
6.10361e-05 0.999741 0.705364
0.000122072 0.999466 0.702724
1.5259e-05 0.999741 0.693553
0.146197 0.999939 0.668421
0.972244 0.982818 0.644099
0.999542 0.915709 0.634165
0.999512 0.883116 0.583566
0.000183108 0.999817 0.65156
0.000183108 0.999817 0.650248
0.000183108 0.999817 0.648569
0.000213626 0.999802 0.644175
0.000228885 0.999771 0.630014
0.0390784 0.999619 0.594934
0.660731 0.99971 0.491371
0.979995 0.999695 0.332631
0.980621 0.999908 0.239643
0.00134279 0.999802 0.835706
0.00144961 0.999802 0.835126
0.00158694 0.999802 0.834394
0.00199893 0.999802 0.832258
0.00329595 0.999786 0.825345
0.19939 0.999847 0.796246
0.637034 0.999847 0.754803
0.982361 0.99971 0.658625
0.978729 0.999466 0.529335
0.429923 7.62951e-05 0.999863
0.429923 7.62951e-05 0.999863
0.429923 7.62951e-05 0.999863
0.421973 1.5259e-05 0.999451
0.935622 0.000228885 0.999725
0.999985 0.0399939 0.999268
0.999908 0.199344 0.99411
0.99971 0.378332 0.934173
0.99942 0.565728 0.860395
0.429923 7.62951e-05 0.999863
0.429923 7.62951e-05 0.999863
0.429923 7.62951e-05 0.999863
0.427192 6.10361e-05 0.999756
0.940093 0.000228885 0.999741
0.999985 0.0413825 0.999252
0.999817 0.234241 0.995529
0.999802 0.392401 0.934279
0.999374 0.570169 0.860212
0.429923 7.62951e-05 0.999863
0.429923 7.62951e-05 0.999863
0.429923 7.62951e-05 0.999863
0.453864 0.000244144 0.999863
0.942229 0.000244144 0.999786
0.999908 0.0585184 0.999557
0.999786 0.270359 0.996139
0.999893 0.408469 0.933837
0.999329 0.575525 0.859998
0.3523 0.249821 0.999481
0.351537 0.251469 0.999481
0.350622 0.253452 0.999481
0.376104 0.176913 0.999771
0.862715 0.0932631 0.99971
1 0.170886 0.999435
0.999908 0.357839 0.994232
0.999969 0.452094 0.930999
0.999298 0.590967 0.85919
9.15541e-05 0.792462 1
0.00015259 0.787717 0.999969
0.0404059 0.620829 0.999771
0.117159 0.580865 0.999954
0.634302 0.534905 0.999588
0.999969 0.475212 0.99968
0.999756 0.524147 0.98468
0.99971 0.55227 0.923095
0.999542 0.633936 0.855482
0.000411994 0.874846 0.999847
0.000793469 0.871504 1
0.000457771 0.867781 1
0.000640879 0.860288 0.999985
0.194812 0.833738 0.999985
0.808652 0.784283 0.999908
0.999802 0.734966 0.983108
0.999603 0.716899 0.903822
0.999664 0.730953 0.850507
0.0015259 0.987228 0.999847
0.00151064 0.986831 0.999847
0.00151064 0.986435 0.999847
0.00106813 0.985061 0.999939
0.00122072 0.981567 1
0.145525 0.994339 0.991699
0.933455 0.936812 0.934218
0.999512 0.88893 0.884565
0.999939 0.861631 0.832074
0.00131228 0.992142 0.992935
0.00128176 0.992203 0.992538
0.00122072 0.992309 0.991775
0.00108339 0.992706 0.989303
0.000671397 0.993851 0.981384
0.00447089 0.997238 0.95111
0.617563 0.99968 0.862348
0.985046 0.999802 0.77145
0.98378 0.99939 0.689647
0.00314336 0.98967 0.999954
0.00311284 0.989639 0.999954
0.00308232 0.989593 0.999939
0.00296025 0.989487 0.999924
0.00260929 0.989136 0.999878
0.0653697 0.999985 1
0.540887 0.999817 0.986053
0.971664 0.999634 0.917266
0.987625 0.999725 0.824659
0.150164 0.532311 0.999893
0.150164 0.532311 0.999893
0.150164 0.532311 0.999893
0.150164 0.532311 0.999893
0.149813 0.532631 0.999878
0.975311 7.62951e-05 0.999207
0.999695 0.112673 0.999084
0.999969 0.256397 0.999588
0.999832 0.473487 0.999756
0.150164 0.532311 0.999893
0.150164 0.532311 0.999893
0.150164 0.532311 0.999893
0.150164 0.532311 0.999893
0.149813 0.532631 0.999878
0.977371 7.62951e-05 0.999191
0.999695 0.112688 0.999069
0.999954 0.269688 0.999374
0.999924 0.478172 0.999725
0.150164 0.532311 0.999893
0.150164 0.532311 0.999893
0.150164 0.532311 0.999893
0.150164 0.532311 0.999893
0.149813 0.532631 0.999878
0.979309 6.10361e-05 0.999191
0.999664 0.12134 0.999069
0.999954 0.285069 0.999252
1 0.483787 0.99971
0.150164 0.532311 0.999893
0.148806 0.533578 0.999878
0.147127 0.535149 0.999878
0.142077 0.539849 0.999878
0.126284 0.55462 0.999863
0.965972 0.00415045 0.999039
0.999939 0.203204 0.999542
0.999969 0.327382 0.99939
0.999954 0.500328 0.999664
0.000213626 0.8663 0.999542
0.000213626 0.866529 0.999557
0.000213626 0.866758 0.999557
0.000228885 0.867567 0.999573
0.000259403 0.869978 0.999619
0.819684 0.319661 0.999741
0.999878 0.363287 0.999695
0.999786 0.432853 0.999664
0.999527 0.547051 0.999878
0.00213626 0.990723 1
0.00213626 0.990723 1
0.00213626 0.990723 1
0.00213626 0.990723 1
0.000762951 0.906645 1
0.624994 0.668086 0.999725
0.999344 0.639445 0.999313
0.99971 0.618311 0.999268
0.999924 0.652522 0.999557
0.00213626 0.990723 1
0.00213626 0.990723 1
0.00213626 0.990723 1
0.00213626 0.990997 0.999268
0.00106813 0.98616 0.999619
0.039765 0.957412 0.999939
0.863767 0.870375 0.99971
0.99968 0.828016 0.999466
0.999969 0.815991 0.997391
0.00213626 0.990723 1
0.00213626 0.990723 1
0.00213626 0.990723 1
0.00213626 0.990723 1
0.00221256 0.990677 1
0.00350958 0.990021 1
0.473472 0.999634 0.997467
0.996841 0.999908 0.999115
0.996887 0.986831 0.96669
0.00341802 0.989944 0.999985
0.00341802 0.989929 0.999985
0.00340276 0.989914 0.999985
0.00335698 0.989868 0.999985
0.00320439 0.989731 0.999954
0.00653086 0.993729 1
0.458152 0.999832 0.995102
0.945617 0.999527 0.994308
1 1 1
0.00213626 0.990723 1
0.00213626 0.990723 1
0.00213626 0.990723 1
0.00213626 0.990723 1
0.00213626 0.990723 1
0.00213626 0.990723 1
0.00213626 0.990723 1
0.999893 0.346365 0.998917
0.999939 0.386007 0.999786
0.00213626 0.990723 1
0.00213626 0.990723 1
0.00213626 0.990723 1
0.00213626 0.990723 1
0.00213626 0.990723 1
0.00213626 0.990723 1
0.00213626 0.990723 1
0.999893 0.346273 0.998917
0.999924 0.389593 0.999741
0.00213626 0.990723 1
0.00213626 0.990723 1
0.00213626 0.990723 1
0.00213626 0.990723 1
0.00213626 0.990723 1
0.00213626 0.990723 1
0.00213626 0.990723 1
0.999893 0.34609 0.998917
0.999893 0.394034 0.99968
0.00213626 0.990723 1
0.00213626 0.990723 1
0.00213626 0.990723 1
0.00213626 0.990723 1
0.00213626 0.990723 1
0.00213626 0.990723 1
0.00213626 0.990723 1
0.999924 0.36437 0.999161
0.999802 0.407172 0.999512
0.00213626 0.990723 1
0.00213626 0.990723 1
0.00213626 0.990723 1
0.00213626 0.990723 1
0.00213626 0.990723 1
0.00213626 0.990723 1
0.00213626 0.990723 1
0.999908 0.460349 0.99881
0.999573 0.445747 0.999435
0.00213626 0.990723 1
0.00213626 0.990723 1
0.00213626 0.990723 1
0.00213626 0.990723 1
0.00213626 0.990723 1
0.00213626 0.990723 1
0.00213626 0.990723 1
0.99942 0.646296 0.999893
0.999985 0.557321 0.999069
0.00213626 0.990723 1
0.00213626 0.990723 1
0.00213626 0.990723 1
0.00213626 0.990723 1
0.00213626 0.990723 1
0.00213626 0.990723 1
0.00213626 0.990723 1
0.999863 0.873686 0.999649
1 0.759289 0.999802
0.00213626 0.990723 1
0.00213626 0.990723 1
0.00213626 0.990723 1
0.00213626 0.990723 1
0.00213626 0.990723 1
0.00213626 0.990723 1
0.00213626 0.990723 1
0.857176 1 0.990692
0.996872 0.983734 1
0.00213626 0.990723 1
0.00213626 0.990723 1
0.00213626 0.990723 1
0.00213626 0.990723 1
0.00213626 0.990723 1
0.00213626 0.990723 1
0.00262455 0.990478 1
0.832471 0.999908 0.989715
1 1 1
