Luts/Fujifilm/FLog2C_to_CLASSIC-CHROME_VLog.cube
TITLE "Generated by Resolve"
LUT_3D_SIZE 33
0.000183108 9.15541e-05 6.10361e-05
0.000183108 9.15541e-05 6.10361e-05
0.000183108 9.15541e-05 6.10361e-05
0.000183108 9.15541e-05 6.10361e-05
0.000183108 9.15541e-05 6.10361e-05
0.000183108 9.15541e-05 6.10361e-05
0.00650034 0.0010071 0.000183108
0.0423896 0.00192264 0.00161746
0.103227 0.0037232 0.00306706
0.204929 0.0065919 0.00892653
0.349126 0.0114443 0.02121
0.523949 0.0208591 0.043473
0.697215 0.0440833 0.0831617
0.837812 0.0853285 0.148974
0.946227 0.149325 0.248173
0.964584 0.230869 0.360067
0.960189 0.304906 0.406287
0.958877 0.371466 0.446784
0.95877 0.374456 0.4486
0.95877 0.374456 0.4486
0.95877 0.374456 0.4486
0.95877 0.374456 0.4486
0.95877 0.374456 0.4486
0.95877 0.374456 0.4486
0.958251 0.391974 0.442405
0.958495 0.417792 0.431647
0.958175 0.446967 0.435294
0.958328 0.480735 0.454246
0.956329 0.51635 0.476234
0.954955 0.55198 0.503044
0.954421 0.58819 0.531334
0.953567 0.624552 0.566262
0.952834 0.662318 0.612924
0.000183108 9.15541e-05 6.10361e-05
0.000183108 9.15541e-05 6.10361e-05
0.000183108 9.15541e-05 6.10361e-05
0.000183108 9.15541e-05 6.10361e-05
0.000183108 9.15541e-05 6.10361e-05
0.000183108 9.15541e-05 6.10361e-05
0.0109255 0.00143435 7.62951e-05
0.0505074 0.00189212 0.00263981
0.113451 0.00393683 0.0037232
0.216846 0.00672923 0.0100404
0.359701 0.0121157 0.0222019
0.532921 0.0217136 0.0450446
0.703334 0.045304 0.0849165
0.84123 0.0866865 0.151308
0.948226 0.150942 0.250584
0.964584 0.23209 0.361532
0.960159 0.305852 0.406806
0.958877 0.371801 0.447013
0.95877 0.374456 0.4486
0.95877 0.374456 0.4486
0.95877 0.374456 0.4486
0.95877 0.374456 0.4486
0.95877 0.374456 0.4486
0.958892 0.377646 0.447105
0.958083 0.398856 0.439399
0.958053 0.423011 0.430121
0.958251 0.451072 0.435569
0.958144 0.484459 0.454673
0.956024 0.51928 0.476417
0.954864 0.554131 0.503365
0.95433 0.589746 0.531563
0.953567 0.625711 0.5664
0.95288 0.663188 0.613062
0.000183108 9.15541e-05 6.10361e-05
0.000183108 9.15541e-05 6.10361e-05
0.000183108 9.15541e-05 6.10361e-05
0.000183108 9.15541e-05 6.10361e-05
0.000183108 9.15541e-05 6.10361e-05
0.000183108 9.15541e-05 6.10361e-05
0.016434 0.00173953 1.5259e-05
0.0594644 0.00201419 0.00250248
0.124681 0.00404364 0.00453193
0.228229 0.0068513 0.0111086
0.37023 0.0128023 0.0231937
0.541909 0.0225528 0.0466011
0.708812 0.0463874 0.0864881
0.844465 0.0879988 0.153536
0.950164 0.152499 0.252918
0.964569 0.233295 0.363012
0.960128 0.306752 0.407294
0.958877 0.372213 0.447288
0.95877 0.374456 0.4486
0.95877 0.374456 0.4486
0.95877 0.374456 0.4486
0.95877 0.374456 0.4486
0.95877 0.374456 0.4486
0.959075 0.382986 0.444587
0.957946 0.405325 0.436576
0.957626 0.428 0.428656
0.958343 0.45536 0.435859
0.957977 0.488197 0.455116
0.955856 0.522042 0.47657
0.954818 0.556344 0.503532
0.954223 0.591485 0.531868
0.953552 0.626886 0.566613
0.952926 0.664042 0.613199
0.000183108 9.15541e-05 6.10361e-05
0.000183108 9.15541e-05 6.10361e-05
0.000183108 9.15541e-05 6.10361e-05
0.000183108 9.15541e-05 6.10361e-05
0.000183108 9.15541e-05 6.10361e-05
0.002121 0.000381476 9.15541e-05
0.0236362 0.00187686 1.5259e-05
0.0681315 0.00215152 0.00227359
0.13547 0.0041352 0.0053254
0.239673 0.00697337 0.0121767
0.380163 0.0134432 0.0241398
0.550973 0.0234073 0.048188
0.714412 0.0475013 0.0881056
0.847349 0.0891432 0.155489
0.951995 0.153964 0.2551
0.964202 0.230243 0.35938
0.960891 0.285176 0.395148
0.959457 0.343221 0.429221
0.958785 0.374136 0.448402
0.95877 0.374456 0.4486
0.95877 0.374456 0.4486
0.95877 0.374456 0.4486
0.958984 0.377218 0.447395
0.958312 0.390768 0.442054
0.95787 0.411353 0.43476
0.957717 0.433127 0.427741
0.958221 0.45977 0.436515
0.957626 0.491569 0.455146
0.955917 0.524559 0.47686
0.954757 0.558556 0.503639
0.954147 0.592905 0.532067
0.953552 0.628107 0.566751
0.952972 0.66482 0.613321
0.000183108 9.15541e-05 6.10361e-05
0.000183108 9.15541e-05 6.10361e-05
0.000183108 9.15541e-05 6.10361e-05
0.000106813 7.62951e-05 6.10361e-05
6.10361e-05 0.000213626 6.10361e-05
0.00424201 0.00108339 0.000213626
0.028748 0.00187686 0.00015259
0.0721599 0.00225834 0.00225834
0.13753 0.00392157 0.00550851
0.235416 0.00682078 0.012192
0.367803 0.0120699 0.0222782
0.522118 0.0212558 0.0437171
0.678019 0.0395056 0.0775616
0.807401 0.074342 0.129625
0.909072 0.120623 0.206943
0.963729 0.187396 0.305287
0.962554 0.253117 0.376211
0.960693 0.312856 0.411322
0.958206 0.370321 0.445686
0.95877 0.374456 0.4486
0.95877 0.374456 0.4486
0.95877 0.374609 0.447761
0.958846 0.382162 0.44567
0.957412 0.398566 0.439628
0.957809 0.416983 0.433249
0.9579 0.438437 0.426947
0.958068 0.464164 0.437186
0.957259 0.495109 0.455238
0.955978 0.527276 0.477104
0.954711 0.560571 0.503716
0.95404 0.594644 0.532311
0.953552 0.629175 0.566888
0.953017 0.66569 0.613519
0.000534066 0.0110323 6.10361e-05
0.000518807 0.0112917 6.10361e-05
0.000518807 0.0116274 7.62951e-05
0.000503548 0.0119173 7.62951e-05
0.000488289 0.0122377 7.62951e-05
0.000579843 0.00956741 9.15541e-05
0.0163119 0.00817884 6.10361e-05
0.0503853 0.00622568 0.000534066
0.104387 0.00619516 0.00326543
0.186343 0.00648508 0.00851453
0.299046 0.00970474 0.0174105
0.444083 0.0149996 0.0325628
0.605158 0.0295415 0.0577554
0.75169 0.0569924 0.100832
0.866361 0.0978714 0.169955
0.955886 0.158526 0.262333
0.964492 0.228717 0.360754
0.961532 0.289265 0.397162
0.959106 0.353567 0.434897
0.95877 0.374456 0.4486
0.958816 0.374838 0.448493
0.958831 0.379034 0.445914
0.958206 0.389639 0.443427
0.958022 0.405524 0.436774
0.957732 0.4224 0.431662
0.958053 0.443305 0.426215
0.957931 0.468376 0.437858
0.956909 0.498405 0.455329
0.956039 0.529732 0.477394
0.954665 0.562783 0.503868
0.953948 0.596201 0.532601
0.953552 0.630335 0.567025
0.953063 0.666453 0.613642
1.5259e-05 0.0280461 0.000274662
3.0518e-05 0.0286717 0.00030518
3.0518e-05 0.02916 0.000335698
3.0518e-05 0.029633 0.000366217
3.0518e-05 0.0301671 0.000396735
7.62951e-05 0.0234379 0.000183108
0.00840772 0.0196078 6.10361e-05
0.0361486 0.0173648 9.15541e-05
0.0860609 0.0162203 0.000549325
0.158999 0.0162356 0.00296025
0.262364 0.0174258 0.00999466
0.394034 0.021561 0.0214237
0.552789 0.0288243 0.045243
0.705592 0.0503548 0.0835737
0.831128 0.0834211 0.141878
0.92987 0.135698 0.227832
0.964797 0.207568 0.332357
0.961898 0.272572 0.387076
0.960449 0.335134 0.424918
0.959457 0.375509 0.448005
0.959365 0.380896 0.446769
0.958846 0.386831 0.443366
0.958038 0.397681 0.440345
0.958816 0.4121 0.433997
0.957671 0.42797 0.429282
0.95816 0.448096 0.425605
0.957794 0.472511 0.438437
0.956573 0.501762 0.45539
0.9561 0.532219 0.477684
0.95462 0.564874 0.503914
0.953857 0.597757 0.53283
0.953536 0.631525 0.567239
0.953109 0.667323 0.613779
0.000122072 0.0566873 0.000396735
0.000137331 0.0571603 0.000396735
0.00015259 0.0577096 0.000396735
0.00015259 0.0581826 0.000396735
0.00030518 0.0570077 0.000656138
0.000183108 0.0442359 0.000610361
0.00187686 0.0392615 0.000289921
0.0257115 0.0358129 0.000381476
0.0699779 0.0331884 0.000396735
0.135363 0.0318761 0.000167849
0.229587 0.0341497 0.0031281
0.355734 0.0374914 0.0124971
0.507836 0.0459907 0.0310826
0.665095 0.0642405 0.0615702
0.796216 0.0918135 0.113481
0.900343 0.137606 0.191745
0.963851 0.203342 0.296651
0.962783 0.269886 0.372503
0.960143 0.329381 0.410651
0.959609 0.385885 0.443656
0.957946 0.390661 0.443305
0.957519 0.398535 0.437949
0.958114 0.40734 0.436316
0.958511 0.419944 0.431052
0.95761 0.434333 0.426551
0.958068 0.45391 0.425132
0.957671 0.477577 0.439078
0.956176 0.505623 0.455406
0.956161 0.53518 0.477974
0.954559 0.567452 0.504097
0.95375 0.599664 0.533089
0.953536 0.633036 0.567422
0.953155 0.668345 0.613947
0 0.0986496 3.0518e-05
1.5259e-05 0.0993057 3.0518e-05
1.5259e-05 0.0999313 3.0518e-05
3.0518e-05 0.100465 3.0518e-05
0.00030518 0.0885481 0
0.000640879 0.0746777 0.00030518
0.00132753 0.0666819 0.000503548
0.0132448 0.0634012 0.000213626
0.0550851 0.0575875 6.10361e-05
0.115434 0.0567483 0.000106813
0.202777 0.0575723 0.000350958
0.320195 0.0608377 0.00444038
0.462928 0.0695811 0.0149996
0.618631 0.0835126 0.0399939
0.756863 0.111727 0.0861677
0.868223 0.154452 0.153185
0.957366 0.217426 0.250217
0.961089 0.288045 0.352544
0.960464 0.335622 0.390127
0.957916 0.393317 0.43212
0.95848 0.405524 0.436271
0.958297 0.41146 0.433677
0.957259 0.418006 0.431647
0.957321 0.429877 0.427527
0.957504 0.443061 0.422858
0.957961 0.461234 0.424552
0.957702 0.483619 0.439429
0.955856 0.510765 0.455695
0.956252 0.539117 0.478416
0.954482 0.570764 0.504234
0.953597 0.602319 0.533547
0.953536 0.634913 0.567666
0.953231 0.669642 0.614145
0.000122072 0.163561 0.000396735
0.000122072 0.164141 0.000396735
0.000122072 0.16466 0.000396735
3.0518e-05 0.162448 0.00047303
0.000427253 0.136141 0.000396735
0.000259403 0.116197 0
0.000366217 0.103868 3.0518e-05
0.00689708 0.097734 0.000244144
0.0410773 0.092256 3.0518e-05
0.0962234 0.0889296 0.000259403
0.177981 0.088716 0.000411994
0.288975 0.0910811 7.62951e-05
0.421942 0.0983902 0.00453193
0.575677 0.111955 0.019379
0.717784 0.1393 0.0574655
0.834974 0.178378 0.117174
0.932128 0.234989 0.20235
0.960922 0.305119 0.310857
0.959777 0.349676 0.369482
0.957916 0.400488 0.411536
0.957534 0.423285 0.430014
0.957748 0.426902 0.428443
0.957504 0.432898 0.426703
0.957992 0.442786 0.423804
0.957336 0.454444 0.418082
0.957885 0.471153 0.424475
0.957732 0.491661 0.439948
0.956039 0.517571 0.456245
0.956085 0.544564 0.478813
0.954376 0.57528 0.504494
0.953414 0.605509 0.534005
0.953521 0.637354 0.568109
0.953338 0.671458 0.614511
0.000610361 0.262654 0.000686656
0.00062562 0.263294 0.000701915
0.00062562 0.263737 0.000701915
0.00047303 0.229618 0.00015259
0.000335698 0.196399 0.000106813
0.000259403 0.174166 7.62951e-05
0.000717174 0.160739 0.000183108
0.000579843 0.149035 1.5259e-05
0.0250553 0.141344 0.000167849
0.0777905 0.13489 0.000122072
0.154238 0.132692 0.00030518
0.260456 0.13283 0.000213626
0.386847 0.137469 0.000137331
0.533959 0.151904 0.00576791
0.677928 0.17641 0.0312657
0.798596 0.213672 0.0810407
0.900236 0.265217 0.157092
0.95935 0.329213 0.263096
0.958297 0.373571 0.341283
0.958236 0.411582 0.38613
0.957717 0.445548 0.421561
0.958312 0.447807 0.422004
0.957443 0.451011 0.419364
0.958038 0.459174 0.417502
0.957656 0.468925 0.415167
0.957809 0.484245 0.424887
0.957244 0.502815 0.440269
0.956237 0.526192 0.457084
0.955367 0.551797 0.479225
0.954162 0.580987 0.504936
0.95314 0.609949 0.534707
0.953506 0.640574 0.568505
0.95346 0.673869 0.614878
0.000213626 0.38938 0.000518807
0.000213626 0.3897 0.000518807
0.00015259 0.351476 0.00077821
6.10361e-05 0.305608 0.000869764
4.57771e-05 0.274449 0.000442512
0.000213626 0.250446 0.000274662
0.00047303 0.235966 0.000656138
0.000549325 0.222889 0.000244144
0.0116121 0.210407 0.000137331
0.0613107 0.200732 1.5259e-05
0.131792 0.193759 0.000122072
0.233265 0.190158 0.00030518
0.354788 0.191058 1.5259e-05
0.493568 0.203906 0.000442512
0.63772 0.225345 0.00929274
0.763699 0.25861 0.0439612
0.866178 0.302083 0.111955
0.950988 0.356909 0.203387
0.95877 0.411048 0.309056
0.958709 0.432013 0.356054
0.957946 0.467063 0.403128
0.958251 0.471931 0.412116
0.957763 0.474403 0.410422
0.957824 0.479118 0.410086
0.957534 0.487602 0.412512
0.957198 0.500893 0.425986
0.956222 0.517617 0.440314
0.95584 0.538094 0.457801
0.954498 0.560983 0.479667
0.953826 0.588098 0.505425
0.953124 0.615763 0.535317
0.953506 0.644938 0.569009
0.953643 0.677058 0.615457
0.00436408 0.52961 0.000167849
0.000885023 0.475319 0.00030518
6.10361e-05 0.425925 0.000396735
0.000106813 0.389563 0.000793469
0.000503548 0.361456 0.000183108
4.57771e-05 0.34052 0.000411994
0.00015259 0.324498 0.000503548
0.000564584 0.311208 0.000579843
0.00535592 0.296986 0.000595102
0.0416114 0.284077 0.000381476
0.110658 0.274159 0.000106813
0.205112 0.268864 4.57771e-05
0.326436 0.266011 7.62951e-05
0.460868 0.272816 0.00192264
0.602396 0.288609 0.00784314
0.728252 0.312627 0.0229801
0.834516 0.349004 0.0683757
0.925063 0.396445 0.147158
0.957961 0.446189 0.250904
0.957748 0.46714 0.320943
0.95761 0.492866 0.373297
0.957824 0.502663 0.397742
0.957412 0.501991 0.399115
0.957504 0.505135 0.40267
0.956374 0.511635 0.411841
0.956405 0.521218 0.425589
0.95613 0.535103 0.440146
0.954787 0.55407 0.458534
0.953979 0.57319 0.480278
0.953368 0.597452 0.506249
0.953277 0.623148 0.53579
0.953399 0.650446 0.569696
0.953735 0.681163 0.616114
0.00823987 0.582788 0.000518807
0.00427253 0.539452 0.000228885
0.00227359 0.505852 4.57771e-05
0.00215152 0.478721 9.15541e-05
0.000686656 0.456519 0.000732433
0.000137331 0.438285 0.000701915
4.57771e-05 0.424994 0.000549325
0.000106813 0.411063 0.000564584
0.0016022 0.396826 0.000427253
0.0238193 0.38378 0.000823987
0.0860609 0.370764 0.000350958
0.181094 0.359701 0.00030518
0.299428 0.35436 0.000335698
0.431159 0.355352 0.00469978
0.570092 0.363149 0.0101625
0.695216 0.378714 0.0189059
0.804608 0.406058 0.0395666
0.897887 0.444602 0.101045
0.956252 0.488807 0.195209
0.957824 0.514107 0.279911
0.956298 0.52578 0.338689
0.956359 0.53753 0.385031
0.955261 0.535851 0.391714
0.955886 0.535393 0.40058
0.954864 0.539925 0.411185
0.955016 0.546258 0.425193
0.954925 0.557 0.44036
0.954116 0.571283 0.459419
0.953704 0.588846 0.481132
0.953323 0.609491 0.507073
0.953475 0.633066 0.536599
0.953262 0.657267 0.570397
0.953552 0.686473 0.616754
0.0105135 0.633402 0.00204471
0.00927749 0.607919 0.000564584
0.0074464 0.586252 0.000228885
0.00608835 0.566491 0.000366217
0.00515755 0.549783 0.000167849
0.00460822 0.537148 0.000274662
0.00404364 0.526314 0.000137331
0.00318914 0.514733 0.00015259
0.00260929 0.502052 0.000244144
0.0135805 0.488258 0.00047303
0.0650645 0.473472 0.000183108
0.154864 0.460853 0.000122072
0.27245 0.451774 0.00256352
0.402762 0.445472 0.00854505
0.537728 0.447593 0.0151217
0.666423 0.455924 0.0240787
0.776272 0.474769 0.0328069
0.869139 0.502876 0.0657206
0.944808 0.538094 0.144442
0.955108 0.568368 0.245502
0.954971 0.569772 0.307561
0.954009 0.576364 0.368963
0.954177 0.573297 0.390249
0.953689 0.571099 0.398932
0.953902 0.571588 0.411353
0.953597 0.57499 0.425132
0.953689 0.582834 0.440894
0.953704 0.592645 0.45922
0.95404 0.60766 0.482124
0.953506 0.624582 0.507942
0.953277 0.644999 0.537194
0.953109 0.666316 0.571466
0.953353 0.693385 0.617639
0.0163577 0.68954 0.00495918
0.0142519 0.674388 0.00323491
0.0136416 0.660609 0.00320439
0.0134127 0.648432 0.00383001
0.0118563 0.637919 0.00320439
0.010544 0.629648 0.00175479
0.00955215 0.622019 0.000518807
0.00932326 0.613138 0.000335698
0.0087892 0.602228 0.000213626
0.0119936 0.590097 0.000198367
0.0466468 0.577844 0.00015259
0.128634 0.56614 0.00195315
0.244633 0.553094 0.00866712
0.374304 0.545235 0.0140536
0.507729 0.54136 0.0206912
0.638437 0.542947 0.0288701
0.749905 0.55256 0.0395819
0.842863 0.570947 0.0492256
0.924773 0.594293 0.0992294
0.952819 0.620935 0.199115
0.952834 0.621622 0.273716
0.952422 0.62118 0.342382
0.952758 0.614557 0.384192
0.952743 0.609705 0.394949
0.953353 0.60679 0.40763
0.952941 0.607691 0.422934
0.95346 0.611383 0.440314
0.953445 0.618677 0.459785
0.953429 0.629801 0.48278
0.952941 0.642786 0.508568
0.952987 0.659876 0.53785
0.95346 0.677501 0.57229
0.953216 0.702098 0.618601
0.021088 0.747402 0.0102541
0.0203403 0.737362 0.00968948
0.0196689 0.730266 0.0083772
0.0190738 0.723461 0.00756847
0.0185397 0.716381 0.00746166
0.0180972 0.710887 0.00698863
0.0175326 0.705211 0.00579843
0.016968 0.699092 0.00485237
0.0164187 0.691386 0.005066
0.0166018 0.682704 0.00436408
0.0349737 0.672389 0.00527962
0.101671 0.661402 0.00790417
0.212177 0.650828 0.0124361
0.343908 0.64181 0.0202335
0.47837 0.633188 0.0278325
0.611765 0.631479 0.0385901
0.724559 0.633783 0.0463722
0.817884 0.642298 0.0584421
0.897749 0.654841 0.076173
0.950805 0.674403 0.147433
0.951797 0.678889 0.232792
0.951461 0.670573 0.304845
0.951751 0.658488 0.367468
0.951919 0.651225 0.386007
0.952087 0.646342 0.400351
0.95172 0.644419 0.417975
0.952483 0.644572 0.435737
0.953536 0.647028 0.455894
0.953262 0.654078 0.481682
0.95317 0.663981 0.507988
0.953414 0.677592 0.538918
0.953826 0.691722 0.573098
0.954147 0.712871 0.618509
0.0266423 0.799771 0.0149386
0.0262455 0.794903 0.0146181
0.0263523 0.790066 0.0148013
0.0261692 0.785718 0.0148165
0.0253605 0.782132 0.0144961
0.0245518 0.778622 0.0141451
0.0239719 0.775189 0.01355
0.0233768 0.770871 0.0127108
0.0229343 0.765515 0.0119478
0.0231327 0.759319 0.0116579
0.0275425 0.752026 0.0106813
0.0746624 0.743954 0.0120699
0.177188 0.734218 0.0184176
0.30956 0.725444 0.0262913
0.448142 0.717037 0.0356756
0.583169 0.712352 0.0446479
0.698756 0.708507 0.0553902
0.795224 0.708949 0.0720836
0.87332 0.715511 0.0859236
0.93991 0.726253 0.108797
0.950896 0.733959 0.181933
0.951888 0.721996 0.257023
0.95172 0.70515 0.335409
0.952071 0.693385 0.37496
0.952163 0.68687 0.392294
0.952178 0.682551 0.4112
0.952743 0.679789 0.430289
0.952941 0.679759 0.453956
0.95346 0.683055 0.478584
0.953536 0.689052 0.507042
0.953399 0.698192 0.537881
0.953613 0.708827 0.572992
0.955154 0.726543 0.618799
0.0326238 0.849119 0.0200809
0.0323644 0.845747 0.0197147
0.0321202 0.842725 0.0194095
0.0317998 0.839841 0.0191196
0.0314336 0.837842 0.0189059
0.0310674 0.835676 0.0186618
0.0307317 0.833555 0.0184176
0.0302281 0.83061 0.0179599
0.0294347 0.826108 0.0173037
0.029221 0.821454 0.0169375
0.0303349 0.816098 0.0171969
0.0557565 0.809598 0.0176242
0.135683 0.80238 0.0217746
0.266117 0.794537 0.0301061
0.408347 0.787457 0.0398718
0.546899 0.781277 0.0527504
0.669993 0.77554 0.0711376
0.769268 0.772961 0.0859388
0.85185 0.774121 0.102617
0.92398 0.779004 0.117632
0.951003 0.785245 0.137163
0.951186 0.775357 0.197131
0.952285 0.753567 0.282185
0.95285 0.736049 0.350347
0.952087 0.72781 0.375036
0.953567 0.721462 0.397131
0.952316 0.717144 0.420356
0.95288 0.714641 0.446265
0.953613 0.713817 0.474006
0.95375 0.716564 0.502953
0.954086 0.72166 0.53611
0.954345 0.729381 0.572778
0.955917 0.743908 0.620157
0.0388647 0.894453 0.0243687
0.0389715 0.892302 0.0248722
0.0390173 0.889906 0.0253147
0.0388647 0.888045 0.0254368
0.0382391 0.886305 0.0249485
0.0376287 0.884703 0.0244755
0.0370336 0.883177 0.0240177
0.0363012 0.881193 0.0234379
0.0363165 0.878828 0.0236515
0.0364233 0.87602 0.0240787
0.037232 0.872007 0.0238956
0.0387121 0.866667 0.0226291
0.102342 0.860334 0.0255436
0.216907 0.853803 0.0341802
0.361776 0.847684 0.045716
0.508125 0.840345 0.0626841
0.638483 0.834257 0.0830396
0.744259 0.829969 0.101549
0.829068 0.828351 0.11519
0.901564 0.830045 0.130571
0.951431 0.83444 0.143526
0.953063 0.824704 0.147127
0.952773 0.802884 0.215518
0.953216 0.780041 0.306554
0.953414 0.768261 0.347692
0.953994 0.761791 0.375509
0.953567 0.755138 0.404654
0.95375 0.750546 0.43299
0.954162 0.747555 0.464118
0.954665 0.74699 0.496788
0.954681 0.748669 0.53315
0.955627 0.751751 0.572137
0.956558 0.762524 0.62089
0.0449836 0.938125 0.0311894
0.0446937 0.936782 0.0312047
0.0444038 0.935378 0.0311894
0.0442206 0.934234 0.0310979
0.0440375 0.932815 0.030808
0.0439002 0.93164 0.0305486
0.0437476 0.930388 0.0302892
0.0435645 0.928786 0.0299687
0.0433509 0.926925 0.0295872
0.0429236 0.924117 0.0290837
0.0423896 0.920882 0.0284123
0.0460517 0.916838 0.0277562
0.0550393 0.912444 0.0272526
0.162631 0.907027 0.0365301
0.306691 0.901488 0.0495918
0.459648 0.893507 0.0690776
0.602258 0.886778 0.0942397
0.714824 0.882078 0.112917
0.805417 0.879484 0.130968
0.881239 0.87866 0.146304
0.945647 0.879713 0.161151
0.955337 0.87126 0.15845
0.953719 0.848783 0.156817
0.954208 0.824598 0.236591
0.95465 0.807187 0.3075
0.954314 0.7991 0.342718
0.953979 0.792279 0.378164
0.95436 0.786831 0.412695
0.955657 0.78175 0.44892
0.955947 0.779385 0.484977
0.95671 0.778073 0.524147
0.957397 0.777905 0.567575
0.957366 0.784558 0.618402
0.0478676 0.967224 0.0339208
0.0478676 0.967224 0.0339208
0.0478676 0.967224 0.0339208
0.0478828 0.967163 0.0339361
0.0478981 0.967086 0.0339666
0.0479133 0.966995 0.0339971
0.0479286 0.966918 0.0340276
0.0479438 0.966842 0.0340581
0.0479591 0.966751 0.0341039
0.0479438 0.966384 0.0341497
0.0477913 0.964401 0.0342565
0.0476844 0.961868 0.0345006
0.0683452 0.958495 0.0357671
0.11017 0.954482 0.0377203
0.246693 0.948089 0.0533303
0.400595 0.941314 0.0748455
0.552453 0.935119 0.0990005
0.682567 0.929824 0.122606
0.778881 0.925231 0.143465
0.85774 0.921965 0.157519
0.92224 0.919356 0.171893
0.958083 0.911559 0.175433
0.957015 0.893263 0.167483
0.955459 0.869001 0.170245
0.95581 0.845502 0.249973
0.956512 0.836255 0.293095
0.956176 0.829053 0.33489
0.95581 0.822141 0.378988
0.956405 0.816587 0.422217
0.957092 0.811505 0.466987
0.95729 0.808515 0.511193
0.958404 0.805615 0.557397
0.959167 0.808576 0.615335
0.0478676 0.967224 0.0339208
0.0478676 0.967224 0.0339208
0.0478676 0.967224 0.0339208
0.0478676 0.967224 0.0339208
0.0478676 0.967224 0.0339208
0.0478676 0.967224 0.0339208
0.0478676 0.967224 0.0339208
0.0478676 0.967224 0.0339208
0.0478676 0.967224 0.0339208
0.0478676 0.967224 0.0339208
0.0478676 0.967224 0.0339208
0.0478676 0.967224 0.0339208
0.0478676 0.967224 0.0339208
0.0920272 0.966873 0.0383764
0.174899 0.966262 0.0466468
0.32108 0.963058 0.0679789
0.473899 0.961822 0.0948806
0.618372 0.960708 0.122683
0.733166 0.958816 0.145373
0.819257 0.955673 0.162478
0.891386 0.950576 0.176883
0.947005 0.944732 0.188144
0.960098 0.932555 0.184268
0.957992 0.911086 0.175784
0.955886 0.885695 0.181567
0.956207 0.871519 0.230777
0.957061 0.864149 0.276921
0.957259 0.856245 0.326757
0.958724 0.850645 0.383871
0.958694 0.84387 0.435889
0.959838 0.838834 0.487419
0.960433 0.83473 0.543511
0.961135 0.834913 0.60473
0.0478676 0.967224 0.0339208
0.0478676 0.967224 0.0339208
0.0478676 0.967224 0.0339208
0.0478676 0.967224 0.0339208
0.0478676 0.967224 0.0339208
0.0478676 0.967224 0.0339208
0.0478676 0.967224 0.0339208
0.0478676 0.967224 0.0339208
0.0478676 0.967224 0.0339208
0.0478676 0.967224 0.0339208
0.0478676 0.967224 0.0339208
0.0531777 0.967224 0.0343938
0.0708476 0.967254 0.0359655
0.0926223 0.967269 0.0379492
0.164401 0.966094 0.0463722
0.274189 0.96408 0.0596475
0.409934 0.962234 0.0822461
0.5458 0.961639 0.108186
0.669673 0.962707 0.132555
0.771328 0.965743 0.156069
0.847791 0.968277 0.174594
0.915831 0.969299 0.190906
0.958785 0.964782 0.200855
0.962097 0.949248 0.193973
0.959442 0.926329 0.183078
0.957809 0.905165 0.181064
0.958206 0.896529 0.20647
0.958465 0.889799 0.260075
0.959228 0.883055 0.321096
0.960159 0.875853 0.389303
0.961563 0.869978 0.451789
0.962264 0.863706 0.517571
0.964355 0.862531 0.589242
0.0478676 0.967224 0.0339208
0.0478676 0.967224 0.0339208
0.0480049 0.967224 0.0339361
0.0481727 0.967239 0.0339513
0.0483253 0.967254 0.0339818
0.0484779 0.967254 0.0339971
0.0486305 0.967269 0.0340124
0.0487984 0.967269 0.0340429
0.049012 0.967285 0.0340887
0.0493324 0.9673 0.0341344
0.0497292 0.96733 0.0341955
0.0502174 0.967361 0.034287
0.0649882 0.967239 0.035874
0.104204 0.966827 0.0399329
0.153323 0.966308 0.0449378
0.24033 0.965011 0.0569009
0.354665 0.963333 0.0738689
0.47744 0.961868 0.0957656
0.600046 0.962188 0.118975
0.710033 0.964187 0.142031
0.79942 0.966598 0.163958
0.870649 0.969299 0.179934
0.933181 0.972503 0.196201
0.962417 0.971893 0.209674
0.963607 0.961517 0.201434
0.960586 0.941512 0.189044
0.960403 0.929595 0.185321
0.959014 0.921798 0.193378
0.960006 0.914595 0.242817
0.961837 0.907485 0.314504
0.962936 0.901015 0.396689
0.964233 0.894301 0.477668
0.96524 0.891524 0.561288
0.0478676 0.967224 0.0339208
0.0489509 0.967224 0.0340124
0.050248 0.967224 0.0341344
0.0518807 0.967224 0.0342718
0.0529641 0.967224 0.0343633
0.0545357 0.967224 0.0345006
0.0561532 0.967224 0.034638
0.0577249 0.967224 0.0347753
0.0598917 0.967224 0.0349584
0.063035 0.967224 0.0352331
0.0669413 0.967224 0.035584
0.0724041 0.967208 0.0360723
0.079118 0.967193 0.0366827
0.104082 0.966812 0.0396277
0.152651 0.966018 0.0454566
0.21442 0.965057 0.0527657
0.302602 0.963714 0.0657816
0.412039 0.962203 0.0827192
0.526619 0.961883 0.103304
0.638666 0.962676 0.126085
0.739223 0.964767 0.149111
