Luts/Fujifilm/FLog2C_to_ETERNA_VLog.cube
TITLE "Generated by Resolve"
LUT_3D_SIZE 9
0.0065156 0.00610361 0.00611887
0.0065156 0.00610361 0.00611887
0.166705 0.0181888 0.0264134
0.611109 0.0888838 0.0812543
0.942657 0.274479 0.215534
0.943984 0.328389 0.270512
0.943725 0.343084 0.258976
0.939513 0.459922 0.292622
0.94757 0.600549 0.465095
0.0065156 0.00610361 0.00611887
0.00578317 0.00683604 0.00595102
0.193423 0.017731 0.030396
0.5944 0.0837873 0.0811933
0.938674 0.234562 0.151995
0.943984 0.328389 0.270512
0.941039 0.366629 0.244556
0.93901 0.470344 0.292607
0.947753 0.603952 0.465461
0.00633249 0.183398 0.000411994
0.00688182 0.173175 0.000457771
0.121889 0.136385 0.0009308
0.423209 0.135866 0.0439918
0.909773 0.221714 0.101549
0.94139 0.356832 0.249897
0.939727 0.391928 0.226413
0.939116 0.482261 0.29308
0.947967 0.607965 0.465766
0.00877394 0.52491 0.000549325
0.00675975 0.38265 0.000289921
0.0461891 0.331792 0.000549325
0.321416 0.301915 0.002533
0.767422 0.342596 0.060029
0.933745 0.443626 0.116167
0.93637 0.457206 0.201404
0.940261 0.514549 0.291905
0.94847 0.619715 0.466697
0.00929274 0.747662 0.000350958
0.00813306 0.711604 0.000335698
0.00967422 0.683436 0.000289921
0.256214 0.64094 1.5259e-05
0.656672 0.61529 0.00686656
0.925612 0.63801 0.0595254
0.931868 0.591608 0.159213
0.938079 0.597269 0.280919
0.947494 0.654856 0.465629
0.0178531 0.975875 0.00047303
0.0180209 0.969863 0.000564584
0.0195926 0.961898 0.000427253
0.187411 0.942473 0.00129702
0.559838 0.908782 0.000167849
0.900801 0.877897 0.0491035
0.927474 0.779446 0.0554513
0.935195 0.742321 0.224292
0.94786 0.736751 0.454643
0.0380713 0.999817 0.000244144
0.0599222 0.999817 0.00030518
0.0934157 0.999817 0.000366217
0.187442 0.999771 0.000488289
0.399619 0.999542 0.000411994
0.73225 0.999527 0.0075227
0.932387 0.983337 0.0612497
0.930556 0.920928 0.0543526
0.948287 0.874327 0.374426
0.306249 0.999863 0.000137331
0.312001 0.999863 0.000167849
0.319036 0.999863 0.000213626
0.339605 0.999847 0.000366217
0.402945 0.999725 0.000717174
0.561883 0.999481 1.5259e-05
0.809491 0.999573 0.0317998
0.932509 0.999634 0.0824445
0.934279 0.999847 0.0831769
0.556802 0.994064 0.592966
0.558892 0.994125 0.592966
0.561502 0.994171 0.593133
0.568978 0.994354 0.593378
0.593561 0.994904 0.59472
0.650935 0.996994 0.58761
0.783398 0.999573 0.556664
0.959823 0.999619 0.451835
0.962295 0.999313 0.481453
0.00637827 0.0061799 0.00747692
0.00648508 0.00613413 0.00619516
0.187716 0.0182498 0.02916
0.624506 0.0920882 0.0826734
0.942748 0.27631 0.217731
0.943984 0.328389 0.270512
0.943755 0.342916 0.259083
0.939529 0.459831 0.292683
0.94757 0.600549 0.465095
0.00643931 0.00613413 0.00675975
0.0065156 0.00610361 0.00611887
0.214771 0.0191043 0.0331579
0.609201 0.0870222 0.0830091
0.938994 0.236576 0.155932
0.943984 0.328389 0.270512
0.941054 0.366445 0.244678
0.939025 0.470192 0.292699
0.947753 0.603952 0.465461
0.00640879 0.182559 0.00108339
0.00520333 0.163745 6.10361e-05
0.13872 0.134417 0.00234989
0.43508 0.136126 0.0457618
0.912047 0.222507 0.101732
0.941436 0.356466 0.250156
0.939742 0.391714 0.226566
0.939116 0.482231 0.293141
0.947982 0.60798 0.465873
0.0080415 0.494514 0.000228885
0.00668345 0.371389 0.000244144
0.066453 0.328206 0.000427253
0.329671 0.30074 0.00309758
0.771008 0.343053 0.0604868
0.933822 0.443473 0.117662
0.93637 0.457176 0.201495
0.940276 0.514549 0.291997
0.94847 0.619715 0.466697
0.00924697 0.740383 0.000518807
0.00814832 0.707591 0.000442512
0.0102083 0.680461 0.000289921
0.263661 0.639323 0
0.659831 0.615137 0.00729381
0.925628 0.637797 0.0595865
0.931884 0.591577 0.159319
0.938079 0.597269 0.280919
0.947494 0.654856 0.465629
0.0178378 0.975097 0.000488289
0.018143 0.968704 0.000549325
0.0222934 0.960983 0.000396735
0.19794 0.941573 0.00140383
0.562676 0.908492 0.000183108
0.901228 0.877714 0.0491798
0.927474 0.779416 0.0554665
0.935195 0.742321 0.224292
0.947875 0.736751 0.45478
0.038468 0.999817 0.000259403
0.064271 0.999817 0.00030518
0.0979477 0.999817 0.000381476
0.19057 0.999756 0.00047303
0.401328 0.999542 0.000396735
0.733104 0.999527 0.00773632
0.932387 0.983215 0.0611887
0.930556 0.920821 0.0543526
0.948287 0.874327 0.374426
0.307347 0.999878 0.000137331
0.312795 0.999863 0.000183108
0.320012 0.999863 0.000228885
0.340459 0.999847 0.000381476
0.403769 0.999725 0.000701915
0.562325 0.999481 1.5259e-05
0.809659 0.999573 0.0318608
0.932509 0.999634 0.0824445
0.934279 0.999847 0.0831769
0.557092 0.994079 0.592981
0.559167 0.994125 0.592981
0.561715 0.994186 0.593103
0.569543 0.994369 0.593408
0.594064 0.994919 0.594705
0.651118 0.996994 0.587762
0.783581 0.999573 0.556603
0.959823 0.999619 0.451698
0.962295 0.999313 0.481453
0.013962 0.00630198 0.153964
0.0138552 0.00627146 0.153216
0.178439 0.00491341 0.120974
0.583124 0.0781872 0.10161
0.942016 0.259251 0.196063
0.943984 0.328389 0.270512
0.943801 0.342672 0.25922
0.939544 0.459754 0.292699
0.947555 0.600458 0.465095
0.013901 0.00630198 0.153552
0.0116732 0.00492866 0.137484
0.205234 0.00669871 0.121721
0.57322 0.0738537 0.114672
0.937087 0.223453 0.129702
0.943984 0.328389 0.270512
0.94107 0.366232 0.244816
0.93901 0.470161 0.292668
0.947753 0.603876 0.465446
0.0191806 0.20795 0.203738
0.0152132 0.172442 0.158907
0.136324 0.138323 0.136782
0.422858 0.135485 0.140154
0.890166 0.218387 0.145846
0.941787 0.359457 0.24892
0.939757 0.39147 0.226734
0.939116 0.482155 0.293126
0.947982 0.60798 0.465873
0.0256199 0.538384 0.227893
0.0190127 0.405829 0.145296
0.039353 0.353338 0.115084
0.324987 0.31754 0.113848
0.756786 0.347265 0.11014
0.936568 0.446448 0.197253
0.93637 0.456901 0.201572
0.940276 0.514427 0.291981
0.94847 0.619715 0.466697
0.0184329 0.769604 0.0307317
0.015671 0.738338 0.0139467
0.0144045 0.712657 0.00682078
0.245411 0.668849 0.00424201
0.645533 0.631037 0.00173953
0.926375 0.643214 0.0599527
0.931868 0.591409 0.159487
0.938079 0.597147 0.280919
0.947494 0.654871 0.465751
0.0192416 0.982513 0.000411994
0.0184787 0.97731 0.000381476
0.0183871 0.971099 0.000442512
0.156558 0.951995 0.000656138
0.543328 0.915557 0.000656138
0.895552 0.880171 0.0470741
0.927474 0.779355 0.0554665
0.935195 0.742397 0.224201
0.947875 0.736751 0.45478
0.0287175 0.999725 0.000381476
0.0577096 0.999756 0.000381476
0.0917067 0.999786 0.000396735
0.185107 0.999817 0.000411994
0.400214 0.999603 0.00030518
0.733852 0.999527 0.00794995
0.932372 0.98323 0.0612192
0.930556 0.920821 0.0543526
0.948302 0.874327 0.374594
0.308064 0.999878 0.00015259
0.314107 0.999878 0.000183108
0.320867 0.999863 0.000228885
0.341573 0.999847 0.000381476
0.404547 0.999725 0.000701915
0.562966 0.999481 0
0.809842 0.999573 0.0319371
0.932509 0.999634 0.0824445
0.934279 0.999847 0.0831769
0.557595 0.994095 0.592966
0.55964 0.994125 0.593103
0.562295 0.994202 0.593133
0.569757 0.994369 0.593378
0.594354 0.994919 0.59472
0.651514 0.997009 0.587655
0.783749 0.999573 0.556527
0.959823 0.999619 0.451698
0.962295 0.999313 0.481453
0.025803 0.017731 0.368826
0.0246433 0.00383001 0.330663
0.174548 0.000488289 0.259922
0.560006 0.0329747 0.274937
0.946715 0.232364 0.295995
0.945876 0.33135 0.305104
0.945861 0.358083 0.324498
0.93962 0.459327 0.292836
0.94757 0.600381 0.465171
0.0257877 0.0177615 0.368582
0.0211643 0.00236515 0.297475
0.201984 0.000274662 0.258076
0.561303 0.029984 0.282139
0.947372 0.188785 0.322667
0.947402 0.340902 0.361868
0.945296 0.382879 0.33225
0.93904 0.469657 0.292805
0.947753 0.603784 0.465553
0.0365454 0.254475 0.497215
0.0285954 0.181979 0.371038
0.136324 0.140215 0.305943
0.425498 0.131594 0.301503
0.880781 0.198856 0.353277
0.947021 0.384314 0.386313
0.944091 0.409674 0.337652
0.939132 0.481773 0.293248
0.947982 0.607889 0.465965
0.0440375 0.58143 0.551812
0.0346838 0.44892 0.423011
0.0336004 0.38558 0.357412
0.334188 0.333989 0.334005
0.757458 0.347875 0.350576
0.944549 0.457191 0.381613
0.942931 0.473152 0.345739
0.940276 0.514244 0.292134
0.94847 0.619638 0.466804
0.0424964 0.785824 0.42002
0.0390478 0.758114 0.385855
0.0358892 0.733547 0.356008
0.238682 0.689967 0.330465
0.649088 0.643915 0.32784
0.939559 0.647211 0.321798
0.941238 0.601022 0.340505
0.938094 0.597101 0.281102
0.947509 0.654765 0.465751
0.0448005 0.970275 0.179675
0.0435035 0.966293 0.170932
0.0413367 0.962036 0.160464
0.0739452 0.950195 0.143099
0.510872 0.919524 0.179065
0.875761 0.881498 0.180072
0.937942 0.780575 0.263722
0.935195 0.742031 0.224537
0.947875 0.73666 0.454932
0.0228122 0.999832 0.000198367
0.0425574 0.999847 0.000259403
0.0667124 0.999847 0.000335698
0.138231 0.999817 0.000427253
0.342916 0.999786 0.000274662
0.693217 0.999969 0.00224308
0.932006 0.984619 0.0621347
0.930556 0.920775 0.0543526
0.948302 0.874327 0.374594
0.309346 0.99971 0.000259403
0.314748 0.999725 0.000274662
0.321324 0.999756 0.000289921
0.341146 0.999817 0.000335698
0.401221 0.999969 0.000457771
0.557916 0.99939 3.0518e-05
0.809964 0.999588 0.0320287
0.932509 0.999634 0.0824445
0.934279 0.999847 0.0831922
0.558663 0.99411 0.592996
0.560708 0.994156 0.593118
0.563272 0.994217 0.59324
0.570794 0.994385 0.593545
0.595422 0.994949 0.594736
0.652079 0.99704 0.587503
0.784115 0.999573 0.55639
0.959808 0.999619 0.45156
0.96231 0.999313 0.481697
0.0428626 0.0157015 0.692363
0.0438239 0.0116274 0.671031
0.15172 0.00268559 0.507012
0.528695 0.000274662 0.481102
0.957702 0.15581 0.522759
0.950134 0.341268 0.445655
0.95198 0.379034 0.473533
0.948867 0.483543 0.465202
0.94757 0.600122 0.465354
0.0428779 0.0157931 0.692439
0.04094 0.00802625 0.625269
0.184054 0.00151064 0.498527
0.546609 0.00030518 0.482963
0.956481 0.130541 0.549966
0.954559 0.334752 0.4972
0.951629 0.408591 0.491264
0.948623 0.493431 0.46775
0.947753 0.603525 0.465721
0.0530404 0.256123 0.795834
0.047364 0.192035 0.700755
0.129534 0.132631 0.587243
0.442481 0.11223 0.548547
0.875776 0.172564 0.589395
0.953414 0.383276 0.531441
0.951125 0.438285 0.506371
0.948135 0.505089 0.471214
0.947982 0.607553 0.466133
0.0601511 0.610513 0.832578
0.0539406 0.488289 0.731273
0.0479591 0.418738 0.667659
0.349767 0.353735 0.63447
0.764935 0.343572 0.625681
0.955154 0.456092 0.584329
0.951278 0.503899 0.536934
0.948318 0.535988 0.477333
0.948501 0.619287 0.467063
0.0664073 0.788464 0.722499
0.0611887 0.765332 0.699031
0.0566873 0.743648 0.675959
0.225299 0.700969 0.654124
0.651362 0.651621 0.651392
0.955947 0.64271 0.622995
0.952697 0.617655 0.564218
0.948867 0.609674 0.488396
0.947524 0.654505 0.466087
0.0733806 0.942168 0.592279
0.0724651 0.938476 0.585962
0.0725261 0.934462 0.580087
0.0694591 0.9243 0.562554
0.475227 0.899962 0.587289
0.865599 0.865354 0.582086
0.955749 0.780545 0.556558
0.949615 0.743496 0.476005
0.94789 0.736584 0.455207
0.0589151 0.999619 0.337606
0.0682078 0.999527 0.337957
0.0818189 0.999344 0.338994
0.129915 0.998871 0.343404
0.336217 0.998154 0.371252
0.662547 0.999954 0.367391
0.948196 0.981323 0.332189
0.947204 0.913359 0.338796
0.948348 0.87422 0.375219
0.362051 0.999405 0.332067
0.366125 0.999435 0.330648
0.371099 0.999466 0.328496
0.385458 0.999557 0.322805
0.430869 0.99971 0.304921
0.558389 0.999832 0.250813
0.785657 0.999603 0.0919814
0.932509 0.999634 0.0824445
0.934295 0.999847 0.0831922
0.549203 0.992538 0.645136
0.551492 0.992569 0.645182
0.554345 0.992599 0.645243
0.562661 0.992721 0.645411
0.589288 0.993057 0.645975
0.657328 0.995453 0.648188
0.786068 0.999252 0.612192
0.960784 0.999649 0.466072
0.962325 0.999313 0.481956
0.071458 0.0591592 0.999939
0.0714885 0.0591745 0.999939
0.0574502 0.0380713 0.910826
0.471336 0.00141909 0.815381
0.936812 0.00721752 0.829526
0.961654 0.290349 0.623819
0.959945 0.353124 0.62649
0.955444 0.486976 0.628504
0.955505 0.6177 0.630106
0.071458 0.0591592 0.999939
0.0715038 0.0591592 0.999939
0.0540322 0.0341802 0.884352
0.489357 0.000335698 0.814755
0.941268 0.00834669 0.829633
0.96318 0.304631 0.662425
0.958846 0.381704 0.640452
0.955886 0.49865 0.632837
0.955596 0.620935 0.631006
0.0639506 0.199405 0.995758
0.0640269 0.20264 0.995544
0.0573281 0.107607 0.915434
0.443122 0.0671702 0.856184
0.868482 0.124468 0.853712
0.964736 0.327474 0.710613
0.958709 0.412177 0.65594
0.956878 0.512093 0.637766
0.955718 0.624857 0.63209
0.0651865 0.54548 0.937133
0.0650645 0.506294 0.943099
0.0644999 0.430228 0.934707
0.335424 0.352773 0.904143
0.765988 0.323735 0.88777
0.965988 0.408759 0.798154
0.959197 0.484825 0.683513
0.956725 0.546838 0.651759
0.956069 0.635859 0.635218
0.076051 0.753658 0.894224
0.0733806 0.737377 0.897124
0.071519 0.720607 0.893385
0.170809 0.689311 0.879576
0.632105 0.643076 0.888334
0.964752 0.6159 0.86331
0.961364 0.620264 0.726589
0.958877 0.627939 0.679774
0.957183 0.666423 0.642329
0.0866407 0.903197 0.819043
0.0867475 0.898894 0.816083
0.0848249 0.895613 0.810819
0.082826 0.887358 0.799603
0.410391 0.867155 0.819669
0.834974 0.836423 0.834821
0.968277 0.782193 0.773068
0.963027 0.746685 0.708751
0.959869 0.738994 0.64831
0.0864271 0.986297 0.664652
0.0864576 0.986328 0.663569
0.0864729 0.986236 0.662257
0.0864424 0.986023 0.658564
0.223148 0.987106 0.671504
0.611337 0.988251 0.710826
0.957321 0.962524 0.708705
0.967803 0.900008 0.674098
0.962966 0.866163 0.618402
0.310796 0.987915 0.659693
0.316655 0.987976 0.659693
0.323644 0.988052 0.659648
0.343862 0.988281 0.659754
0.407156 0.989105 0.659953
0.5682 0.992493 0.662577
0.794339 0.999496 0.631907
0.961883 0.999664 0.482261
0.95758 0.999908 0.409766
0.493797 0.986175 0.796536
0.49633 0.986221 0.796551
0.499474 0.986282 0.796567
0.508629 0.98645 0.796597
0.538293 0.987015 0.796719
0.619471 0.98967 0.796002
0.783841 0.995254 0.797589
0.977462 0.999924 0.730129
0.97203 0.999451 0.632593
0.100969 0.0818036 0.999619
0.100969 0.0818036 0.999619
0.100969 0.0818036 0.999619
0.0775769 0.0702983 0.999832
0.79266 0.0141604 0.999542
0.9785 0.208194 0.919585
0.969223 0.306752 0.808255
0.964965 0.445319 0.78677
0.963897 0.598566 0.765774
0.100969 0.0818036 0.999619
0.100969 0.0818036 0.999619
0.100969 0.0818036 0.999619
0.0912795 0.0709392 0.999786
0.797894 0.0137484 0.999542
0.978408 0.209232 0.918318
0.969116 0.332952 0.818555
0.964675 0.457176 0.789502
0.963897 0.602304 0.766903
0.100969 0.0818036 0.999619
0.100969 0.0818036 0.999619
0.100969 0.0818036 0.999619
0.149554 0.0704051 0.999969
0.800122 0.0173342 0.999435
0.978668 0.226871 0.956252
0.968887 0.361288 0.828016
0.96466 0.470634 0.792615
0.963912 0.606806 0.768277
0.0986191 0.340627 0.976608
0.098146 0.34197 0.976333
0.0975814 0.343572 0.976013
0.0997177 0.28098 0.987427
0.700603 0.260517 0.999908
0.980591 0.317021 0.999939
0.968124 0.433646 0.844831
0.964706 0.506645 0.800153
0.964096 0.619745 0.771847
0.0759442 0.75761 0.894011
0.075288 0.753826 0.894606
0.066392 0.623835 0.9243
0.0662852 0.592096 0.928786
0.524163 0.573007 0.988266
0.933745 0.549706 0.999161
0.969512 0.572244 0.86981
0.966735 0.590585 0.81912
0.965133 0.656352 0.780484
0.0826276 0.82919 0.879545
0.0818189 0.826185 0.88043
0.0809949 0.822904 0.880491
0.0814221 0.814664 0.882261
0.335119 0.800229 0.918303
0.769772 0.783154 0.985611
0.976364 0.74934 0.923018
0.971054 0.729824 0.846433
0.96907 0.737163 0.801678
0.100084 0.971527 0.85359
0.100084 0.971008 0.853559
0.100099 0.970504 0.853513
0.0996719 0.968399 0.854643
0.112016 0.963455 0.85626
0.525536 0.950729 0.905089
0.925231 0.927596 0.925078
0.980453 0.884184 0.874846
0.976364 0.856504 0.821942
0.134554 0.97969 0.851926
0.137377 0.979675 0.852049
0.147646 0.979675 0.852827
0.179767 0.979675 0.855238
0.276005 0.979858 0.862211
0.465843 0.983566 0.869108
0.771817 0.992767 0.871504
0.984192 0.999496 0.817121
0.978714 0.999252 0.749294
0.403983 0.98143 0.897917
0.406592 0.981476 0.898344
0.409506 0.981521 0.898817
0.419318 0.981689 0.900404
0.449699 0.982208 0.905287
0.537163 0.984543 0.917357
0.727428 0.989303 0.947448
0.978332 0.99971 0.936095
0.987762 0.999832 0.861311
0.0653544 0.557504 0.934615
0.0653544 0.557504 0.934615
0.0653544 0.557504 0.934615
0.0653544 0.557504 0.934615
0.0653544 0.557748 0.934585
0.820157 0.122301 0.99968
0.981155 0.277745 0.999771
0.974609 0.370336 0.973739
0.971679 0.537301 0.924926
0.0653544 0.557504 0.934615
0.0653544 0.557504 0.934615
0.0653544 0.557504 0.934615
0.0653544 0.557504 0.934615
0.0653544 0.557748 0.934585
0.822782 0.122683 0.99968
0.981155 0.277745 0.999771
0.974456 0.380957 0.974578
0.971771 0.541238 0.925505
0.0653544 0.557504 0.934615
0.0653544 0.557504 0.934615
0.0653544 0.557504 0.934615
0.0653544 0.557504 0.934615
0.0653544 0.557748 0.934585
0.825284 0.123796 0.999664
0.981094 0.283589 0.999878
0.974899 0.393088 0.976226
0.971847 0.545907 0.926177
0.0653544 0.557504 0.934615
0.0653697 0.55845 0.934478
0.0653849 0.559625 0.934295
0.0654612 0.563165 0.933745
0.0656596 0.574243 0.932006
0.809888 0.169299 0.999603
0.978653 0.342473 0.999146
0.974685 0.427115 0.980362
0.971939 0.559335 0.927932
0.0821241 0.821851 0.880705
0.0821393 0.822126 0.880644
0.0821546 0.8224 0.880598
0.0822309 0.823346 0.88043
0.0824598 0.8262 0.879896
0.67834 0.419043 0.999695
0.977905 0.471656 0.999451
0.974258 0.513512 0.988159
0.972824 0.597345 0.932998
0.0997177 0.979767 0.852705
0.0997177 0.979767 0.852705
0.0997177 0.979767 0.852705
0.0997177 0.979767 0.852705
0.0871901 0.870619 0.870817
0.567361 0.681971 0.972229
0.967941 0.683955 0.999863
0.978607 0.664393 0.99585
0.975174 0.68658 0.943191
0.0997177 0.979767 0.852705
0.0997177 0.979767 0.852705
0.0997177 0.979767 0.852705
0.0997177 0.979767 0.852705
0.0999771 0.971283 0.853925
0.379843 0.923827 0.902525
0.846754 0.869368 0.984451
0.986084 0.840391 0.999695
0.982223 0.823438 0.959014
0.0997177 0.979767 0.852705
0.0997177 0.979767 0.852705
0.0997177 0.979767 0.852705
0.0997177 0.979767 0.852705
0.106538 0.979736 0.853697
0.329763 0.981003 0.886671
0.695888 0.987991 0.944045
0.997482 0.999802 0.999023
0.993683 0.985031 0.968368
0.335317 0.980392 0.886503
0.337881 0.980438 0.886915
0.34139 0.980484 0.887495
0.351324 0.980621 0.889097
0.382742 0.981079 0.894179
0.479759 0.982635 0.909117
0.689693 0.988327 0.942626
0.958816 0.998169 0.98938
1 1 1
0.0997177 0.979767 0.852705
0.0997177 0.979767 0.852705
0.0997177 0.979767 0.852705
0.0997177 0.979767 0.852705
0.0997177 0.979767 0.852705
0.0997177 0.979767 0.852705
0.0997177 0.979767 0.852705
0.97969 0.468513 0.999664
0.979263 0.495781 1
0.0997177 0.979767 0.852705
0.0997177 0.979767 0.852705
0.0997177 0.979767 0.852705
0.0997177 0.979767 0.852705
0.0997177 0.979767 0.852705
0.0997177 0.979767 0.852705
0.0997177 0.979767 0.852705
0.979675 0.468437 0.999664
0.979324 0.49836 1
0.0997177 0.979767 0.852705
0.0997177 0.979767 0.852705
0.0997177 0.979767 0.852705
0.0997177 0.979767 0.852705
0.0997177 0.979767 0.852705
0.0997177 0.979767 0.852705
0.0997177 0.979767 0.852705
0.979675 0.468315 0.999664
0.9794 0.501534 1
0.0997177 0.979767 0.852705
0.0997177 0.979767 0.852705
0.0997177 0.979767 0.852705
0.0997177 0.979767 0.852705
0.0997177 0.979767 0.852705
0.0997177 0.979767 0.852705
0.0997177 0.979767 0.852705
0.979248 0.482048 0.99971
0.979629 0.510964 1
0.0997177 0.979767 0.852705
0.0997177 0.979767 0.852705
0.0997177 0.979767 0.852705
0.0997177 0.979767 0.852705
0.0997177 0.979767 0.852705
0.0997177 0.979767 0.852705
0.0997177 0.979767 0.852705
0.977752 0.55436 0.999985
0.978485 0.541253 1
0.0997177 0.979767 0.852705
0.0997177 0.979767 0.852705
0.0997177 0.979767 0.852705
0.0997177 0.979767 0.852705
0.0997177 0.979767 0.852705
0.0997177 0.979767 0.852705
0.0997177 0.979767 0.852705
0.981369 0.694911 0.999985
0.978042 0.626917 0.999985
0.0997177 0.979767 0.852705
0.0997177 0.979767 0.852705
0.0997177 0.979767 0.852705
0.0997177 0.979767 0.852705
0.0997177 0.979767 0.852705
0.0997177 0.979767 0.852705
0.0997177 0.979767 0.852705
0.97818 0.882445 0.999649
0.9832 0.784543 0.999695
0.0997177 0.979767 0.852705
0.0997177 0.979767 0.852705
0.0997177 0.979767 0.852705
0.0997177 0.979767 0.852705
0.0997177 0.979767 0.852705
0.0997177 0.979767 0.852705
0.0997177 0.979767 0.852705
0.894423 0.99617 0.976913
0.996536 0.985534 0.99968
0.0997177 0.979767 0.852705
0.0997177 0.979767 0.852705
0.0997177 0.979767 0.852705
0.0997177 0.979767 0.852705
0.0997177 0.979767 0.852705
0.0997177 0.979767 0.852705
0.181842 0.979324 0.863172
0.878309 0.99498 0.976089
1 1 1
