Luts/Fujifilm/FLog2C_to_REALA-ACE_VLog.cube
TITLE "Generated by Resolve"
LUT_3D_SIZE 5
0.000198367 0.000106813 0
0.101808 1.5259e-05 0.00175479
0.926345 0.260655 0.441459
0.944183 0.344152 0.462348
0.99762 0.620737 0.57499
0 0.163012 6.10361e-05
0.0843977 0.0979171 0.000518807
0.910521 0.198978 0.268772
0.955932 0.394141 0.417563
0.998367 0.629129 0.572396
0.453529 0.789136 0.38265
0.352911 0.715419 0.286595
0.707713 0.638987 3.0518e-05
0.9906 0.614038 0.257053
0.998886 0.682414 0.550179
0.663661 0.929183 0.593484
0.663661 0.929183 0.593484
0.680186 0.931823 0.592645
0.997559 0.979583 0.365332
0.998123 0.928252 0.317739
0.718257 0.944396 0.722454
0.720638 0.944793 0.722377
0.736934 0.947555 0.722118
0.863416 0.967697 0.680842
0.995422 0.990723 0.560586
0.000122072 0.000396735 0.102571
0.134508 0.000427253 0.0654612
0.922927 0.243137 0.433051
0.944091 0.343801 0.462684
0.99762 0.620645 0.575021
0.000320439 0.167651 0.175036
0.1066 0.108186 0.106203
0.910307 0.196353 0.285878
0.955825 0.393668 0.418006
0.998367 0.629129 0.572503
0.507729 0.827726 0.435737
0.410468 0.758846 0.341176
0.698329 0.66128 0.000488289
0.990585 0.613825 0.25742
0.998886 0.682414 0.550286
0.663661 0.929183 0.593484
0.663661 0.929183 0.593484
0.680568 0.932052 0.59292
0.997559 0.979522 0.364904
0.998123 0.928237 0.317983
0.718654 0.944457 0.722423
0.72105 0.944854 0.722347
0.737346 0.947631 0.722103
0.863691 0.967742 0.680705
0.995422 0.990723 0.560586
0.102724 0.00776684 0.67657
0.0756695 0.000274662 0.59086
0.869352 0.301152 0.695537
0.942123 0.40351 0.646006
0.997589 0.620279 0.575463
0.180911 0.161715 0.760433
0.0562905 0.0144198 0.639979
0.866697 0.288304 0.676417
0.959762 0.458854 0.663325
0.998322 0.628672 0.572961
0.468208 0.816236 0.806806
0.385382 0.765087 0.749477
0.692897 0.693263 0.692958
0.997894 0.638788 0.667659
0.998886 0.682002 0.550851
0.660807 0.929778 0.617197
0.660899 0.929976 0.618235
0.665156 0.93106 0.624826
0.995743 0.988434 0.484642
0.998123 0.9281 0.318868
0.710796 0.944762 0.755444
0.713375 0.945205 0.755352
0.730831 0.94818 0.75465
0.859144 0.969162 0.718059
0.995407 0.990738 0.560891
0.167086 0.0513008 0.709224
0.167086 0.0513008 0.709224
0.785748 0.339101 0.819318
0.859648 0.43508 0.843885
0.946731 0.638453 0.843793
0.167086 0.0513008 0.709224
0.167086 0.0513008 0.709224
0.791852 0.342596 0.820188
0.869337 0.468879 0.855848
0.949416 0.645716 0.845029
0.314641 0.723079 0.859648
0.205035 0.560159 0.842893
0.517861 0.539757 0.890379
0.914717 0.628138 0.90222
0.964446 0.689921 0.854398
0.645991 0.926863 0.921157
0.645655 0.92639 0.921569
0.6439 0.925521 0.921813
0.958343 0.958389 0.958129
0.998703 0.885924 0.859434
0.655772 0.931151 0.925399
0.656382 0.931243 0.925536
0.660929 0.931975 0.926558
0.789181 0.966857 0.954345
0.995758 0.998688 0.840436
0.647959 0.928695 0.91989
0.647959 0.928695 0.91989
0.647959 0.928695 0.91989
0.647959 0.928695 0.91989
0.889387 0.538506 0.879286
0.647959 0.928695 0.91989
0.647959 0.928695 0.91989
0.647959 0.928695 0.91989
0.647959 0.928695 0.91989
0.890532 0.543435 0.880781
0.647959 0.928695 0.91989
0.647959 0.928695 0.91989
0.647959 0.928695 0.91989
0.647959 0.928695 0.91989
0.898878 0.575525 0.890669
0.647959 0.928695 0.91989
0.647959 0.928695 0.91989
0.647959 0.928695 0.91989
0.647959 0.928695 0.91989
0.958831 0.799008 0.956756
0.647959 0.928695 0.91989
0.647959 0.928695 0.91989
0.647959 0.928695 0.91989
0.646143 0.926818 0.922652
0.998047 0.998047 0.998047
