Luts/Fujifilm/FLog2C_to_FLog2C-709_VLog.cube
TITLE "Generated by Resolve"
#LUMIXPHOTOSTYLE VLOG
LUT_3D_SIZE 33
0 0 0
0 0 0
0 0 0
0.051957 0 0.00030518
0.132403 0 0.000610361
0.191501 0 3.0518e-05
0.23714 0 0
0.279164 0 0
0.321706 0 0
0.364858 0 0
0.408255 0 0
0.451987 0 0
0.495903 0 0
0.53991 0 0
0.58407 0 0
0.628412 0 0
0.672663 0 0
0.717098 0 0
0.757839 0 0
0.795834 0 0
0.831968 0 0
0.867628 0 0
0.903319 0 0
0.939178 0.0225681 0
0.975067 0.0987259 0
1 0.163088 0
1 0.215579 0
1 0.262287 0
1 0.305806 0
1 0.347051 0
1 0.386831 0
1 0.425422 0
1 0.463218 0
0 0 0
0 0 0
0 0 0
0.0667277 0 0.000396735
0.142611 0 0.000518807
0.199893 0 0
0.243381 0 0
0.283879 0 0
0.325307 0 0
0.367514 0 0
0.410315 0 0
0.453452 0 0
0.497017 0 0
0.540764 0 0
0.584756 0 0
0.62884 0 0
0.670436 0 0
0.710796 0 0
0.750286 0 0
0.788235 0 0
0.825513 0 0
0.862516 0 0
0.899443 0.00277714 0
0.936141 0.0554818 0
0.972747 0.121523 0
1 0.175875 0
1 0.223804 0
1 0.267933 0
1 0.309728 0
1 0.34992 0
1 0.388861 0
1 0.426871 0
1 0.464347 0
0 0 0
0 0 0
0 0 0
0.0808576 0 0.000488289
0.152712 0 0.000411994
0.207858 0 0
0.24947 0 0
0.288502 0 0
0.328817 0 0
0.36968 0 0
0.410956 0 0
0.45272 0 0
0.494743 0 0
0.536812 0 0
0.578836 0 0
0.620569 0 0
0.661952 0 0
0.702724 0 0
0.742245 0 0
0.781231 0 0
0.819852 0 0
0.857969 0.000488289 0
0.895872 0.0287938 0
0.933318 0.08542 0
0.970489 0.139773 0
1 0.187762 0
1 0.23183 0
1 0.273518 0
1 0.313481 0
1 0.352697 0
1 0.390784 0
1 0.428336 0
1 0.46537 0
0 0.0517586 0
0 0.0531624 0
6.10361e-05 0.0538643 0
0.0518502 0.0456703 0
0.13135 0.0370031 0
0.190906 0.0282292 0
0.233738 0.0202792 0
0.273564 0.0126955 0
0.314473 0.00340276 0
0.3561 0.00166323 0
0.398367 0 0
0.44094 0 0
0.483711 0 0
0.526528 0 0
0.5691 0 0
0.611429 0 0
0.652995 0 0
0.694209 0 0
0.734844 0 0
0.775082 0.000122072 0
0.81471 0.000732433 0
0.853773 0.0221408 0
0.892439 0.0636606 0
0.930602 0.111971 0
0.968444 0.156985 0
1 0.199069 0
1 0.239582 0
1 0.278843 0
1 0.317403 0
1 0.355306 0
1 0.392828 0
1 0.429801 0
1 0.466377 0
0 0.113756 0
0 0.114885 0
0 0.114214 0
0.0151827 0.107469 0
0.101884 0.100267 0
0.16875 0.0923476 0
0.214481 0.0853437 0
0.256245 0.0773327 0
0.298604 0.0683146 0
0.341512 0.0584268 0
0.38471 0.0479896 0
0.42826 0.03682 0
0.471931 0.0253758 0
0.515328 0.0150912 0
0.558679 0.00737011 0
0.601709 0.0065156 0
0.644373 0.00509651 0
0.686687 0.00471504 0
0.728405 0.00787366 0
0.769451 0.0163272 0
0.81004 0.0323339 0
0.849912 0.0597543 0
0.889311 0.0957961 0
0.928069 0.133165 0
0.966323 0.171206 0
0.999634 0.209171 0
1 0.246738 0
1 0.284153 0
1 0.321202 0
1 0.358083 0
1 0.394751 0
1 0.431144 0
1 0.467399 0
0 0.162997 0
0 0.163836 0
0 0.162295 0
0 0.15697 0
0.0658579 0.151293 0
0.142351 0.145449 0
0.192386 0.140139 0
0.237003 0.13434 0
0.281468 0.127459 0
0.326116 0.11957 0
0.370993 0.110491 0
0.415763 0.100404 0
0.460395 0.0891585 0
0.504997 0.0779126 0
0.549386 0.0668498 0
0.593332 0.0577859 0
0.636866 0.0507362 0
0.680003 0.0477607 0
0.72253 0.049546 0
0.764416 0.0573892 0
0.805707 0.0721294 0
0.846326 0.094255 0
0.88632 0.12105 0
0.925597 0.152239 0
0.964431 0.184512 0
0.999161 0.21854 0
1 0.253468 0
1 0.28896 0
1 0.324788 0
1 0.360739 0
1 0.396643 0
1 0.432609 0
1 0.468421 0
0 0.198581 0
0 0.199207 0
0 0.196933 0
0 0.192294 0
0.0358129 0.187198 0
0.117647 0.1823 0
0.172183 0.177874 0
0.219715 0.173083 0
0.266255 0.1673 0
0.312459 0.160647 0
0.358618 0.153155 0
0.404578 0.144839 0
0.450324 0.135927 0
0.495735 0.126192 0
0.540932 0.116411 0
0.585763 0.1075 0
0.630106 0.0994125 0
0.673945 0.0948959 0
0.717144 0.0931106 0
0.759777 0.0967117 0
0.801633 0.106416 0
0.842893 0.122393 0
0.883421 0.143572 0
0.923278 0.168246 0
0.962478 0.196902 0
0.998688 0.227649 0
1 0.260029 0
1 0.293751 0
1 0.328298 0
1 0.363287 0
1 0.39855 0
1 0.433967 0
1 0.469444 0
0 0.231693 0
0 0.232105 0
0 0.229114 0
0 0.224964 0
0.00926223 0.220432 0
0.0882124 0.216205 0
0.149523 0.212345 0
0.200427 0.208133 0
0.249531 0.203265 0
0.297612 0.197513 0
0.345144 0.190997 0
0.392309 0.183719 0
0.439231 0.17583 0
0.485679 0.167529 0
0.531807 0.159014 0
0.577417 0.150576 0
0.622507 0.143114 0
0.667094 0.137346 0
0.711147 0.134401 0
0.754482 0.134661 0
0.79707 0.13991 0
0.838941 0.150271 0
0.88011 0.16585 0
0.920562 0.186374 0
0.960143 0.210391 0
0.997757 0.23801 0
1 0.267842 0
1 0.299474 0
1 0.332479 0
1 0.366369 0
1 0.400824 0
1 0.435569 0
1 0.470756 0
0 0.265568 0
0 0.265858 0
0 0.262119 0
0 0.25832 0
0 0.254215 0
0.0532692 0.250538 0
0.121538 0.247303 0
0.177203 0.243626 0
0.229709 0.239292 0
0.280034 0.234302 0
0.329381 0.228534 0
0.378042 0.222095 0
0.426078 0.215076 0
0.473732 0.207599 0
0.520806 0.199878 0
0.567468 0.192203 0
0.613489 0.184878 0
0.658946 0.178607 0
0.703777 0.174411 0
0.747921 0.172686 0
0.791379 0.174365 0
0.834058 0.180545 0
0.875883 0.191379 0
0.916915 0.207095 0
0.957275 0.227161 0
0.995438 0.250751 0
1 0.277745 0
1 0.306859 0
1 0.337957 0
1 0.370398 0
1 0.40383 0
1 0.437888 0
1 0.472343 0
0 0.300221 0
0 0.29897 0
0 0.295583 0
0 0.292027 0
0 0.288441 0
0.0151064 0.285283 0
0.0852979 0.282414 0
0.149767 0.279271 0
0.206195 0.275441 0
0.259678 0.271077 0
0.31104 0.265995 0
0.361395 0.260227 0
0.410925 0.253956 0
0.459861 0.247105 0
0.508064 0.240024 0
0.555779 0.232685 0
0.602899 0.225727 0
0.649332 0.219211 0
0.695048 0.214038 0
0.740185 0.210727 0
0.784512 0.209979 0
0.828016 0.212757 0
0.87071 0.219593 0
0.912566 0.230854 0
0.953536 0.246601 0
0.992615 0.266484 0
1 0.28983 0
1 0.316411 0
1 0.345174 0
1 0.375723 0
1 0.407752 0
1 0.440818 0
1 0.474495 0
0 0.335286 0
0 0.33254 0
0 0.329442 0
0 0.32607 0
0 0.323003 0
0.00169375 0.320287 0
0.0437171 0.3178 0
0.114565 0.314977 0
0.178592 0.311681 0
0.235706 0.307805 0
0.290135 0.303258 0
0.342351 0.298146 0
0.393637 0.292454 0
0.443946 0.286244 0
0.493431 0.279667 0
0.542336 0.27274 0
0.590539 0.265949 0
0.638071 0.259464 0
0.684855 0.253742 0
0.730892 0.24921 0
0.776196 0.246799 0
0.820615 0.246921 0
0.864302 0.250324 0
0.907012 0.25774 0
0.948867 0.269245 0
0.988937 0.2851 0
1 0.304936 0
1 0.328023 0
1 0.354253 0
1 0.382727 0
1 0.413031 0
1 0.444663 0
1 0.477378 0
0 0.369024 0
0 0.366232 0
0 0.363195 0
0 0.36025 0
0 0.357626 0
0 0.355352 0
0.00851453 0.353201 0
0.0737774 0.350759 0
0.146044 0.34786 0
0.20853 0.344442 0
0.266087 0.340459 0
0.320897 0.335897 0
0.373968 0.330678 0
0.42591 0.325017 0
0.476844 0.318975 0
0.527001 0.31252 0
0.57644 0.305913 0
0.625086 0.299443 0
0.67303 0.293339 0
0.720165 0.288212 0
0.766415 0.284321 0
0.811978 0.282536 0
0.856626 0.283268 0
0.900313 0.287251 0
0.94313 0.295125 0
0.984405 0.306874 0
1 0.322835 0
1 0.342657 0
1 0.36553 0
1 0.391501 0
1 0.41976 0
1 0.449729 0
1 0.481254 0
0 0.402472 0
0 0.399725 0
0 0.397024 0
0 0.394553 0
0 0.392401 0
0 0.390387 0
0.00280766 0.388586 0
0.0360876 0.386511 0
0.108156 0.384024 0
0.178027 0.381018 0
0.239399 0.377478 0
0.297108 0.373327 0
0.352239 0.368704 0
0.40589 0.363516 0
0.458335 0.3579 0
0.509804 0.351934 0
0.56051 0.345617 0
0.610407 0.339223 0
0.659434 0.333104 0
0.707759 0.327428 0
0.755169 0.322713 0
0.801755 0.319265 0
0.847501 0.318029 0
0.892271 0.319295 0
0.93611 0.323827 0
0.978714 0.331991 0
1 0.344076 0
1 0.359991 0
1 0.379782 0
1 0.402594 0
1 0.428397 0
1 0.456413 0
1 0.486213 0
0 0.435554 0
0 0.433082 0
0 0.430945 0
0 0.428962 0
0 0.427161 0
0 0.425483 0
0 0.423987 0
0.0103609 0.422187 0
0.0641489 0.42002 0
0.142748 0.417426 0
0.21033 0.414313 0
0.270649 0.410681 0
0.328359 0.406455 0
0.383871 0.40177 0
0.437873 0.396582 0
0.490776 0.390982 0
0.542779 0.385077 0
0.593912 0.378897 0
0.644205 0.372763 0
0.69369 0.366796 0
0.742275 0.361517 0
0.790051 0.357122 0
0.836851 0.354162 0
0.882841 0.353368 0
0.927687 0.355047 0
0.971603 0.359976 0
1 0.368429 0
1 0.380636 0
1 0.396765 0
1 0.416464 0
1 0.439246 0
1 0.464851 0
1 0.49276 0
0 0.468513 0
0 0.466606 0
0 0.464897 0
0 0.46331 0
0 0.461845 0
0 0.460502 0
0 0.45922 0
0.00358587 0.457725 0
0.0339818 0.455909 0
0.102495 0.453651 0
0.177966 0.450889 0
0.243 0.447684 0
0.302403 0.443976 0
0.359899 0.439765 0
0.415549 0.435035 0
0.469917 0.429847 0
0.523278 0.424262 0
0.575662 0.418433 0
0.627222 0.41236 0
0.677928 0.406394 0
0.727687 0.400732 0
0.776684 0.395605 0
0.824689 0.391608 0
0.871778 0.389044 0
0.917876 0.388602 0
0.962966 0.39057 0
1 0.395758 0
1 0.404501 0
1 0.416922 0
1 0.433082 0
1 0.452705 0
1 0.475502 0
1 0.501045 0
0 0.501717 0
0 0.500282 0
0 0.498955 0
0 0.497642 0
0 0.496498 0
0 0.495399 0
0 0.494301 0
0 0.49308 0
0.0133822 0.491508 0
0.0629435 0.489616 0
0.143175 0.487282 0
0.212879 0.484504 0
0.275654 0.481239 0
0.334401 0.47744 0
0.391775 0.473106 0
0.447562 0.468345 0
0.502129 0.463157 0
0.555749 0.457679 0
0.60856 0.451835 0
0.660471 0.445945 0
0.711467 0.440131 0
0.761624 0.434653 0
0.810864 0.429847 0
0.859159 0.426001 0
0.906477 0.423728 0
0.952819 0.423636 0
0.995331 0.425986 0
1 0.431403 0
1 0.440345 0
1 0.452842 0
1 0.469123 0
1 0.488792 0
1 0.511528 0
0 0.535088 0
0 0.53402 0
0 0.532937 0
0 0.531991 0
0 0.531075 0
0 0.530159 0
0 0.52932 0
0.000564584 0.528267 0
0.005066 0.527001 0
0.0403296 0.525368 0
0.106905 0.523415 0
0.182239 0.521004 0
0.24741 0.518151 0
0.308507 0.514748 0
0.366613 0.510887 0
0.423743 0.506584 0
0.479576 0.501793 0
0.53434 0.496605 0
0.588357 0.491142 0
0.641413 0.485359 0
0.693614 0.479576 0
0.745007 0.473884 0
0.795438 0.468574 0
0.844938 0.463966 0
0.893538 0.460426 0
0.94107 0.458412 0
0.986175 0.458564 0
1 0.461173 0
1 0.466865 0
1 0.475944 0
1 0.48864 0
1 0.50486 0
1 0.524605 0
0 0.568689 0
0 0.567834 0
0 0.566979 0
0 0.566278 0
0 0.565499 0
0 0.564828 0
0 0.564111 0
0 0.563256 0
0.00128176 0.562249 0
0.0217899 0.560906 0
0.0756237 0.559228 0
0.152346 0.557229 0
0.219715 0.554742 0
0.281849 0.551751 0
0.341421 0.548363 0
0.399023 0.544457 0
0.455772 0.540124 0
0.51165 0.535317 0
0.566735 0.530114 0
0.620905 0.524681 0
0.674296 0.518944 0
0.726757 0.513252 0
0.778424 0.507668 0
0.829114 0.502525 0
0.878981 0.49807 0
0.927703 0.494759 0
0.975296 0.49305 0
1 0.493309 0
1 0.496208 0
1 0.502113 0
1 0.511223 0
1 0.524086 0
1 0.540459 0
0 0.602365 0
0 0.601694 0
0 0.601053 0
0 0.600443 0
0 0.599924 0
0 0.599329 0
0 0.598764 0
0.000549325 0.598169 0
0.00381476 0.597269 0
0.00900282 0.596216 0
0.0603647 0.594842 0
0.124666 0.593118 0
0.194324 0.590982 0
0.256596 0.588449 0
0.316106 0.585473 0
0.37438 0.58204 0
0.431296 0.578088 0
0.487984 0.573709 0
0.543923 0.568887 0
0.599054 0.563684 0
0.653422 0.558206 0
0.706996 0.552605 0
0.759793 0.546975 0
0.811719 0.541512 0
0.862776 0.536477 0
0.912779 0.532219 0
0.961791 0.529137 0
1 0.52755 0
1 0.528084 0
1 0.53109 0
1 0.537148 0
1 0.546563 0
1 0.559411 0
0 0.636072 0
0 0.635554 0
0 0.635065 0
0 0.634668 0
0 0.634211 0
0 0.633753 0
0 0.63331 0
0 0.632837 0
0.0021973 0.632151 0
0.0182345 0.631235 0
0.0390631 0.630152 0
0.105669 0.628733 0
0.172412 0.626963 0
0.233783 0.624857 0
0.292454 0.622263 0
0.350134 0.619181 0
0.407355 0.615686 0
0.463813 0.611704 0
0.52018 0.607294 0
0.576181 0.602457 0
0.631342 0.597269 0
0.685939 0.591882 0
0.739864 0.586236 0
0.792905 0.580682 0
0.84506 0.575311 0
0.896223 0.570504 0
0.946563 0.566369 0
0.992187 0.563363 0
1 0.562036 0
1 0.562737 0
1 0.565911 0
1 0.572106 0
1 0.581643 0
0 0.669871 0
0 0.66949 0
0 0.669108 0
0 0.668757 0
0 0.668406 0
0.000686656 0.668116 0
0.00183108 0.667765 0
0.00318914 0.667353 0
0.00502022 0.666789 0
0.0120394 0.666148 0
0.0513466 0.665217 0
0.100099 0.664103 0
0.156954 0.662669 0
0.215564 0.660853 0
0.272084 0.658625 0
0.327855 0.655985 0
0.383932 0.652934 0
0.440253 0.649393 0
0.496345 0.645365 0
0.552438 0.640955 0
0.608362 0.636103 0
0.663706 0.6309 0
0.718502 0.625467 0
0.772564 0.619944 0
0.825818 0.614466 0
0.878202 0.609186 0
0.929747 0.604379 0
0.980102 0.600458 0
1 0.597604 0
1 0.596429 0
1 0.597284 0
1 0.60061 0
1 0.607019 0
0.000122072 0.7037 0
0.000167849 0.703395 0
0.000213626 0.70312 0
0.000259403 0.702846 0
0.00030518 0.702571 0
0.000335698 0.702373 0
0.00573739 0.702113 0
0.0122988 0.701778 0
0.02121 0.701335 0
0.0325933 0.700786 0
0.0514076 0.700114 0
0.0979477 0.699153 0
0.155383 0.698024 0
0.204349 0.696544 0
0.256397 0.694697 0
0.309224 0.692439 0
0.362982 0.689769 0
0.417792 0.686656 0
0.473213 0.683085 0
0.528847 0.679042 0
0.584802 0.674586 0
0.640681 0.669734 0
0.696071 0.664546 0
0.750927 0.659205 0
0.805219 0.653651 0
0.858793 0.648219 0
0.911406 0.643015 0
0.963119 0.638407 0
1 0.634516 0
1 0.631785 0
1 0.630747 0
1 0.631739 0
1 0.635294 0
0.00196841 0.737514 0
0.002533 0.737301 0
0.00280766 0.737163 0
0.00337224 0.736965 0
0.00364691 0.736751 0
0.00421149 0.736538 0
0.00616464 0.736339 0
0.0186465 0.73608 0
0.0348669 0.735744 0
0.0560922 0.735302 0
0.083299 0.734798 0
0.1178 0.734051 0
0.156085 0.733074 0
0.203449 0.731899 0
0.247517 0.730404 0
0.295583 0.728527 0
0.345754 0.726299 0
0.397726 0.723583 0
0.451453 0.720378 0
0.506096 0.716777 0
0.56144 0.712688 0
0.617151 0.708217 0
0.672984 0.703365 0
0.728481 0.698253 0
0.78352 0.692851 0
0.837919 0.687419 0
0.891585 0.682048 0
0.944503 0.676905 0
0.991592 0.672312 0
1 0.668528 0
1 0.66601 0
1 0.665003 0
1 0.666117 0
0.0263066 0.771435 0
0.0298619 0.771267 0
0.0337377 0.771115 0
0.0375982 0.770947 0
0.0409705 0.770794 0
0.0448463 0.770626 0
0.0485237 0.770474 0
0.0548104 0.770291 0
0.0683909 0.770031 0
0.0857557 0.769757 0
0.108812 0.769314 0
0.139193 0.768719 0
0.17435 0.767956 0
0.206989 0.767025 0
0.247669 0.765759 0
0.288396 0.764248 0
0.333349 0.762417 0
0.381552 0.760082 0
0.432212 0.757336 0
0.48484 0.754162 0
0.538918 0.75053 0
0.593927 0.746426 0
0.649424 0.741939 0
0.705318 0.737057 0
0.76083 0.731884 0
0.815976 0.726513 0
0.870649 0.721096 0
0.924483 0.71577 0
0.977508 0.710704 0
1 0.706203 0
1 0.702602 0
1 0.700084 0
1 0.69929 0
0.0703899 0.805341 0
0.0770581 0.805219 0
0.0837415 0.805097 0
0.090425 0.804974 0
0.0970932 0.804852 0
0.103304 0.804746 0
0.109972 0.804623 0
0.11809 0.804486 0
0.127092 0.804288 0
0.137987 0.804013 0
0.152163 0.803662 0
0.170596 0.803204 0
0.194736 0.802686 0
0.223209 0.801907 0
0.25304 0.800885 0
0.289082 0.79968 0
0.327596 0.798138 0
0.370657 0.796201 0
0.417121 0.793835 0
0.466423 0.791135 0
0.518181 0.78793 0
0.571771 0.784192 0
0.626444 0.780072 0
0.68191 0.775555 0
0.737606 0.770687 0
0.79324 0.765591 0
0.848493 0.760235 0
0.903319 0.754849 0
0.957321 0.749584 0
0.997879 0.744564 0
1 0.740139 0
1 0.736629 0
1 0.734218 0
0.134737 0.839185 0
0.13991 0.839094 0
0.14461 0.839002 0
0.149554 0.838834 0
0.154421 0.838819 0
0.159121 0.838727 0
0.163821 0.838636 0
0.169635 0.838605 0
0.177554 0.838453 0
0.184955 0.838254 0
0.193957 0.83798 0
0.20647 0.837629 0
0.222492 0.837156 0
0.243488 0.836545 0
0.267918 0.835828 0
0.295552 0.834806 0
0.329046 0.83357 0
0.365759 0.831998 0
0.406836 0.830045 0
0.452125 0.827649 0
0.500511 0.824857 0
0.551522 0.821622 0
0.604486 0.817929 0
0.659022 0.813779 0
0.714183 0.809262 0
0.76997 0.804379 0
0.825711 0.799207 0
0.880995 0.793942 0
0.935897 0.78854 0
0.987472 0.783291 0
1 0.778439 0
1 0.77406 0
1 0.77055 0
0.196933 0.87277 0
0.200061 0.872694 0
0.203082 0.872557 0
0.205798 0.872572 0
0.208759 0.872496 0
0.211521 0.872435 0
0.214481 0.872374 0
0.218357 0.872282 0
0.222812 0.872175 0
0.229007 0.872023 0
0.235447 0.871763 0
0.243427 0.871641 0
0.254673 0.871214 0
0.268635 0.870909 0
0.287999 0.870161 0
0.310369 0.869444 0
0.336172 0.868513 0
0.367636 0.867308 0
0.403082 0.865721 0
0.442664 0.86389 0
0.486793 0.861463 0
0.534295 0.85864 0
0.584833 0.855375 0
0.637308 0.851667 0
0.691447 0.847501 0
0.746578 0.842969 0
0.802319 0.838071 0
0.858 0.832929 0
0.913542 0.827588 0
0.968582 0.822202 0
1 0.817075 0
1 0.812192 0
1 0.807965 0
0.24947 0.905852 0
0.251072 0.905806 0
0.253086 0.90576 0
0.254994 0.905699 0
0.256382 0.90573 0
0.25893 0.905531 0
0.260624 0.905547 0
0.262959 0.905486 0
0.265827 0.905409 0
