Luts/Fujifilm/FLog2C_to_CLASSIC-Neg._VLog.cube
TITLE "Generated by Resolve"
LUT_3D_SIZE 33
0.000137331 0.000122072 6.10361e-05
0.000137331 0.000122072 6.10361e-05
0.000137331 0.000122072 6.10361e-05
0.000137331 0.000122072 6.10361e-05
0.000137331 0.000122072 6.10361e-05
0.000137331 0.000122072 6.10361e-05
0.0109407 0.000900282 1.5259e-05
0.0546426 0.00416571 0.000717174
0.101671 0.0087892 7.62951e-05
0.173007 0.0126192 1.5259e-05
0.293614 0.0239414 0.000183108
0.490944 0.0405585 0.000549325
0.711467 0.0638285 0
0.846769 0.0904097 0.00830091
0.919188 0.12105 0.0640574
0.943526 0.156756 0.153155
0.947707 0.217502 0.217929
0.950851 0.278965 0.274586
0.951064 0.281895 0.277256
0.951064 0.281895 0.277256
0.951064 0.281895 0.277256
0.951064 0.281895 0.277256
0.951064 0.281895 0.277256
0.951064 0.281895 0.277256
0.952056 0.297673 0.273915
0.952132 0.324331 0.271122
0.95349 0.35642 0.28307
0.955657 0.396094 0.311223
0.958495 0.439689 0.34493
0.960952 0.486381 0.385595
0.964233 0.535454 0.431449
0.967605 0.584985 0.481361
0.972488 0.640208 0.549065
0.000137331 0.000122072 6.10361e-05
0.000137331 0.000122072 6.10361e-05
0.000137331 0.000122072 6.10361e-05
0.000137331 0.000122072 6.10361e-05
0.000137331 0.000122072 6.10361e-05
0.000137331 0.000122072 6.10361e-05
0.0173495 0.00115969 4.57771e-05
0.0621958 0.00462348 0.000686656
0.108522 0.00917067 1.5259e-05
0.182223 0.0133822 1.5259e-05
0.304234 0.0248417 0.000137331
0.502266 0.0416724 0.000457771
0.718608 0.0647135 1.5259e-05
0.849577 0.0912032 0.00906386
0.92047 0.121736 0.0656291
0.943664 0.157305 0.154528
0.947784 0.218326 0.218738
0.950881 0.279301 0.274907
0.951064 0.281895 0.277256
0.951064 0.281895 0.277256
0.951064 0.281895 0.277256
0.951064 0.281895 0.277256
0.951064 0.281895 0.277256
0.951064 0.285008 0.276646
0.952178 0.304341 0.273335
0.952041 0.329564 0.270878
0.953567 0.361166 0.284794
0.95584 0.400107 0.312352
0.95874 0.442817 0.346136
0.961074 0.489006 0.38645
0.964279 0.537438 0.431937
0.967666 0.586542 0.48188
0.972519 0.641352 0.549462
0.000137331 0.000122072 6.10361e-05
0.000137331 0.000122072 6.10361e-05
0.000137331 0.000122072 6.10361e-05
0.000137331 0.000122072 6.10361e-05
0.000137331 0.000122072 6.10361e-05
0.000137331 0.000122072 6.10361e-05
0.0250248 0.00169375 0.000198367
0.0690776 0.0052491 0.000656138
0.115709 0.00935378 1.5259e-05
0.191012 0.0140993 1.5259e-05
0.314794 0.025742 0.000106813
0.513542 0.042771 0.000350958
0.725002 0.0655222 1.5259e-05
0.852232 0.0919814 0.00981155
0.921706 0.122408 0.0671092
0.943801 0.157824 0.155901
0.947829 0.21912 0.219516
0.950896 0.279713 0.275273
0.951064 0.281895 0.277256
0.951064 0.281895 0.277256
0.951064 0.281895 0.277256
0.951064 0.281895 0.277256
0.951064 0.281895 0.277256
0.951064 0.290242 0.275593
0.952285 0.310582 0.272816
0.951949 0.334585 0.270649
0.953658 0.366064 0.28661
0.956024 0.404166 0.313527
0.958923 0.446036 0.347265
0.961151 0.491783 0.38732
0.964355 0.539666 0.432578
0.967727 0.588129 0.48246
0.972549 0.642496 0.549844
0.000137331 0.000122072 6.10361e-05
0.000137331 0.000122072 6.10361e-05
0.000137331 0.000122072 6.10361e-05
0.000137331 0.000122072 6.10361e-05
0.000137331 0.000122072 6.10361e-05
0.00367742 0.000366217 0
0.0347601 0.00267033 0.000518807
0.0755932 0.00584421 0.00062562
0.122606 0.00955215 3.0518e-05
0.199878 0.0148318 0
0.324819 0.0265812 7.62951e-05
0.525017 0.0438849 0.000259403
0.731563 0.0663462 1.5259e-05
0.854597 0.0926528 0.0104677
0.922881 0.123033 0.0685283
0.943542 0.155779 0.153109
0.945663 0.2 0.201541
0.949386 0.251728 0.250889
0.951049 0.281544 0.276936
0.951064 0.281895 0.277256
0.951064 0.281895 0.277256
0.951064 0.281895 0.277256
0.951598 0.285191 0.276722
0.9514 0.297337 0.274327
0.952224 0.316854 0.272328
0.952193 0.339971 0.270771
0.953811 0.371267 0.288197
0.9561 0.408377 0.314733
0.95903 0.449531 0.348486
0.961212 0.49456 0.388113
0.964401 0.541482 0.433005
0.967803 0.589761 0.482979
0.97258 0.643519 0.55021
0.000137331 0.000122072 6.10361e-05
0.000137331 0.000122072 6.10361e-05
0.000137331 0.000122072 6.10361e-05
6.10361e-05 0.000106813 6.10361e-05
1.5259e-05 0.000320439 6.10361e-05
0.00755322 0.00102235 1.5259e-05
0.0416114 0.00317388 0.000717174
0.0789197 0.00631724 0.00047303
0.124422 0.00973526 0.00015259
0.197574 0.0151675 0
0.309209 0.025742 3.0518e-05
0.489372 0.041001 0.000366217
0.690089 0.060502 0.000198367
0.822522 0.0832074 0.000915541
0.896788 0.107942 0.0378119
0.93875 0.137346 0.103197
0.944045 0.173114 0.173617
0.947372 0.224002 0.22356
0.95079 0.276402 0.272221
0.951064 0.281895 0.277256
0.951064 0.281895 0.277256
0.951064 0.281895 0.277256
0.952026 0.289815 0.275715
0.951766 0.304326 0.273091
0.952117 0.322835 0.27187
0.952499 0.345571 0.271
0.953979 0.376425 0.289754
0.956191 0.412802 0.316045
0.959136 0.453269 0.349691
0.961288 0.497108 0.388815
0.964446 0.543694 0.433555
0.967849 0.591196 0.483452
0.972595 0.644678 0.550698
0 0.0170291 0.00384527
0 0.0175021 0.0039826
0 0.0180972 0.00416571
0 0.018616 0.0043183
0 0.0191958 0.00450141
0.000839246 0.0154879 0.00175479
0.0209201 0.0120394 6.10361e-05
0.0599069 0.0119173 0.00062562
0.103075 0.0119783 1.5259e-05
0.158373 0.0140078 0.000244144
0.246967 0.0196689 0.000106813
0.396246 0.0307622 0
0.600412 0.0506294 0.000122072
0.771572 0.073228 9.15541e-05
0.869062 0.0966812 0.0159609
0.925353 0.126375 0.0725414
0.943481 0.154421 0.154223
0.94609 0.203525 0.202731
0.949477 0.261311 0.257694
0.951064 0.281895 0.277256
0.951095 0.282277 0.277226
0.951049 0.286122 0.276524
0.952239 0.295796 0.274128
0.951858 0.311299 0.272602
0.952056 0.328603 0.271351
0.952789 0.350744 0.271214
0.954147 0.381384 0.291295
0.956268 0.416922 0.317266
0.959243 0.456687 0.350881
0.961364 0.499901 0.38967
0.964508 0.545693 0.434134
0.96791 0.592752 0.48397
0.972625 0.645716 0.551049
0.000976577 0.0465858 0.0102998
0.000991836 0.0473182 0.0104829
0.000991836 0.0478523 0.0106203
0.0010071 0.0484169 0.0107729
0.00102235 0.0490272 0.0109407
6.10361e-05 0.0385595 0.0059968
0.00862135 0.0328069 0.00315862
0.0421607 0.0297856 0.00062562
0.0857557 0.0294957 1.5259e-05
0.13698 0.028809 0.00030518
0.214542 0.0307164 0.000640879
0.333852 0.0376135 0.000137331
0.526833 0.0499428 0
0.721401 0.0699779 6.10361e-05
0.840894 0.0903029 0.00308232
0.908904 0.115038 0.0492561
0.940993 0.145647 0.12723
0.945296 0.189441 0.189258
0.949004 0.24358 0.241718
0.950759 0.283223 0.277913
0.951644 0.288182 0.276936
0.951095 0.293736 0.275196
0.952392 0.303456 0.273701
0.951904 0.318013 0.272236
0.952148 0.3346 0.270481
0.953063 0.355917 0.27158
0.954299 0.386252 0.292714
0.956344 0.421134 0.318517
0.959335 0.460105 0.352071
0.961425 0.50251 0.390387
0.964569 0.547677 0.434623
0.967971 0.594339 0.484565
0.972656 0.64686 0.551431
0.00190738 0.0786145 0.0200656
0.00192264 0.0790723 0.0201877
0.00195315 0.0796063 0.0203098
0.00196841 0.0800641 0.0204166
0.00149538 0.0783246 0.018677
0.00141909 0.0647898 0.0104067
0.00189212 0.0587167 0.00798047
0.0274662 0.0538796 0.00433356
0.0700999 0.0514382 0.000671397
0.119234 0.0505837 0.000213626
0.1841 0.0519875 3.0518e-05
0.289647 0.0561685 0.000259403
0.462943 0.0686809 0.000213626
0.67013 0.0878309 0
0.813336 0.104143 7.62951e-05
0.892897 0.125795 0.0323339
0.940551 0.152026 0.100465
0.944823 0.186343 0.173999
0.947768 0.238621 0.224765
0.951095 0.291905 0.275959
0.952041 0.296834 0.274952
0.952377 0.30428 0.273075
0.952529 0.313268 0.273793
0.951904 0.325902 0.271
0.952255 0.341466 0.26949
0.953338 0.362554 0.272557
0.954513 0.392325 0.294484
0.95642 0.425971 0.319905
0.959457 0.464179 0.353399
0.961517 0.505776 0.391379
0.96463 0.550118 0.435233
0.968063 0.596384 0.485237
0.972686 0.648234 0.551919
0.00337224 0.116182 0.0296025
0.00340276 0.11667 0.0297398
0.00341802 0.117128 0.0298466
0.00343328 0.117525 0.0299535
0.00289921 0.107958 0.0227054
0.00300603 0.0955367 0.0162814
0.00242618 0.088014 0.0140688
0.00863661 0.0834669 0.0125429
0.0533913 0.078706 0.00497444
0.101564 0.0772412 0.000686656
0.160479 0.0774243 0.000427253
0.252628 0.0822461 0.00030518
0.401785 0.0923171 0.000427253
0.607645 0.108324 7.62951e-05
0.778576 0.127626 0
0.873487 0.147295 0.0163729
0.930343 0.169909 0.0747997
0.944183 0.197726 0.156939
0.947143 0.242267 0.206821
0.950729 0.298375 0.263569
0.952224 0.31191 0.272572
0.952392 0.317601 0.272343
0.952331 0.324178 0.272236
0.951843 0.33576 0.26891
0.952651 0.350515 0.267903
0.953674 0.370886 0.273823
0.954849 0.399878 0.296544
0.956619 0.43238 0.321798
0.959609 0.469642 0.355261
0.961624 0.509926 0.392538
0.964721 0.553521 0.436164
0.968154 0.598901 0.486061
0.972732 0.649943 0.552499
0.0052491 0.164416 0.0415656
0.00526436 0.164843 0.0416724
0.00527962 0.165225 0.0417487
0.00531014 0.163668 0.0409247
0.00399786 0.143267 0.0289616
0.00233463 0.128588 0.0210269
0.00247196 0.119112 0.0192416
0.00411994 0.113313 0.018677
0.0323186 0.109102 0.0124514
0.082536 0.107225 0.00563058
0.137865 0.10663 0.000595102
0.21738 0.109606 0.000106813
0.34403 0.117357 0.000106813
0.539727 0.131472 4.57771e-05
0.732219 0.149813 1.5259e-05
0.848478 0.168704 0.00285344
0.914015 0.19086 0.0512245
0.944503 0.218418 0.129046
0.94667 0.252766 0.18645
0.950729 0.303822 0.242908
0.951675 0.330373 0.270405
0.952209 0.334096 0.270497
0.952209 0.339498 0.269871
0.95256 0.349416 0.267506
0.953368 0.36202 0.265629
0.95407 0.382559 0.276387
0.955322 0.409918 0.299306
0.957015 0.440909 0.32398
0.959762 0.476661 0.357351
0.961776 0.515618 0.394217
0.964828 0.557595 0.437171
0.968292 0.602182 0.487312
0.972793 0.652369 0.553429
0.00758373 0.235508 0.0583658
0.00759899 0.235996 0.0584573
0.00759899 0.236347 0.0585489
0.00660716 0.210178 0.0458839
0.00489815 0.186816 0.0336919
0.00485237 0.170809 0.0281987
0.00404364 0.160693 0.0259709
0.00447089 0.151705 0.0247044
0.0124971 0.144594 0.0228885
0.0602121 0.140841 0.0142824
0.11548 0.139528 0.00616464
0.188403 0.139727 0.000427253
0.298878 0.144625 0.000198367
0.475914 0.157855 1.5259e-05
0.677394 0.175677 0.000122072
0.818509 0.196048 0.00062562
0.89807 0.218936 0.0304417
0.944213 0.24596 0.0966506
0.946807 0.272282 0.165499
0.949981 0.313436 0.219089
0.952743 0.353185 0.267033
0.95317 0.355413 0.26714
0.952987 0.358557 0.266606
0.953475 0.367147 0.264668
0.953399 0.379004 0.265751
0.954528 0.398245 0.280369
0.955962 0.422538 0.302602
0.957519 0.451652 0.326879
0.959854 0.485328 0.359548
0.96202 0.523018 0.396246
0.964981 0.563272 0.438651
0.96846 0.606485 0.488731
0.972885 0.655573 0.554528
0.0108797 0.339879 0.0813916
0.0108949 0.340169 0.0814679
0.0099031 0.305898 0.0651865
0.00793469 0.266499 0.0501869
0.00689708 0.242542 0.0410925
0.00701915 0.223789 0.0370489
0.00628672 0.212024 0.0345312
0.00520333 0.202182 0.0324865
0.00567636 0.191623 0.0304112
0.0327459 0.18497 0.0259251
0.0929732 0.181598 0.0172427
0.158648 0.179431 0.00805676
0.258244 0.182635 0.000289921
0.413626 0.192447 9.15541e-05
0.616297 0.209171 0
0.783642 0.228946 4.57771e-05
0.876616 0.251896 0.0108492
0.931975 0.278264 0.0670787
0.946426 0.30692 0.14374
0.949096 0.334386 0.194125
0.952087 0.375357 0.250813
0.953109 0.382498 0.262196
0.95346 0.384756 0.262608
0.953552 0.390249 0.262425
0.954055 0.40087 0.267933
0.955322 0.417517 0.285405
0.956771 0.438254 0.306477
0.958129 0.465446 0.330892
0.959976 0.4963 0.36231
0.962356 0.532433 0.398489
0.965316 0.570977 0.440909
0.968704 0.612329 0.490623
0.972976 0.659815 0.556085
0.0163119 0.48246 0.110857
0.0137026 0.422141 0.0843366
0.0113222 0.371313 0.066041
0.0102388 0.338369 0.0586557
0.00927749 0.313893 0.0525216
0.00892653 0.295064 0.0483406
0.00865187 0.280537 0.0463722
0.00788891 0.269078 0.0438697
0.00761425 0.256306 0.0421149
0.0102541 0.244724 0.0405127
0.0635233 0.237415 0.0305791
0.130877 0.234211 0.0209964
0.220325 0.232181 0.00782788
0.359472 0.238758 0
0.555718 0.253452 0.000106813
0.739742 0.272633 0
0.852277 0.295644 0.00263981
0.917281 0.322698 0.0432288
0.946975 0.35256 0.113405
0.94931 0.370047 0.169009
0.952667 0.402441 0.227176
0.953872 0.416754 0.256931
0.954025 0.416114 0.257771
0.954376 0.419944 0.263813
0.95523 0.428046 0.274311
0.956298 0.441566 0.291371
0.957183 0.459876 0.311604
0.958816 0.483177 0.336324
0.960555 0.511223 0.366644
0.962798 0.544839 0.401602
0.965789 0.58085 0.443732
0.968917 0.620111 0.493095
0.973037 0.665385 0.557931
0.0171817 0.542947 0.0982834
0.0155489 0.490715 0.0838026
0.0142672 0.452857 0.0758526
0.0128481 0.42359 0.0697032
0.012314 0.400519 0.0656901
0.0116426 0.382208 0.062501
0.0112306 0.368948 0.0601663
0.0109865 0.355306 0.0580148
0.0108492 0.340627 0.0557259
0.00982681 0.326589 0.0533455
0.0238651 0.31371 0.0493019
0.10013 0.305638 0.0374304
0.182483 0.301732 0.0247654
0.304677 0.303624 0.0087129
0.493507 0.314626 0
0.692485 0.331197 4.57771e-05
0.827008 0.353445 0.000106813
0.900984 0.379828 0.0269932
0.944427 0.408927 0.0877089
0.950057 0.424353 0.149386
0.953063 0.439033 0.202838
0.954971 0.457282 0.252506
0.955139 0.455711 0.259663
0.955261 0.45623 0.268238
0.955779 0.462623 0.282734
0.957168 0.471595 0.298116
0.958282 0.486366 0.317571
0.960372 0.505959 0.340887
0.961547 0.530663 0.372625
0.963439 0.560678 0.405982
0.966445 0.594141 0.44773
0.969223 0.62977 0.49601
0.97293 0.672816 0.560006
0.018204 0.602289 0.100114
0.0183871 0.569741 0.0945144
0.016968 0.543114 0.0910506
0.0162051 0.519432 0.0867933
0.0150301 0.499977 0.0834058
0.0141604 0.485344 0.0806897
0.0148013 0.472831 0.0780346
0.014313 0.458732 0.0758526
0.0131991 0.443626 0.0736706
0.0129549 0.427771 0.0709392
0.0151217 0.41178 0.0679789
0.0573739 0.399161 0.0593576
0.14461 0.39176 0.0459449
0.25716 0.388785 0.0302129
0.429603 0.395209 0.00769055
0.640452 0.408911 0
0.797284 0.427146 0.000335698
0.883909 0.449042 0.0195926
0.935286 0.474678 0.0720684
0.951125 0.492622 0.137835
0.953017 0.493324 0.186999
0.955322 0.504891 0.245014
0.956451 0.503349 0.266804
0.956863 0.50045 0.275685
0.956756 0.502144 0.288884
0.958083 0.508263 0.304768
0.959518 0.519036 0.323781
0.960601 0.534752 0.347524
0.962615 0.554879 0.377554
0.964324 0.580514 0.411612
0.966934 0.610422 0.451987
0.969589 0.642618 0.500023
0.972808 0.682475 0.562783
0.0207828 0.671641 0.11104
0.0201114 0.652216 0.108461
0.0196841 0.634394 0.105425
0.0194095 0.619028 0.102388
0.0189822 0.605814 0.100175
0.0185397 0.594461 0.0983139
0.0181277 0.584009 0.0966049
0.0177615 0.572488 0.0946212
0.0175937 0.558846 0.0928206
0.0174716 0.543877 0.0899977
0.0166323 0.528344 0.0872663
0.0217441 0.512322 0.0843824
0.101106 0.501839 0.0710002
0.208469 0.495354 0.0551003
0.363317 0.495018 0.0337224
0.579843 0.502892 0.00598154
0.760616 0.51667 0.000228885
0.86334 0.533135 0.0146181
0.92311 0.552132 0.0584726
0.953002 0.568841 0.122698
0.954894 0.562661 0.174533
0.956863 0.562234 0.232929
0.958526 0.557977 0.273152
0.958312 0.552392 0.282689
0.959335 0.549798 0.295644
0.959808 0.551217 0.312184
0.960174 0.557641 0.331075
0.961501 0.568521 0.355138
0.963165 0.585168 0.384146
0.965087 0.605783 0.417395
0.967468 0.630762 0.457069
0.96997 0.658381 0.50454
0.972717 0.694591 0.566278
0.0234226 0.739101 0.122683
0.0225834 0.728191 0.121553
0.0225223 0.719036 0.119448
0.0222782 0.71043 0.117784
0.0216983 0.701656 0.116625
0.0213321 0.694789 0.115648
0.0210575 0.687617 0.114443
0.0208743 0.679927 0.113298
0.0210422 0.670268 0.112276
0.0203861 0.658824 0.110033
0.0201114 0.646067 0.107576
0.0205081 0.631586 0.105425
0.0433509 0.617533 0.0992447
0.149264 0.610712 0.0829175
0.293462 0.60589 0.0627146
0.5028 0.610239 0.0330968
0.715969 0.619913 0.0061799
0.839765 0.628443 0.00772107
0.907576 0.638331 0.0466163
0.94876 0.650217 0.105257
0.956298 0.645029 0.161166
0.958099 0.631785 0.216602
0.959808 0.619058 0.271931
0.960113 0.60972 0.287495
0.960601 0.603159 0.30135
0.961151 0.601251 0.318547
0.962097 0.60267 0.33846
0.963104 0.608637 0.361273
0.963867 0.619913 0.390585
0.966506 0.635309 0.424155
0.968368 0.654368 0.462837
0.970489 0.678157 0.509911
0.973404 0.708949 0.571237
0.0251469 0.797955 0.132815
0.0252079 0.792401 0.132113
0.0252995 0.786831 0.131579
0.0252232 0.781796 0.130999
0.0247654 0.777691 0.130327
0.0243076 0.773709 0.129656
0.0242161 0.769772 0.129
0.0242313 0.764858 0.128161
0.0242618 0.758556 0.127001
0.0243992 0.750805 0.125399
0.023682 0.742077 0.124086
0.0228428 0.731945 0.122438
0.0257725 0.720272 0.118959
0.0847791 0.712718 0.10869
0.215625 0.708476 0.0906233
0.411643 0.710185 0.0646525
0.64387 0.715007 0.031342
0.810544 0.720211 0.0104372
0.889708 0.725521 0.0308537
0.939422 0.729442 0.083772
0.957732 0.726329 0.144762
0.959289 0.706737 0.196948
0.961089 0.685054 0.258412
0.961944 0.670771 0.290211
0.962203 0.661784 0.304952
0.962509 0.655756 0.323232
0.963714 0.652888 0.344137
0.964569 0.654521 0.36817
0.965499 0.660105 0.398672
0.967361 0.670054 0.431952
0.969085 0.683635 0.468269
0.97145 0.700557 0.514702
0.974243 0.726787 0.577035
0.026688 0.848325 0.141817
0.0266117 0.844999 0.141054
0.026566 0.8421 0.140368
0.0265202 0.839094 0.139696
0.0264591 0.836606 0.139132
0.0263981 0.833936 0.138567
0.0263523 0.831342 0.138033
0.0261692 0.828519 0.137652
0.0258946 0.824216 0.137057
0.0255894 0.819532 0.136248
0.02533 0.813687 0.135134
0.0249638 0.806394 0.134447
0.0255436 0.798291 0.133516
0.0303655 0.789471 0.131243
0.127596 0.785824 0.116304
0.301457 0.78793 0.0925154
0.547173 0.793927 0.0586404
0.755764 0.799115 0.0315862
0.867536 0.800824 0.0170443
0.923598 0.799619 0.0538491
0.956542 0.798276 0.119234
0.959716 0.779751 0.172763
0.961089 0.753918 0.23386
0.963012 0.731319 0.285908
0.964034 0.720531 0.305486
0.964752 0.712535 0.326452
0.96495 0.70605 0.347845
0.966217 0.703365 0.373663
0.967269 0.703639 0.403433
0.968704 0.708827 0.437842
0.971099 0.71577 0.476097
0.972091 0.727886 0.521004
0.975235 0.748379 0.583062
0.0281987 0.888579 0.147906
0.0282444 0.886992 0.147692
0.0282597 0.885176 0.147463
0.0283055 0.883604 0.14725
0.028397 0.881773 0.146929
0.0284733 0.880079 0.146639
0.0285649 0.878431 0.146365
0.028687 0.876371 0.145998
0.0281224 0.874067 0.145571
0.0273594 0.87129 0.145022
0.0269169 0.867765 0.144518
0.027039 0.8636 0.144152
0.0273136 0.857603 0.142184
0.0269627 0.850645 0.141329
0.0412299 0.844236 0.139651
0.180377 0.84419 0.120119
0.408484 0.849989 0.0887312
0.669154 0.858885 0.0525673
0.827573 0.861143 0.031632
0.904112 0.860395 0.024033
0.949737 0.856992 0.0843519
0.960586 0.843351 0.144015
0.962036 0.818204 0.202899
0.964538 0.790494 0.269062
0.964843 0.775982 0.299199
0.965347 0.766247 0.321584
0.966339 0.75845 0.346777
0.967269 0.752392 0.374517
0.968643 0.749218 0.406302
0.969772 0.748699 0.441001
0.970474 0.75227 0.481361
0.973129 0.758206 0.527718
0.975479 0.773739 0.588617
0.0295567 0.92195 0.154574
0.0296025 0.920806 0.154498
0.029633 0.919631 0.154421
0.0296788 0.918685 0.154253
0.0297093 0.91754 0.153872
0.0297551 0.916579 0.153552
0.0297856 0.915557 0.153201
0.0298161 0.91426 0.152789
0.0298466 0.912764 0.1523
0.0293736 0.911131 0.152361
0.0287785 0.909407 0.152514
0.028397 0.9066 0.152102
0.0284581 0.9028 0.150851
0.0286564 0.897704 0.150301
0.0282292 0.892271 0.149767
0.0755169 0.888655 0.142229
0.246403 0.892561 0.11841
0.523491 0.902144 0.0811627
0.763241 0.910231 0.0489204
0.874418 0.909453 0.0336614
0.931823 0.907042 0.043595
0.959472 0.895705 0.10634
0.961715 0.872969 0.165087
0.964034 0.846204 0.235355
0.965637 0.825742 0.286091
0.966232 0.815915 0.310979
0.966812 0.807004 0.338796
0.968078 0.799786 0.369848
0.969436 0.793942 0.404242
0.970977 0.790204 0.441047
0.972457 0.789181 0.48333
0.974258 0.790173 0.530999
0.977295 0.799054 0.594156
0.0299992 0.945144 0.157794
0.0299535 0.945113 0.157748
0.0299229 0.945068 0.157717
0.0298619 0.944747 0.157702
0.0297856 0.944289 0.157671
0.0297093 0.943832 0.157656
0.0296178 0.943343 0.157626
0.0294957 0.942809 0.157565
0.0293278 0.942061 0.157488
0.0291752 0.94107 0.157321
0.0293736 0.939483 0.156725
0.0296788 0.937499 0.156054
0.0300603 0.935195 0.15613
0.0305333 0.932738 0.157061
0.0304112 0.929503 0.155154
0.0302281 0.925277 0.154849
0.109041 0.924941 0.143526
0.324132 0.931914 0.115068
0.627436 0.943679 0.07393
0.824948 0.948623 0.0474403
0.905058 0.945891 0.0361181
0.947005 0.938262 0.0586709
0.957916 0.921035 0.120104
0.963256 0.896208 0.189517
0.966155 0.870802 0.261112
0.96698 0.859907 0.292149
0.968414 0.850935 0.322499
0.969924 0.84268 0.358526
0.970718 0.835798 0.395026
0.971786 0.829313 0.436576
0.97406 0.825086 0.482155
0.97525 0.822782 0.532326
0.978683 0.826566 0.596765
0.029572 0.944732 0.157366
0.0294804 0.94464 0.15729
0.0294041 0.944564 0.157198
0.0293889 0.944533 0.157183
0.0293736 0.944533 0.157168
0.0293736 0.944518 0.157168
0.0293584 0.944518 0.157153
0.0293431 0.944503 0.157137
0.0293278 0.944488 0.157122
0.0293126 0.944457 0.157107
0.0292973 0.944442 0.157092
0.0292973 0.944442 0.157092
0.0292973 0.944442 0.157092
0.0292973 0.944442 0.157092
0.0292973 0.944442 0.157092
0.0292973 0.944442 0.157092
0.0301366 0.943801 0.15816
0.138674 0.946883 0.142535
0.404379 0.959808 0.108141
0.700771 0.971237 0.0671855
0.85951 0.973678 0.0459907
0.923018 0.969772 0.0378119
0.949081 0.95816 0.0683299
0.956497 0.939406 0.138094
0.963256 0.914397 0.215427
0.966278 0.899046 0.263035
0.967742 0.890684 0.297719
0.96968 0.881621 0.334325
0.970382 0.874205 0.378103
0.971878 0.866911 0.423438
0.974212 0.860304 0.473945
0.975952 0.854612 0.527443
0.978302 0.85565 0.594736
0.0294041 0.944564 0.157214
0.0293431 0.944488 0.157137
0.0292973 0.944442 0.157092
0.0292973 0.944442 0.157092
0.0292973 0.944442 0.157092
0.0292973 0.944442 0.157092
0.0292973 0.944442 0.157092
0.0292973 0.944442 0.157092
0.0292973 0.944442 0.157092
0.0292973 0.944442 0.157092
0.0292973 0.944442 0.157092
0.0292973 0.944442 0.157092
0.0292973 0.944442 0.157092
0.0292973 0.944442 0.157092
0.0292973 0.944442 0.157092
0.0293126 0.944427 0.157122
0.0301671 0.943786 0.15819
0.0639963 0.945464 0.153597
0.228336 0.956008 0.132036
0.519142 0.971618 0.0933394
0.763302 0.986206 0.0613718
0.884092 0.990494 0.0449378
0.932128 0.986587 0.0379034
0.945495 0.972778 0.0786755
0.955169 0.953292 0.156603
0.961517 0.933028 0.227451
0.964675 0.924987 0.261997
0.966873 0.917021 0.304479
0.9691 0.909987 0.34966
0.972351 0.902205 0.401465
0.974487 0.894408 0.455207
0.975814 0.887327 0.514656
0.978729 0.884688 0.588678
0.0293126 0.944457 0.157107
0.0292973 0.944442 0.157092
0.0292973 0.944442 0.157092
0.0292973 0.944442 0.157092
0.0292973 0.944442 0.157092
0.0292973 0.944442 0.157092
0.0292973 0.944442 0.157092
0.0292973 0.944442 0.157092
0.0292973 0.944442 0.157092
0.0292973 0.944442 0.157092
0.0292973 0.944442 0.157092
0.0292973 0.944442 0.157092
0.0292973 0.944442 0.157092
0.0292973 0.944442 0.157092
0.0292973 0.944442 0.157092
0.0292973 0.944442 0.157092
0.0293431 0.944396 0.157168
0.0300603 0.943862 0.158068
0.113588 0.948623 0.147051
0.330861 0.961837 0.118364
0.619928 0.977691 0.0794842
0.814084 0.989578 0.0543984
0.90219 0.994583 0.0435798
0.933715 0.993378 0.0433204
0.942748 0.982742 0.0905776
0.953002 0.965286 0.171679
0.957351 0.955352 0.218189
0.960784 0.948516 0.260334
0.964858 0.941054 0.310338
0.9682 0.933486 0.366171
0.972717 0.925566 0.426627
0.975723 0.91722 0.493568
0.979141 0.914046 0.574029
0.0292973 0.944442 0.157092
0.0292973 0.944442 0.157092
0.0292973 0.944442 0.157092
0.0292973 0.944442 0.157092
0.0292973 0.944442 0.157092
0.0292973 0.944442 0.157092
0.0292973 0.944442 0.157092
0.0292973 0.944442 0.157092
0.0292973 0.944442 0.157092
0.0292973 0.944442 0.157092
0.0292973 0.944442 0.157092
0.0292973 0.944442 0.157092
0.0292973 0.944442 0.157092
0.0292973 0.944442 0.157092
0.0292973 0.944442 0.157092
0.0292973 0.944442 0.157092
0.0294804 0.944305 0.157321
0.0318761 0.944213 0.157259
0.0485237 0.944183 0.15552
0.174151 0.952148 0.138598
0.412131 0.96582 0.108034
0.682109 0.981445 0.0715496
0.84213 0.991165 0.0513771
0.912703 0.994949 0.0415198
0.9346 0.99498 0.0497139
0.941649 0.989044 0.106432
0.94641 0.981231 0.166812
0.951156 0.975235 0.209308
0.955947 0.968093 0.258228
0.961456 0.961883 0.317693
0.966186 0.953948 0.38439
0.971069 0.94612 0.459281
0.976028 0.94136 0.548791
