Luts/Fujifilm/FLog2C_to_PRO-Neg.Std_VLog.cube
TITLE "Generated by Resolve"
LUT_3D_SIZE 5
0.000457771 0.000396735 9.15541e-05
0.105867 0.0175631 0.0285954
0.956466 0.183322 0.46157
0.966674 0.272908 0.473518
0.989166 0.575067 0.567742
0.0180667 0.135149 0.000366217
0.0798352 0.0941176 0.000732433
0.925643 0.142123 0.312352
0.96936 0.332418 0.430884
0.989364 0.583856 0.565209
0.00714122 0.785748 0.000579843
0.0102235 0.71342 0.000717174
0.668513 0.6421 0.00015259
0.977035 0.569574 0.300542
0.98996 0.640375 0.547112
0 1 0.000289921
0 1 0.000289921
0.267857 0.999802 0.000518807
0.953506 0.99057 4.57771e-05
0.980255 0.899886 0.373785
0.471519 0.999344 0.510719
0.477333 0.999359 0.510369
0.517754 0.999435 0.508904
0.76379 0.999634 0.453788
0.972442 1 0.440833
0.00820935 0.00257877 0.0889906
0.118059 0.011841 0.080766
0.954345 0.161715 0.454093
0.966644 0.272435 0.473869
0.989166 0.575067 0.567834
0.0311437 0.171038 0.167102
0.0979019 0.0991379 0.0975357
0.903929 0.14345 0.328496
0.969329 0.331975 0.431189
0.989364 0.583764 0.565332
0.00791943 0.805707 0.000595102
0.0109255 0.743694 0.000564584
0.66041 0.654108 0.000534066
0.976989 0.569314 0.300786
0.989975 0.640253 0.547158
0 1 0.000289921
0 1 0.000289921
0.270497 0.999786 0.000442512
0.953536 0.990463 4.57771e-05
0.98027 0.899855 0.373953
0.472496 0.999344 0.510628
0.478294 0.999359 0.510475
0.51841 0.999435 0.508843
0.764004 0.999634 0.453727
0.972457 1 0.441093
0.0809033 0.0113832 0.678233
0.121401 0.00640879 0.47158
0.955001 0.0309758 0.721401
0.979156 0.314061 0.642023
0.989166 0.574563 0.568185
0.0523232 0.228931 0.876081
0.124208 0.0993057 0.601053
0.884123 0.0893111 0.706661
0.983734 0.38439 0.653681
0.98938 0.583368 0.565835
0.0289311 0.817075 0.771603
0.0314641 0.76112 0.711696
0.654292 0.654322 0.654108
0.993652 0.592554 0.652049
0.98999 0.639918 0.547601
0.000595102 0.999756 0.24889
0.000610361 0.999756 0.249042
0.193164 0.999573 0.26099
0.969635 0.997833 0.300633
0.980301 0.899702 0.374594
0.459876 0.999664 0.583047
0.466682 0.999634 0.582834
0.513222 0.99942 0.581216
0.766049 0.999435 0.52285
0.972457 1 0.441352
0.191226 0.0844587 0.964889
0.191257 0.0845197 0.964965
0.802899 0.000244144 0.999817
0.989212 0.22002 0.962661
0.999695 0.563943 0.85922
0.191287 0.0845808 0.965057
0.191302 0.0846418 0.965133
0.81059 0.000213626 0.999756
0.994904 0.287251 0.972793
0.999649 0.573861 0.858915
0.0380713 0.773571 0.999344
0.0483558 0.631403 0.999863
0.555779 0.571878 0.999542
0.999588 0.529335 0.976196
1 0.634134 0.857328
0.0140078 0.998108 0.923232
0.0138705 0.997696 0.924208
0.0139467 0.993255 0.926146
0.93312 0.935988 0.933242
0.993072 0.861585 0.842557
0.275944 0.999786 0.942367
0.28368 0.999756 0.942763
0.336461 0.999527 0.945418
0.683467 0.999847 0.95816
0.99025 0.999359 0.843366
0.0134737 0.999268 0.918547
0.0134737 0.999268 0.918547
0.0134737 0.999268 0.918547
0.0134737 0.999268 0.918547
0.999435 0.431281 0.998871
0.0134737 0.999268 0.918547
0.0134737 0.999268 0.918547
0.0134737 0.999268 0.918547
0.0134737 0.999268 0.918547
0.999527 0.438346 0.999146
0.0134737 0.999268 0.918547
0.0134737 0.999268 0.918547
0.0134737 0.999268 0.918547
0.0134737 0.999268 0.918547
0.999847 0.482185 1
0.0134737 0.999268 0.918547
0.0134737 0.999268 0.918547
0.0134737 0.999268 0.918547
0.0134737 0.999268 0.918547
0.999466 0.766613 0.999695
0.0134737 0.999268 0.918547
0.0134737 0.999268 0.918547
0.0134737 0.999268 0.918547
0.0398566 0.999634 0.925551
1 1 1
