Luts/Fujifilm/FLog2C_to_CLASSIC-CHROME_VLog.cube
TITLE "Generated by Resolve"
LUT_3D_SIZE 9
0.000183108 9.15541e-05 6.10361e-05
0.000183108 9.15541e-05 6.10361e-05
0.103227 0.0037232 0.00306706
0.697215 0.0440833 0.0831617
0.960189 0.304906 0.406287
0.95877 0.374456 0.4486
0.958251 0.391974 0.442405
0.956329 0.51635 0.476234
0.952834 0.662318 0.612924
0.000183108 9.15541e-05 6.10361e-05
6.10361e-05 0.000213626 6.10361e-05
0.13753 0.00392157 0.00550851
0.678019 0.0395056 0.0775616
0.962554 0.253117 0.376211
0.95877 0.374456 0.4486
0.957809 0.416983 0.433249
0.955978 0.527276 0.477104
0.953017 0.66569 0.613519
0 0.0986496 3.0518e-05
0.00030518 0.0885481 0
0.0550851 0.0575875 6.10361e-05
0.462928 0.0695811 0.0149996
0.957366 0.217426 0.250217
0.95848 0.405524 0.436271
0.957504 0.443061 0.422858
0.956252 0.539117 0.478416
0.953231 0.669642 0.614145
0.00436408 0.52961 0.000167849
0.000503548 0.361456 0.000183108
0.00535592 0.296986 0.000595102
0.326436 0.266011 7.62951e-05
0.834516 0.349004 0.0683757
0.95761 0.492866 0.373297
0.956374 0.511635 0.411841
0.953979 0.57319 0.480278
0.953735 0.681163 0.616114
0.021088 0.747402 0.0102541
0.0185397 0.716381 0.00746166
0.0164187 0.691386 0.005066
0.212177 0.650828 0.0124361
0.724559 0.633783 0.0463722
0.951797 0.678889 0.232792
0.952087 0.646342 0.400351
0.953262 0.654078 0.481682
0.954147 0.712871 0.618509
0.0449836 0.938125 0.0311894
0.0440375 0.932815 0.030808
0.0433509 0.926925 0.0295872
0.0550393 0.912444 0.0272526
0.602258 0.886778 0.0942397
0.945647 0.879713 0.161151
0.95465 0.807187 0.3075
0.955657 0.78175 0.44892
0.957366 0.784558 0.618402
0.0478676 0.967224 0.0339208
0.0483253 0.967254 0.0339818
0.049012 0.967285 0.0340887
0.0649882 0.967239 0.035874
0.354665 0.963333 0.0738689
0.79942 0.966598 0.163958
0.963607 0.961517 0.201434
0.960006 0.914595 0.242817
0.96524 0.891524 0.561288
0.185351 0.966079 0.0478676
0.195407 0.96585 0.0493172
0.207721 0.96556 0.051133
0.243687 0.964721 0.0564126
0.351873 0.962646 0.0724651
0.592264 0.961746 0.117403
0.866835 0.969268 0.179339
0.964569 0.973037 0.212375
0.965026 0.974762 0.24715
0.51989 0.961303 0.647242
0.523095 0.961395 0.647318
0.527077 0.961517 0.647578
0.538521 0.961852 0.648112
0.576059 0.962905 0.650401
0.65948 0.966201 0.646326
0.818784 0.974334 0.628855
0.977676 0.984237 0.591104
0.978378 0.985016 0.616602
0.000167849 9.15541e-05 0.000274662
0.000183108 9.15541e-05 6.10361e-05
0.130739 0.00408942 0.0049897
0.712047 0.0470283 0.0874189
0.960113 0.307195 0.407568
0.95877 0.374456 0.4486
0.958267 0.391775 0.442481
0.956344 0.516243 0.476265
0.952834 0.662318 0.612924
0.000167849 9.15541e-05 0.00015259
0.000183108 9.15541e-05 6.10361e-05
0.166125 0.0049897 0.00697337
0.695705 0.0423133 0.0822309
0.962554 0.255833 0.378317
0.95877 0.374456 0.4486
0.957794 0.4168 0.43331
0.955978 0.527108 0.477165
0.953017 0.66569 0.613519
0 0.0978256 7.62951e-05
1.5259e-05 0.0783246 0
0.071107 0.0564584 7.62951e-05
0.478477 0.0700694 0.0172427
0.958297 0.219211 0.25449
0.95845 0.405158 0.436454
0.957504 0.442817 0.422934
0.956252 0.539117 0.478447
0.953231 0.669657 0.614221
0.00247196 0.496208 6.10361e-05
0.000106813 0.347189 0.000244144
0.00988785 0.292302 0.000427253
0.338445 0.265324 4.57771e-05
0.837552 0.349813 0.0705882
0.957595 0.492805 0.374014
0.956374 0.51162 0.411887
0.953964 0.57319 0.480354
0.953735 0.681163 0.616114
0.0206149 0.741009 0.00988785
0.018265 0.712657 0.00743114
0.0162203 0.688792 0.00511177
0.223941 0.649348 0.0129854
0.727703 0.633692 0.0466926
0.951812 0.678737 0.233402
0.952087 0.646326 0.400412
0.953262 0.654078 0.481682
0.954147 0.712871 0.618509
0.0448005 0.937377 0.0312047
0.0439307 0.931945 0.0306249
0.0432288 0.926101 0.0294499
0.0561685 0.911864 0.0271916
0.606165 0.886595 0.0949722
0.94583 0.879606 0.16112
0.954635 0.807172 0.307622
0.955657 0.78175 0.44892
0.957366 0.784573 0.618494
0.0478676 0.967224 0.0339208
0.0484321 0.967254 0.0339971
0.0491188 0.9673 0.0341039
0.0683604 0.967208 0.0362249
0.35729 0.963302 0.074342
0.800244 0.966613 0.164141
0.963592 0.961425 0.201358
0.960006 0.914504 0.243015
0.96524 0.891524 0.561288
0.187228 0.966049 0.0481117
0.196796 0.96582 0.0495155
0.20943 0.965515 0.0513771
0.245197 0.964691 0.0566415
0.353155 0.962646 0.0726787
0.592844 0.961746 0.117525
0.866987 0.969268 0.179385
0.964569 0.973037 0.212375
0.965026 0.974762 0.247303
0.520333 0.961318 0.647272
0.523522 0.96141 0.647349
0.527428 0.961532 0.647562
0.539376 0.961868 0.648173
0.576837 0.962936 0.650416
0.659739 0.966217 0.646479
0.818967 0.974334 0.628809
0.977676 0.984237 0.590997
0.978378 0.985016 0.616602
0.000122072 0.000350958 0.0670787
0.000106813 0.000350958 0.0664073
0.113451 0.000518807 0.0364538
0.664012 0.0358282 0.0841688
0.960723 0.284901 0.394629
0.95877 0.374456 0.4486
0.958282 0.391501 0.442588
0.956344 0.516152 0.476265
0.952819 0.662242 0.612909
0.000106813 0.000366217 0.0667124
0.000289921 0.00047303 0.0521401
0.146532 0.000885023 0.0373236
0.652049 0.0320287 0.0864271
0.962707 0.239002 0.370275
0.95877 0.374456 0.4486
0.957794 0.416602 0.433371
0.955978 0.527092 0.477134
0.953017 0.665599 0.613504
6.10361e-05 0.136324 0.146731
0.000122072 0.0936294 0.0922408
0.0605173 0.061677 0.0601816
0.457328 0.0694438 0.076524
0.941421 0.20766 0.265126
0.958251 0.409308 0.434897
0.957519 0.442573 0.423041
0.956252 0.539025 0.478431
0.953231 0.669657 0.614221
0.00918593 0.545327 0.211765
0.000122072 0.398459 0.0973068
0.00178531 0.334157 0.0650187
0.323705 0.292287 0.0620127
0.822477 0.350942 0.164981
0.956939 0.496849 0.407614
0.95639 0.511284 0.411917
0.953979 0.573068 0.480323
0.953735 0.681163 0.616114
0.0232853 0.766613 0.0151217
0.0207675 0.740032 0.0101015
0.0184024 0.716304 0.00874342
0.181064 0.673884 0.0121309
0.711528 0.648142 0.0594339
0.951904 0.684077 0.303822
0.952087 0.646174 0.400488
0.953262 0.653956 0.481666
0.954162 0.712886 0.618585
0.0460059 0.945769 0.0320592
0.0454719 0.940658 0.0311131
0.0445106 0.93463 0.0298924
0.0437781 0.920928 0.0280766
0.577691 0.893202 0.0902113
0.941878 0.880873 0.159182
0.954635 0.807111 0.307744
0.955642 0.781811 0.448844
0.957366 0.784573 0.618494
0.0478676 0.967224 0.0339208
0.0480659 0.967239 0.0339971
0.0483101 0.967269 0.0341039
0.0680095 0.967147 0.0362554
0.355413 0.963195 0.0739605
0.800931 0.966659 0.164248
0.963607 0.961456 0.201389
0.960006 0.914504 0.243015
0.96524 0.891524 0.56144
0.188525 0.966003 0.0483101
0.199084 0.965759 0.0498665
0.210925 0.965484 0.051606
0.247105 0.964645 0.0569162
0.354376 0.962646 0.0728771
0.593698 0.961761 0.117693
0.867155 0.969284 0.179416
0.964569 0.973037 0.212375
0.965026 0.974762 0.247303
0.521111 0.961334 0.647272
0.524239 0.96144 0.647486
0.528298 0.961547 0.647623
0.539727 0.961883 0.648142
0.577264 0.962951 0.650431
0.660288 0.966232 0.646403
0.819165 0.97435 0.628763
0.977676 0.984237 0.590997
0.978378 0.985016 0.616602
0.00198367 6.10361e-05 0.327306
0.000686656 0.000137331 0.273213
0.0980087 0.000244144 0.164874
0.629023 0.0140841 0.202579
0.961196 0.2533 0.452506
0.960327 0.37818 0.472541
0.959777 0.40856 0.490852
0.95639 0.515679 0.47631
0.952819 0.662165 0.61297
0.00196841 6.10361e-05 0.326986
0.000198367 1.5259e-05 0.228
0.134768 0.000488289 0.162692
0.631235 0.0128786 0.209751
0.964889 0.196323 0.452094
0.959243 0.389914 0.515526
0.959075 0.435294 0.496208
0.955962 0.526589 0.477195
0.953002 0.665522 0.613565
0.00263981 0.19617 0.522652
0.00154116 0.104997 0.360143
0.0471809 0.062501 0.256275
0.453437 0.0651865 0.245075
0.9234 0.182757 0.397452
0.959426 0.438254 0.535805
0.959014 0.463569 0.502617
0.956222 0.538674 0.478477
0.953231 0.669581 0.614282
0.0211032 0.586358 0.606104
0.00729381 0.443183 0.446235
0.0011902 0.3729 0.370382
0.314672 0.314855 0.314443
0.808255 0.3523 0.36788
0.956786 0.510399 0.537041
0.955581 0.531411 0.515373
0.953994 0.572885 0.48043
0.953735 0.681086 0.616175
0.0379492 0.784924 0.458778
0.0345312 0.759991 0.416419
0.0318914 0.736675 0.385718
0.128664 0.696727 0.341466
0.693416 0.663722 0.351705
0.953643 0.695323 0.504799
0.953521 0.660075 0.525567
0.953262 0.653925 0.481804
0.954147 0.712795 0.618585
0.048188 0.947601 0.108125
0.0473945 0.944244 0.103151
0.0474556 0.939757 0.100038
0.0467079 0.926848 0.0944381
0.51133 0.90219 0.154238
0.923903 0.885008 0.320348
0.957839 0.814633 0.478065
0.955657 0.781521 0.449073
0.957366 0.784497 0.618616
0.0478676 0.967224 0.0339208
0.0478676 0.967224 0.0339208
0.0478676 0.967224 0.0339208
0.0546578 0.967117 0.0346227
0.248981 0.964874 0.0563668
0.755428 0.965103 0.152316
0.963897 0.962615 0.201709
0.960006 0.914473 0.243366
0.96524 0.891524 0.56144
0.185122 0.966125 0.0478523
0.19469 0.965927 0.0492561
0.206439 0.965698 0.0509651
0.241611 0.964981 0.0560922
0.345388 0.963043 0.071931
0.584924 0.961975 0.115831
0.867247 0.969268 0.17937
0.964569 0.973037 0.212375
0.965026 0.974777 0.247456
0.522744 0.961379 0.647334
0.525872 0.961471 0.647547
0.529778 0.961593 0.647761
0.541299 0.961929 0.648356
0.578897 0.962982 0.650507
0.661112 0.966262 0.646281
0.819547 0.974365 0.628672
0.977676 0.984237 0.59089
0.978378 0.985016 0.616815
0.00291447 0.000442512 0.702663
0.00344854 0.000350958 0.680323
0.0535897 6.10361e-05 0.47567
0.582391 0.000274662 0.43476
0.965667 0.159167 0.592798
0.959884 0.391485 0.572747
0.959014 0.432731 0.594965
0.954742 0.545098 0.599313
0.952819 0.661921 0.613062
0.00291447 0.000442512 0.702739
0.00358587 0.00030518 0.630838
0.0928817 0 0.462104
0.605234 0.000244144 0.437232
0.966918 0.123766 0.591485
0.959167 0.384176 0.603754
0.957916 0.464469 0.608988
0.954543 0.555459 0.602045
0.953002 0.665293 0.613672
0.00418097 0.166171 0.826688
0.00366217 0.0996414 0.731853
0.0226902 0.0470588 0.596719
0.457801 0.0415198 0.525185
0.908415 0.14406 0.587259
0.959686 0.437156 0.631464
0.956893 0.497322 0.621561
0.954162 0.567712 0.605554
0.953216 0.669261 0.614374
0.0312352 0.608576 0.87335
0.0151369 0.469596 0.778256
0.00935378 0.395895 0.717388
0.291829 0.329534 0.638178
0.799313 0.343359 0.617624
0.957214 0.512337 0.670451
0.954757 0.567025 0.647883
0.953429 0.599435 0.613306
0.95375 0.680766 0.616297
0.0505074 0.798978 0.802441
0.0469368 0.773999 0.775021
0.0425574 0.752346 0.750896
0.0728923 0.711086 0.706203
0.67364 0.673991 0.673793
0.955749 0.69897 0.708766
0.95494 0.681575 0.678843
0.95375 0.672343 0.628458
0.954162 0.712566 0.618845
0.0710918 0.929763 0.684932
0.0710613 0.926619 0.679286
0.0708171 0.923842 0.674113
0.0639048 0.916289 0.658961
0.421561 0.895201 0.649149
0.902251 0.884794 0.677012
0.963073 0.823011 0.691096
0.958419 0.790906 0.633967
0.957366 0.784436 0.618814
0.0607156 0.965576 0.35465
0.0606851 0.965652 0.355062
0.0606394 0.965774 0.356054
0.0605936 0.965942 0.357946
0.188861 0.961868 0.378668
0.695094 0.96585 0.41265
0.972961 0.969207 0.504616
0.968154 0.919326 0.52845
0.965225 0.891478 0.561929
0.220264 0.962158 0.312535
0.227802 0.962066 0.31075
0.237064 0.961975 0.308003
0.263767 0.961654 0.300801
0.345815 0.9608 0.279393
0.55172 0.961456 0.228931
0.83772 0.968277 0.190158
0.964569 0.973037 0.212375
0.965026 0.974792 0.247776
0.49752 0.96141 0.701045
0.501183 0.961501 0.701183
0.505776 0.961608 0.701366
0.519097 0.961929 0.701869
0.561776 0.962966 0.703471
0.663569 0.966445 0.70808
0.819364 0.975128 0.685054
0.978119 0.984649 0.60383
0.978378 0.985031 0.617029
0.00549325 0 0.991867
0.00549325 0 0.991913
0.00560006 3.0518e-05 0.899809
0.465858 0.000106813 0.769558
0.95404 0.020325 0.759716
0.960739 0.329992 0.680934
0.959686 0.402564 0.686854
0.955917 0.548577 0.701183
0.955001 0.682109 0.7196
0.00549325 0 0.991867
0.00549325 0 0.991897
0.00555428 0.000167849 0.876921
0.491325 0.000106813 0.767208
0.957595 0.0215305 0.760342
0.960204 0.345953 0.703883
0.960616 0.43238 0.69865
0.955657 0.560922 0.705364
0.955245 0.684932 0.72047
0.0056611 0.025803 0.999115
0.00584421 0.0277256 0.999283
0.00546273 0.000427253 0.912581
0.415351 0.00120546 0.817151
0.889357 0.0698711 0.78471
0.960342 0.37203 0.738018
0.959091 0.466072 0.710185
0.955169 0.575235 0.710262
0.955535 0.68835 0.721508
0.0228275 0.51368 0.970703
0.0187076 0.460578 0.974868
0.0115816 0.369741 0.955871
0.20029 0.288289 0.885252
0.781094 0.2934 0.827344
0.958877 0.456046 0.798367
0.955016 0.546563 0.734264
0.954681 0.612009 0.723033
0.956283 0.6981 0.724468
0.0510567 0.761624 0.957992
0.049012 0.746883 0.956008
0.0475013 0.731716 0.944518
0.0421149 0.700435 0.920348
0.633478 0.667735 0.878706
0.957183 0.672648 0.858213
0.955566 0.685435 0.779339
0.956527 0.693126 0.751858
0.957168 0.72694 0.732296
0.0754101 0.898619 0.89897
0.075227 0.895796 0.894469
0.0733349 0.893187 0.892576
0.0712902 0.885359 0.882506
0.268193 0.868666 0.863355
0.862943 0.86421 0.863493
0.966705 0.829496 0.828412
0.962509 0.798321 0.783581
0.962402 0.790967 0.7449
0.0877699 0.958679 0.759457
0.0878309 0.958679 0.758907
0.0880446 0.958679 0.758404
0.0884108 0.958679 0.756924
0.0872511 0.959075 0.752529
0.596582 0.965072 0.772335
0.975219 0.968292 0.800671
0.975692 0.918868 0.777508
0.970626 0.891386 0.739208
0.0985122 0.95935 0.725994
0.107073 0.959304 0.725383
0.117174 0.959274 0.72459
0.146639 0.959136 0.722545
0.244419 0.95877 0.717083
0.52604 0.961761 0.719158
0.825467 0.976074 0.702846
0.978393 0.985016 0.616434
0.977035 0.982559 0.559472
0.358801 0.958831 0.838437
0.363485 0.958892 0.838422
0.369314 0.958968 0.838422
0.386267 0.959213 0.838392
0.44123 0.959991 0.838315
0.578943 0.965072 0.837598
0.803418 0.97734 0.843427
0.988144 0.992203 0.813458
0.983764 0.989929 0.738689
0.00570687 0 0.997772
0.00570687 0 0.997772
0.00570687 0 0.997772
0.00570687 0 0.997772
0.803326 0.00910964 0.974273
0.963638 0.202243 0.85658
0.960433 0.340749 0.795285
0.956786 0.500008 0.794385
0.9552 0.663645 0.799313
0.00570687 0 0.997772
0.00570687 0 0.997772
0.00570687 0 0.997772
0.00570687 0 0.997772
0.808515 0.009308 0.973602
0.963592 0.203723 0.855833
0.960662 0.370321 0.804349
0.956329 0.512718 0.797284
0.955352 0.667277 0.800534
0.00570687 0 0.997772
0.00570687 0 0.997772
0.00570687 0 0.997772
0.00570687 0 0.997772
0.810956 0.00927749 0.974975
0.963455 0.218296 0.883055
0.960418 0.402625 0.81323
0.955612 0.527398 0.800626
0.95555 0.671672 0.802029
0.00579843 0.223194 0.998505
0.00578317 0.225284 0.998459
0.00576791 0.227802 0.998413
0.00560006 0.130449 0.999741
0.699413 0.135866 0.98378
0.961685 0.314458 0.945418
0.956909 0.482414 0.830335
0.954513 0.566583 0.809689
0.956008 0.684169 0.805844
0.0513313 0.761349 0.957031
0.0505531 0.757488 0.95729
0.0326085 0.613947 0.964996
0.0296788 0.575418 0.966064
0.457465 0.563104 0.963561
0.929946 0.574792 0.960281
0.955505 0.633143 0.859724
0.955184 0.654734 0.830564
0.957626 0.718395 0.814557
0.0610666 0.829877 0.956634
0.0606699 0.827085 0.956542
0.061387 0.823789 0.955978
0.0588998 0.817746 0.956741
0.124086 0.805692 0.956664
0.781598 0.809964 0.961654
0.965911 0.800961 0.91545
0.963989 0.78407 0.866102
0.96173 0.792248 0.839887
0.0960555 0.949004 0.934447
0.0960098 0.948653 0.9346
0.096025 0.948348 0.934737
0.0954757 0.947356 0.935592
0.0932326 0.943908 0.935134
0.403723 0.933745 0.929534
0.937911 0.940963 0.938704
0.978241 0.910323 0.904204
0.975479 0.887343 0.869139
0.0995041 0.957702 0.923568
0.0994888 0.957748 0.92314
0.0994125 0.957748 0.922545
0.0991379 0.957748 0.920684
0.0992905 0.957794 0.914839
0.274418 0.95819 0.901106
0.780255 0.977172 0.898192
0.990997 0.994293 0.873793
0.988632 0.992676 0.829816
0.14818 0.957122 0.935699
0.152224 0.957137 0.935729
0.156756 0.957153 0.93576
0.171984 0.957183 0.935882
0.21915 0.957321 0.936278
0.393256 0.958816 0.941238
0.708782 0.973739 0.956146
0.980255 0.995972 0.951492
0.992737 0.995422 0.902495
0.024155 0.528908 0.971771
0.024155 0.528908 0.971771
0.024155 0.528908 0.971771
0.024155 0.528908 0.971771
0.0241855 0.529213 0.971756
0.829801 0.014435 0.98967
0.962219 0.264118 0.942367
0.960678 0.391485 0.909026
0.95552 0.590921 0.890318
0.024155 0.528908 0.971771
0.024155 0.528908 0.971771
0.024155 0.528908 0.971771
0.024155 0.528908 0.971771
0.0241855 0.529213 0.971756
0.832288 0.0146639 0.989548
0.962219 0.264134 0.942382
0.960296 0.403403 0.910704
0.955657 0.595026 0.891157
0.024155 0.528908 0.971771
0.024155 0.528908 0.971771
0.024155 0.528908 0.971771
0.024155 0.528908 0.971771
0.0241855 0.529213 0.971756
0.834623 0.0149996 0.98941
0.962005 0.271641 0.943465
0.959869 0.417777 0.912169
0.95581 0.599954 0.892134
0.024155 0.528908 0.971771
0.0242771 0.530159 0.971695
0.0244144 0.531731 0.971603
0.0248264 0.536446 0.971313
0.0261234 0.551232 0.970428
0.817716 0.0345006 0.988525
0.961944 0.344198 0.952468
0.958648 0.457679 0.916442
0.956176 0.614679 0.89485
0.0599832 0.822278 0.956664
0.0600137 0.822522 0.956649
0.0600443 0.822782 0.956649
0.0601205 0.823651 0.956619
0.0603799 0.826261 0.956512
0.667948 0.364111 0.970413
0.957137 0.490013 0.962661
0.955535 0.555856 0.927596
0.95697 0.655634 0.900923
0.100328 0.955962 0.930877
0.100328 0.955962 0.930877
0.100328 0.955962 0.930877
0.100328 0.955962 0.930877
0.068986 0.864836 0.954101
0.515404 0.690654 0.957519
0.957076 0.724117 0.963943
0.960067 0.71545 0.952544
0.961059 0.740734 0.919829
0.100328 0.955962 0.930877
0.100328 0.955962 0.930877
0.100328 0.955962 0.930877
0.100328 0.955962 0.930877
0.0957656 0.947662 0.935286
0.16463 0.906996 0.947158
0.854276 0.882078 0.970184
0.975402 0.870726 0.976318
0.973571 0.860731 0.949126
0.0989548 0.956329 0.932616
0.0989548 0.956329 0.932616
0.0989548 0.956329 0.932616
0.0990921 0.956466 0.932754
0.0999313 0.957305 0.933593
0.103182 0.956954 0.935424
0.661921 0.969985 0.957
0.997818 0.999634 0.999023
0.992966 0.986099 0.97322
0.107088 0.956985 0.935561
0.108171 0.956985 0.935607
0.109651 0.956985 0.935653
0.113832 0.957 0.935805
0.127092 0.957031 0.936263
0.274678 0.957549 0.937499
0.651987 0.969512 0.95555
0.961273 0.995514 0.991547
1 1 1
0.100328 0.955962 0.930877
0.100328 0.955962 0.930877
0.100328 0.955962 0.930877
0.100328 0.955962 0.930877
0.100328 0.955962 0.930877
0.100328 0.955962 0.930877
0.100328 0.955962 0.930877
0.95845 0.461753 0.964492
0.956603 0.506203 0.963134
0.100328 0.955962 0.930877
0.100328 0.955962 0.930877
0.100328 0.955962 0.930877
0.100328 0.955962 0.930877
0.100328 0.955962 0.930877
0.100328 0.955962 0.930877
0.100328 0.955962 0.930877
0.958465 0.461662 0.964508
0.956497 0.509575 0.962936
0.100328 0.955962 0.930877
0.100328 0.955962 0.930877
0.100328 0.955962 0.930877
0.100328 0.955962 0.930877
0.100328 0.955962 0.930877
0.100328 0.955962 0.930877
0.100328 0.955962 0.930877
0.958465 0.461479 0.964538
0.956374 0.513741 0.962676
0.100328 0.955962 0.930877
0.100328 0.955962 0.930877
0.100328 0.955962 0.930877
0.100328 0.955962 0.930877
0.100328 0.955962 0.930877
0.100328 0.955962 0.930877
0.100328 0.955962 0.930877
0.957961 0.479194 0.963897
0.956008 0.526085 0.961913
0.100328 0.955962 0.930877
0.100328 0.955962 0.930877
0.100328 0.955962 0.930877
0.100328 0.955962 0.930877
0.100328 0.955962 0.930877
0.100328 0.955962 0.930877
0.100328 0.955962 0.930877
0.95639 0.570809 0.961364
0.955947 0.561639 0.961074
0.100328 0.955962 0.930877
0.100328 0.955962 0.930877
0.100328 0.955962 0.930877
0.100328 0.955962 0.930877
0.100328 0.955962 0.930877
0.100328 0.955962 0.930877
0.100328 0.955962 0.930877
0.961761 0.731823 0.965484
0.958007 0.659571 0.960678
0.100328 0.955962 0.930877
0.100328 0.955962 0.930877
0.100328 0.955962 0.930877
0.100328 0.955962 0.930877
0.100328 0.955962 0.930877
0.100328 0.955962 0.930877
0.100328 0.955962 0.930877
0.972442 0.901549 0.980346
0.968429 0.818067 0.971191
0.100328 0.955962 0.930877
0.100328 0.955962 0.930877
0.100328 0.955962 0.930877
0.100328 0.955962 0.930877
0.100328 0.955962 0.930877
0.100328 0.955962 0.930877
0.100328 0.955962 0.930877
0.90193 0.988556 0.981659
0.994446 0.985885 0.995727
0.100328 0.955962 0.930877
0.100328 0.955962 0.930877
0.100328 0.955962 0.930877
0.100328 0.955962 0.930877
0.100328 0.955962 0.930877
0.100328 0.955962 0.930877
0.0999313 0.957183 0.934203
0.886732 0.986679 0.980728
1 1 1
