Luts/Fujifilm/FLog2C_to_ASTIA_VLog.cube
TITLE "Generated by Resolve"
LUT_3D_SIZE 9
0.000350958 0.000259403 7.62951e-05
0.000350958 0.000259403 7.62951e-05
0.122606 0.00309758 0.00341802
0.723583 0.000274662 0.0688945
0.999924 0.0102693 0.523568
0.999466 0.0997177 0.540078
0.999878 0.122133 0.526345
0.999252 0.335546 0.48336
0.999512 0.549523 0.567803
0.000350958 0.000259403 7.62951e-05
0.000350958 0.000259403 7.62951e-05
0.166079 0.00381476 0.0069276
0.701808 6.10361e-05 0.0608072
0.999695 0.000106813 0.505852
0.999466 0.0997177 0.540078
0.999649 0.165225 0.49752
0.9991 0.352758 0.477745
0.999603 0.554589 0.566247
0 0.139773 0
0 0.12932 0.000213626
0.0714885 0.0840162 0.000274662
0.499596 0.0584268 4.57771e-05
0.999329 0.00733959 0.301274
0.999878 0.149905 0.506539
0.99971 0.215549 0.465507
0.999283 0.372946 0.471382
0.999725 0.560678 0.564279
7.62951e-05 0.620798 0.000534066
4.57771e-05 0.449577 0.000640879
0.00639353 0.372061 0.000106813
0.354757 0.312596 0.000122072
0.866926 0.289662 0.000183108
0.999542 0.309697 0.362829
0.999359 0.333562 0.397467
0.999649 0.425086 0.450904
0.999985 0.577966 0.55877
4.57771e-05 0.840864 0.000228885
0.000213626 0.807187 0.000564584
0.00015259 0.777508 0.000366217
0.215793 0.729229 0.000396735
0.718685 0.672007 0
0.999283 0.61651 0.0351568
0.999557 0.547845 0.283864
0.999725 0.552041 0.394217
0.999573 0.62359 0.542794
0 1 0.000289921
0 1 0.000289921
0 1 0.000289921
0.0646677 0.999817 0.000350958
0.580392 0.948623 6.10361e-05
0.978683 0.874662 1.5259e-05
0.999207 0.79855 0.030808
0.999466 0.742321 0.250156
0.999496 0.725521 0.494087
0 1 0.000289921
0.00766003 0.999985 0.00030518
0.0214847 0.999969 0.000350958
0.0709087 0.999908 0.000381476
0.373831 0.999725 0.000518807
0.766644 0.999466 3.0518e-05
0.985992 0.980056 0.00808728
0.99379 0.94403 0.000213626
0.999557 0.89134 0.336996
0.232105 0.999878 0.000213626
0.240681 0.999863 0.000228885
0.251148 0.999832 0.000244144
0.281102 0.999741 0.000320439
0.371374 0.999634 0.000595102
0.573022 0.999557 0.000122072
0.849104 0.999435 4.57771e-05
0.983734 1 0.0220188
0.984756 0.999756 0.0529946
0.500908 0.999649 0.503426
0.503609 0.999634 0.502983
0.507057 0.999603 0.502159
0.517281 0.999527 0.500343
0.549661 0.999298 0.494255
0.621881 0.999802 0.467536
0.777478 0.999954 0.403281
0.988769 0.999634 0.3355
0.989624 0.999969 0.377218
0.000350958 0.000259403 7.62951e-05
0.000350958 0.000259403 7.62951e-05
0.152514 0.00352483 0.00505074
0.73872 0.000335698 0.0743267
0.999939 0.011017 0.524178
0.999466 0.0997177 0.540078
0.999878 0.121874 0.526513
0.999252 0.335378 0.483391
0.999512 0.549523 0.567803
0.000350958 0.000259403 7.62951e-05
0.000350958 0.000259403 7.62951e-05
0.200504 0.00427253 0.00581369
0.71809 7.62951e-05 0.0664988
0.99968 0.000106813 0.508659
0.999466 0.0997177 0.540078
0.999649 0.164996 0.497658
0.9991 0.35259 0.477791
0.999603 0.554589 0.566247
0 0.138705 0
1.5259e-05 0.11809 0.00077821
0.0890822 0.0810254 7.62951e-05
0.514885 0.056672 6.10361e-05
0.999603 0.00604257 0.30959
0.999878 0.149081 0.507057
0.999725 0.215259 0.465705
0.999283 0.372824 0.471519
0.999725 0.560678 0.564279
7.62951e-05 0.591089 0.000289921
9.15541e-05 0.432715 0.000228885
0.0102998 0.366705 7.62951e-05
0.367697 0.310231 3.0518e-05
0.870314 0.288945 0.000183108
0.999527 0.309865 0.363546
0.999359 0.333394 0.397589
0.999649 0.424949 0.451041
0.999985 0.577966 0.558862
3.0518e-05 0.834501 0.000396735
0.000274662 0.80264 0.000381476
0.000198367 0.773907 0.000381476
0.228794 0.727535 0.000411994
0.72195 0.671321 0
0.999268 0.616068 0.0356298
0.999557 0.547601 0.284092
0.999725 0.551843 0.394278
0.999573 0.623484 0.54284
0 1 0.000289921
0 1 0.000289921
4.57771e-05 1 0.000289921
0.0691386 0.999802 0.000366217
0.583856 0.948028 6.10361e-05
0.979126 0.874372 1.5259e-05
0.999222 0.798505 0.0309606
0.999466 0.742184 0.250462
0.999496 0.725521 0.494087
0 1 0.000289921
0.00936904 0.999985 0.000320439
0.0229191 0.999969 0.000350958
0.0756085 0.999908 0.000381476
0.377096 0.999725 0.000518807
0.767391 0.999481 3.0518e-05
0.985992 0.979995 0.00805676
0.99379 0.94403 0.000213626
0.999557 0.89134 0.336996
0.233539 0.999878 0.000213626
0.2421 0.999847 0.000228885
0.252094 0.999832 0.000259403
0.282048 0.999741 0.000320439
0.372244 0.999634 0.000595102
0.573632 0.999557 0.000122072
0.849287 0.999435 4.57771e-05
0.983734 1 0.0220188
0.984756 0.999756 0.0529946
0.501259 0.999649 0.503349
0.50396 0.999634 0.502907
0.507408 0.999603 0.502068
0.517632 0.999527 0.500267
0.550011 0.999283 0.494179
0.622126 0.999802 0.467414
0.777478 0.999954 0.403281
0.988769 0.999634 0.3355
0.989624 0.999969 0.377218
0.000244144 0.000503548 0.112062
0.000244144 0.000518807 0.111269
0.134325 0.000411994 0.0574807
0.686488 1.5259e-05 0.0685283
0.999985 7.62951e-05 0.519463
0.999466 0.0997177 0.540078
0.999863 0.121416 0.526787
0.999268 0.335119 0.483482
0.999512 0.549538 0.567895
0.000244144 0.000503548 0.11162
7.62951e-05 1.5259e-05 0.094316
0.172656 0.000579843 0.0556802
0.681834 1.5259e-05 0.0725872
0.999954 0.000106813 0.49752
0.999466 0.0997177 0.540078
0.999649 0.164523 0.497963
0.9991 0.352468 0.477897
0.999603 0.554589 0.566247
9.15541e-05 0.167285 0.179217
1.5259e-05 0.123552 0.119066
0.0770581 0.078584 0.0764935
0.489906 0.0531777 0.0590829
0.999756 0.00842298 0.315022
0.999542 0.155734 0.503761
0.999725 0.214801 0.465995
0.999283 0.372641 0.47155
0.999725 0.560555 0.564401
0.000244144 0.616693 0.14696
1.5259e-05 0.471138 0.0157015
0.000671397 0.400931 0.00332647
0.348104 0.330373 4.57771e-05
0.852766 0.289067 0.0640421
0.999313 0.314366 0.403998
0.999359 0.333043 0.397848
0.999649 0.424781 0.451087
0.999985 0.577966 0.558862
0 0.859983 0.000488289
4.57771e-05 0.830381 0.000488289
6.10361e-05 0.803326 0.000564584
0.183261 0.753033 0.000610361
0.703075 0.688762 1.5259e-05
0.999435 0.615869 0.121523
0.999573 0.547509 0.284184
0.999725 0.551858 0.394385
0.999573 0.623484 0.54284
0 1 0.000289921
0 1 0.000289921
0 1 0.000289921
0.0065919 0.999619 0.000457771
0.558129 0.958862 1.5259e-05
0.972961 0.87657 0
0.999222 0.798398 0.0311437
0.999451 0.742153 0.250462
0.999496 0.725399 0.494163
0 1 0.000289921
0.00950637 0.999939 0.000289921
0.0213016 0.999878 0.000289921
0.0730907 0.999741 0.000274662
0.375677 0.999695 0.000610361
0.768139 0.999481 3.0518e-05
0.986007 0.979873 0.00798047
0.99379 0.944015 0.000213626
0.999573 0.891325 0.337209
0.234974 0.999878 0.000213626
0.243534 0.999847 0.000228885
0.253529 0.999817 0.000259403
0.283955 0.999741 0.000335698
0.373526 0.999634 0.000595102
0.574258 0.999557 0.000122072
0.8495 0.999435 4.57771e-05
0.983734 1 0.0220188
0.984756 0.999756 0.0529946
0.501945 0.999649 0.503182
0.504646 0.999634 0.502739
0.508049 0.999603 0.502129
0.517983 0.999527 0.500175
0.550347 0.999283 0.494087
0.62237 0.999817 0.467292
0.777691 0.999954 0.403159
0.988769 0.999634 0.335348
0.989624 0.999985 0.377523
0.00560006 6.10361e-05 0.466667
0.00515755 0.000198367 0.414649
0.114977 0.000198367 0.2477
0.653605 0.000396735 0.25214
0.999542 0.000213626 0.599054
0.999557 0.102205 0.568856
0.999588 0.145556 0.572641
0.999283 0.334676 0.483742
0.999512 0.549401 0.567941
0.00560006 6.10361e-05 0.466468
0.00430304 0.00030518 0.353689
0.151995 0.000427253 0.239109
0.660471 0.000503548 0.262486
1 1.5259e-05 0.600855
0.999725 0.117723 0.617517
0.999786 0.193805 0.564034
0.9991 0.351843 0.478141
0.999603 0.554467 0.566384
0.000289921 0.205722 0.684688
0.000457771 0.111559 0.494072
0.0618448 0.0627146 0.36408
0.483391 0.0305638 0.312749
0.992462 0.000396735 0.500954
0.99968 0.199451 0.61445
0.999619 0.245899 0.552117
0.999283 0.372152 0.471839
0.999725 0.560433 0.564523
3.0518e-05 0.618448 0.695491
0.000213626 0.486244 0.51899
0.000503548 0.413291 0.434546
0.331411 0.33164 0.331167
0.836423 0.276555 0.362219
0.999878 0.32256 0.567132
0.999664 0.355505 0.523674
0.999649 0.42443 0.451347
0.999985 0.577844 0.558984
0.000244144 0.835996 0.420203
6.10361e-05 0.810117 0.369696
6.10361e-05 0.786419 0.335927
0.116381 0.740764 0.263722
0.680507 0.674876 0.198383
0.999557 0.610269 0.39321
0.999649 0.555123 0.449928
0.999725 0.551476 0.394644
0.999573 0.623377 0.542992
0 1 0.000289921
0 1 0.000289921
0 1 0.000289921
0.000106813 1 0.00030518
0.498192 0.9991 1.5259e-05
0.94229 0.927504 0.00610361
0.999329 0.787549 0.267964
0.999451 0.742107 0.250767
0.999496 0.725399 0.494285
0 1 0.000289921
0 1 0.000289921
0 1 0.000289921
0.0181888 0.999924 0.000289921
0.283787 0.999664 0.000411994
0.719249 0.999634 6.10361e-05
0.985855 0.985138 0.00976577
0.993805 0.943984 0.000213626
0.999573 0.891218 0.337362
0.232074 0.99968 0.00030518
0.240391 0.999664 0.000320439
0.25008 0.999664 0.00030518
0.279637 0.999634 0.00030518
0.366445 0.999603 0.00030518
0.56788 0.999619 0.000289921
0.849851 0.999481 4.57771e-05
0.983734 1 0.0220188
0.984771 0.999756 0.0530556
0.503319 0.999634 0.502846
0.50602 0.999619 0.502403
0.509438 0.999588 0.501793
0.519707 0.999512 0.499763
0.551736 0.999283 0.493767
0.623316 0.999817 0.467063
0.778332 0.999954 0.402777
0.988769 0.999634 0.33547
0.989624 0.999985 0.377523
0.012665 0.000320439 0.881376
0.0119631 9.15541e-05 0.879454
0.0628672 0.00030518 0.661509
0.605844 9.15541e-05 0.574365
0.999939 0 0.776455
1 0.117464 0.689433
0.99968 0.181155 0.692134
0.999466 0.368963 0.626215
0.999512 0.548898 0.568276
0.012665 0.000320439 0.881376
0.0104829 4.57771e-05 0.862333
0.100542 0.000411994 0.646952
0.628138 0.00015259 0.576242
0.999954 6.10361e-05 0.767971
0.999985 0.0996262 0.735805
0.999542 0.235843 0.687495
0.99939 0.384741 0.62356
0.999603 0.553964 0.56672
9.15541e-05 0.155764 0.999557
0.00285344 0.081239 0.983322
0.0310369 0.0206455 0.808255
0.48333 0.000167849 0.702464
0.975708 9.15541e-05 0.761624
0.999802 0.191196 0.735409
0.999649 0.290867 0.684062
0.999603 0.403052 0.6206
0.99971 0.560052 0.564904
6.10361e-05 0.615915 0.999619
0.000869764 0.485542 0.970977
0.000366217 0.410819 0.900893
0.304372 0.319417 0.784237
0.824231 0.242985 0.710704
0.999878 0.313222 0.737819
0.999908 0.396841 0.674861
0.99971 0.450568 0.611978
0.999985 0.577478 0.559289
0.000427253 0.820569 0.918151
0.000442512 0.7953 0.882765
0.000259403 0.770336 0.850294
0.0426795 0.725017 0.788769
0.656428 0.656367 0.656275
0.999512 0.59559 0.670939
0.999847 0.568673 0.644358
0.999329 0.562097 0.581735
0.999588 0.623163 0.543282
0.000228885 0.999146 0.674113
0.000335698 0.998932 0.668696
1.5259e-05 0.999054 0.664195
0 0.99057 0.650599
0.396429 0.957549 0.558892
0.897368 0.889586 0.505898
0.999435 0.771893 0.565362
0.999435 0.731701 0.507332
0.999512 0.725139 0.494697
0 0.99971 0.216709
0 0.99968 0.217456
1.5259e-05 0.999619 0.218982
0.00703441 0.999527 0.220905
0.213703 0.999649 0.199329
0.655756 0.999542 0.116884
0.989593 0.999603 0.205035
0.996872 0.939513 0.266148
0.999573 0.891157 0.337987
0.254902 0.99971 0.105684
0.261341 0.99971 0.102358
0.268864 0.99971 0.0984665
0.291402 0.999695 0.0863661
0.36051 0.999695 0.0519875
0.538094 0.999863 0.00456245
0.814008 0.999573 0.000228885
0.984939 0.999527 0.0323339
0.984771 0.999756 0.0531624
0.483955 0.999542 0.586496
0.487083 0.999557 0.585916
0.49099 0.999588 0.585168
0.502312 0.999649 0.583047
0.539101 0.999878 0.575952
0.621241 0.999786 0.554742
0.773785 0.999451 0.482597
0.989044 0.999573 0.352758
0.989624 0.999985 0.377844
0.0151064 0.000808728 0.933227
0.0151217 0.000839246 0.933257
0.0148928 0.000122072 0.914595
0.486473 0.00015259 0.999435
0.997589 0.000122072 0.982651
0.999634 0.0154421 0.858564
0.999939 0.121004 0.828977
0.999832 0.366155 0.761196
0.999939 0.567041 0.703899
0.0151064 0.000823987 0.933242
0.0151369 0.000839246 0.933272
0.0146029 0.000213626 0.91136
0.512123 9.15541e-05 0.999283
0.998047 9.15541e-05 0.983169
0.999756 0.0327916 0.884443
0.999863 0.175174 0.825391
0.999817 0.384421 0.760189
0.999908 0.571069 0.703304
0.00984207 0.0675822 0.9888
0.00953689 0.0715801 0.991653
0.012665 0.000747692 0.925368
0.435019 0.000228885 0.999298
0.945266 0.00030518 0.999298
0.999939 0.0729076 0.91606
0.999802 0.2327 0.821988
0.999863 0.405066 0.758465
0.999863 0.575936 0.702663
0.000122072 0.516732 0.999985
0.000381476 0.475044 0.999542
0.000839246 0.383581 0.999863
0.197665 0.265187 0.999802
0.806165 0.169009 0.999435
1 0.210681 0.957214
0.999695 0.356649 0.811078
0.999649 0.459586 0.751842
0.999771 0.589792 0.700648
0.000427253 0.76141 0.999832
0.000717174 0.745754 0.999817
4.57771e-05 0.729992 1
0.00143435 0.695201 0.999939
0.614252 0.631418 0.999146
0.999771 0.548302 0.934081
0.999863 0.561761 0.79263
0.999588 0.577142 0.745876
1 0.62858 0.693446
0.000183108 0.935027 0.999786
9.15541e-05 0.93286 0.999649
0.00015259 0.9299 0.999878
0.000289921 0.923293 1
0.239399 0.8972 0.955535
0.840665 0.842115 0.840894
0.99968 0.761196 0.781018
0.999619 0.723461 0.727245
0.99971 0.718761 0.669825
0.000427253 0.999786 0.78407
0.000427253 0.999817 0.7832
0.000350958 0.999832 0.782238
0.000198367 0.999847 0.779385
0.0040589 1 0.767971
0.553307 0.999557 0.673381
0.980636 0.984665 0.635523
0.999313 0.904509 0.626749
0.999146 0.868666 0.584543
0.0858473 0.999634 0.713222
0.0964828 0.999634 0.710521
0.108904 0.999619 0.707378
0.146761 0.999603 0.697765
0.257496 0.999619 0.669474
0.502251 0.999649 0.611994
0.782055 0.999557 0.514153
0.988846 0.99968 0.375799
0.987732 1 0.295048
0.357275 0.999786 0.844877
0.361364 0.999786 0.84387
0.366476 0.999786 0.842618
0.381811 0.999786 0.83888
0.429343 0.999786 0.827253
0.551705 0.999802 0.79559
0.755489 0.999725 0.747524
0.99115 0.999496 0.647639
0.990005 0.999939 0.541024
0.0156863 0.00483711 0.936233
0.0156863 0.00483711 0.936233
0.0156863 0.00483711 0.936233
0.0156863 0.00483711 0.936233
0.837842 0.000213626 0.999664
1 0 0.99971
0.999924 0.0172732 0.99971
0.999924 0.281163 0.929808
0.999817 0.52842 0.840772
0.0156863 0.00483711 0.936233
0.0156863 0.00483711 0.936233
0.0156863 0.00483711 0.936233
0.0156863 0.00483711 0.936233
0.843458 0.000228885 0.999664
1 0 0.99971
0.999878 0.0626535 0.999313
0.999924 0.300969 0.92755
0.999832 0.533593 0.840421
0.0156863 0.00483711 0.936233
0.0156863 0.00483711 0.936233
0.0156863 0.00483711 0.936233
0.0156863 0.00483711 0.936233
0.846723 0.000228885 0.999512
1 0 0.99971
0.999756 0.114977 0.998062
0.999924 0.323369 0.924743
0.999847 0.539834 0.840009
0.00112917 0.25977 0.999954
0.00114443 0.261097 0.999954
0.00115969 0.264073 0.999969
0.00103761 0.175036 0.999908
0.719997 0.0317235 0.9991
0.999725 0.00218204 0.999512
0.999603 0.249943 0.991363
0.999893 0.380682 0.917403
0.999863 0.557702 0.838453
0.00030518 0.758389 0.999756
0.00030518 0.758572 0.999756
0.000442512 0.611124 0.999893
0.000396735 0.573129 0.999664
0.442679 0.53283 0.99968
0.984146 0.434699 0.999359
0.99971 0.474617 0.966155
0.99971 0.510704 0.899992
0.999924 0.606027 0.833326
0.000411994 0.840177 0.999939
0.000427253 0.836454 1
0.000610361 0.832166 0.999954
0.000335698 0.822278 0.999985
0.0789349 0.802075 0.99971
0.748287 0.764767 0.999847
0.999634 0.705821 0.96965
0.999573 0.690486 0.880415
1 0.70547 0.82678
0.000518807 0.972656 0.999893
0.000549325 0.972503 0.999924
0.000595102 0.972305 0.999969
0.000518807 0.971618 0.999908
0.000228885 0.9691 0.999924
0.368536 0.982666 0.999557
0.927108 0.929107 0.927077
0.999771 0.870985 0.864591
0.999954 0.842527 0.81207
0.000335698 0.97464 0.999954
0.000350958 0.974746 0.999954
0.00047303 0.975235 0.999954
0.000869764 0.976669 0.999939
0.0108339 0.982727 0.999893
0.273762 0.999649 0.981064
0.728176 0.999756 0.859892
0.993088 0.99968 0.753475
0.992569 0.999512 0.675212
0.132753 0.999725 0.999878
0.137713 0.999741 0.999863
0.143923 0.999756 0.999847
0.161898 0.999802 0.999817
0.220188 0.999969 0.99971
0.377844 0.999725 1
0.65713 0.999924 0.999496
0.979187 0.999878 0.909194
0.993713 1 0.804685
0.000396735 0.524666 1
0.000396735 0.524956 1
0.000396735 0.524956 1
0.000396735 0.524956 1
0.000396735 0.525231 1
0.871412 0.000198367 0.999573
1 0 0.99971
0.999939 0.0953841 0.999496
0.999542 0.410346 0.999039
0.000396735 0.524666 1
0.000396735 0.524956 1
0.000396735 0.524956 1
0.000396735 0.524956 1
0.000396735 0.525231 1
0.873976 0.000198367 0.999603
1 0 0.99971
0.999969 0.114824 0.999496
0.999512 0.416724 0.998978
0.000396735 0.524666 1
0.000396735 0.524956 1
0.000396735 0.524956 1
0.000396735 0.524956 1
0.000396735 0.525231 1
0.877195 0.000198367 0.999634
1 0 0.99971
0.999985 0.139345 0.999496
0.999527 0.42417 0.998993
0.000396735 0.524956 1
0.000396735 0.525795 1
0.000396735 0.527214 1
0.000411994 0.531456 1
0.000427253 0.545022 1
0.857984 9.15541e-05 0.999344
1 0.0216068 0.999069
1 0.205219 0.999466
0.999771 0.444999 0.999466
0.000457771 0.82916 0.999893
0.000457771 0.82948 0.999893
0.000457771 0.829801 0.999893
0.00047303 0.830747 0.999878
0.000503548 0.834073 0.999863
0.673487 0.288563 0.999435
1 0.254749 0.999817
0.999756 0.352697 0.999466
0.999756 0.502541 0.99939
0 0.973785 1
0 0.973785 1
0 0.973785 1
0 0.973785 1
0.000274662 0.889555 1
0.492088 0.657771 0.999786
0.999161 0.611826 0.99913
0.999924 0.580575 0.999603
0.999588 0.620691 0.998978
0 0.973785 1
0 0.973785 1
0 0.973785 1
0 0.973785 1
0.00047303 0.972457 0.999756
0.122179 0.946654 0.999893
0.825162 0.851942 0.999878
0.999557 0.799832 0.999344
0.999207 0.789059 0.994888
0.000976577 0.973083 1
0.000976577 0.973083 1
0.000976577 0.973083 1
0.000976577 0.973083 1
0.000915541 0.973022 0.999969
0.0381476 0.989532 0.999908
0.612299 0.999741 0.999542
0.997009 0.999863 0.998901
0.996872 0.985519 0.962463
0.0373388 0.992157 0.999863
0.0413672 0.992493 0.999863
0.0458228 0.992889 0.999863
0.0596475 0.994095 0.999878
0.10338 0.997909 0.999908
0.276081 0.999985 1
0.605142 0.999954 0.999924
0.94757 0.99826 0.997345
1 1 1
0 0.973785 1
0 0.973785 1
0 0.973785 1
0 0.973785 1
0 0.973785 1
0 0.973785 1
0 0.973785 1
0.999924 0.238514 0.999207
1 0.289952 0.999939
0 0.973785 1
0 0.973785 1
0 0.973785 1
0 0.973785 1
0 0.973785 1
0 0.973785 1
0 0.973785 1
0.999924 0.238254 0.999207
1 0.294728 0.999908
0 0.973785 1
0 0.973785 1
0 0.973785 1
0 0.973785 1
0 0.973785 1
0 0.973785 1
0 0.973785 1
0.999924 0.238132 0.999207
1 0.300877 0.999878
0 0.973785 1
0 0.973785 1
0 0.973785 1
0 0.973785 1
0 0.973785 1
0 0.973785 1
0 0.973785 1
0.999954 0.264302 0.999237
1 0.318425 0.999802
0 0.973785 1
0 0.973785 1
0 0.973785 1
0 0.973785 1
0 0.973785 1
0 0.973785 1
0 0.973785 1
0.999924 0.394797 0.999786
0.999954 0.369482 0.999313
0 0.973785 1
0 0.973785 1
0 0.973785 1
0 0.973785 1
0 0.973785 1
0 0.973785 1
0 0.973785 1
0.999893 0.613214 0.999451
0.999619 0.513756 0.998642
0 0.973785 1
0 0.973785 1
0 0.973785 1
0 0.973785 1
0 0.973785 1
0 0.973785 1
0 0.973785 1
0.989303 0.852079 0.999832
0.99968 0.730739 0.999893
0 0.973785 1
0 0.973785 1
0 0.973785 1
0 0.973785 1
0 0.973785 1
0 0.973785 1
0 0.973785 1
0.864546 0.997665 0.999924
0.99649 0.98175 1
0 0.973785 1
0 0.973785 1
0 0.973785 1
0 0.973785 1
0 0.973785 1
0 0.973785 1
0.000595102 0.972702 0.999817
0.847501 0.99707 0.999786
1 1 1
