Luts/Fujifilm/FLog2C_to_PRO-Neg_Std_VLog.cube
TITLE "Generated by Resolve"
LUT_3D_SIZE 5
0 0 0
0.260838 0.0316777 0.073579
0.966094 0.257221 0.484733
0.966232 0.260853 0.48217
0.973754 0.525795 0.251865
0.0208133 0.165408 0.000640879
0.104936 0.0893416 0.00262455
0.940963 0.132845 0.348608
0.968521 0.312306 0.446784
0.974166 0.536599 0.2392
0.00750744 0.762234 1.5259e-05
0.00929274 0.694728 0.00030518
0.700465 0.62327 4.57771e-05
0.974273 0.54052 0.234562
0.97261 0.604807 0.1505
0.00794995 0.999832 0.000534066
0.0220645 0.999741 0.000762951
0.427787 0.999313 7.62951e-05
0.954925 0.962768 0
0.957443 0.880079 0.000198367
0.661631 0.999496 9.15541e-05
0.665461 0.999481 6.10361e-05
0.688426 0.999512 0.000183108
0.855924 0.999344 9.15541e-05
0.9505 0.999695 0.000671397
0.00537118 0.00109865 0.0753948
0.21236 0.024506 0.0750134
0.965469 0.252354 0.483467
0.966369 0.270481 0.475074
0.97377 0.526024 0.251591
0.0334783 0.216648 0.223423
0.0967727 0.102861 0.104768
0.89572 0.143374 0.32961
0.970428 0.329381 0.432563
0.974166 0.536721 0.239048
0.00805676 0.812009 0.000534066
0.0113069 0.748363 0.00047303
0.649195 0.654917 0.000335698
0.975082 0.569253 0.259785
0.97261 0.604807 0.1505
0 1 0.000289921
0 1 0.000289921
0.250736 0.999939 0.00030518
0.953658 0.988174 1.5259e-05
0.957443 0.880079 0.000198367
0.644282 0.999771 1.5259e-05
0.648081 0.999771 1.5259e-05
0.67071 0.999695 1.5259e-05
0.839521 0.999573 1.5259e-05
0.9505 0.999695 0.000671397
0.0466926 0.00782788 0.485908
0.254246 0.00697337 0.374456
0.969162 0.203571 0.624323
0.979171 0.31841 0.651484
0.987228 0.57969 0.499901
0.0535134 0.261295 0.903563
0.138689 0.114641 0.633844
0.873533 0.101381 0.717693
0.984695 0.387869 0.663783
0.987503 0.589822 0.495918
0.0294652 0.816999 0.787686
0.031754 0.763622 0.731411
0.643351 0.657649 0.673304
0.994476 0.596353 0.665721
0.988006 0.650339 0.471427
9.15541e-05 0.999725 0.292424
9.15541e-05 0.999908 0.291127
0.16321 0.999802 0.299474
0.970474 0.999008 0.338079
0.97467 0.916411 0.224414
0.634058 0.999847 0.373495
0.637278 0.999863 0.37229
0.657511 0.999863 0.364141
0.818448 0.999985 0.293797
0.952682 0.999634 0.0134432
0.180575 0.0809644 0.953109
0.173022 0.0808728 0.948638
0.880766 0.000167849 0.999786
0.994095 0.270207 0.976883
0.999771 0.576883 0.873854
0.209201 0.193805 0.999191
0.186847 0.14815 0.999969
0.829007 0.0839094 0.999298
0.997452 0.326314 0.982086
0.999786 0.58703 0.873549
0.0475471 0.63299 1
0.0521706 0.616342 0.999847
0.596277 0.588113 0.999908
0.999634 0.542885 0.981414
0.999817 0.646525 0.870436
0.0139773 0.996414 0.926436
0.0139315 0.995636 0.92784
0.0143893 0.988739 0.931289
0.92108 0.931517 0.942275
0.993179 0.866056 0.856428
0.501976 0.999741 0.950866
0.506188 0.999741 0.950957
0.534707 0.999725 0.949996
0.759426 0.999695 0.930419
0.988891 0.999634 0.818402
0.0229038 0.916045 0.964416
0.0343633 0.809201 0.994965
0.393256 0.50695 0.999817
0.999924 0.277134 0.999207
0.999786 0.429236 0.999481
0.021149 0.933471 0.957107
0.0343328 0.805417 0.996918
0.380941 0.536278 0.999741
0.999954 0.312612 0.999191
0.999771 0.436866 0.999435
0.024506 0.894469 0.972778
0.0315251 0.833112 0.991409
0.299062 0.684916 0.999786
0.996796 0.485451 0.999466
0.999939 0.485603 0.99968
0.0139467 0.999573 0.91928
0.014374 0.999908 0.919707
0.0137942 0.998123 0.926055
0.811994 0.898985 0.999741
0.999741 0.771038 0.999527
0.387106 0.999695 0.948821
0.39202 0.999695 0.949111
0.42211 0.999695 0.950912
0.660517 0.999802 0.965408
1 1 1
