Luts/Nikon/N-Log_BT2020_to_REC709_BT1886_VLog.cube
TITLE "Generated by Resolve"
LUT_3D_SIZE 9
0 0 0
0.0478218 0.00280766 0.00282292
0.173266 0.00636301 0.00994888
0.428382 0.0274662 0.0429847
0.77583 0.0622721 0.100938
0.94641 0.137469 0.258991
0.994995 0.36817 0.580072
1 0.698512 0.813275
1 0.698512 0.813275
0.00292973 0.0458228 0.00292973
0.0273594 0.0368505 0.00326543
0.171572 0.0184482 0.00950637
0.427893 0.0315709 0.0427405
0.77583 0.0622721 0.100938
0.94641 0.137469 0.258991
0.994995 0.36817 0.580072
1 0.698512 0.813275
1 0.698512 0.813275
0.00350958 0.166705 0.00392157
0.00401312 0.163668 0.00390631
0.144396 0.152377 0.00502022
0.420325 0.110842 0.0341802
0.776501 0.0909285 0.101595
0.946441 0.138201 0.259098
0.994995 0.36817 0.580072
1 0.698512 0.813275
1 0.698512 0.813275
0.00350958 0.404425 0.0114443
0.00357061 0.40267 0.0114595
0.0103914 0.396612 0.011841
0.354513 0.368475 0.0187991
0.763149 0.305379 0.0941176
0.946303 0.258518 0.266194
0.994995 0.369955 0.580224
1 0.698512 0.813275
1 0.698512 0.813275
0.00401312 0.718486 0.0872511
0.00408942 0.717998 0.0870985
0.00555428 0.716243 0.0874647
0.0974746 0.706966 0.0986801
0.66215 0.675303 0.148882
0.928481 0.609186 0.287297
0.992599 0.587777 0.580697
1 0.699351 0.813275
1 0.698512 0.813275
0.0115969 0.888334 0.370947
0.0115969 0.888334 0.370947
0.0152743 0.887922 0.370703
0.0406958 0.886442 0.370886
0.396399 0.880156 0.387167
0.854536 0.862013 0.459693
0.981048 0.827848 0.612985
0.999985 0.81944 0.807965
1 0.701076 0.813275
0.077348 0.96025 0.704997
0.077348 0.96025 0.704997
0.077348 0.96025 0.704997
0.10396 0.959976 0.704799
0.279408 0.958923 0.704921
0.730312 0.955383 0.715267
0.942946 0.946517 0.758068
0.996338 0.931991 0.829664
0.998108 0.914946 0.820737
0.398764 0.986374 0.872663
0.398764 0.986374 0.872663
0.398764 0.986374 0.872663
0.398764 0.986374 0.872663
0.487007 0.986206 0.872496
0.703944 0.98555 0.872419
0.897749 0.983627 0.878813
0.980041 0.979812 0.90045
0.980194 0.979583 0.899763
0.398764 0.986374 0.872663
0.398764 0.986374 0.872663
0.398764 0.986374 0.872663
0.398764 0.986374 0.872663
0.398764 0.986374 0.872663
0.630289 0.985824 0.872389
0.886244 0.983871 0.877668
0.979171 0.979904 0.900008
0.980041 0.979812 0.90045
0.00215152 0.00215152 0.0243839
0.0385595 0.00300603 0.0255131
0.169665 0.0061799 0.0218814
0.425895 0.0272831 0.0491646
0.775265 0.0618143 0.107424
0.946334 0.137392 0.258824
0.994995 0.36817 0.580072
1 0.698512 0.813275
1 0.698512 0.813275
0.00321965 0.0292058 0.0197757
0.0158083 0.015671 0.01561
0.168048 0.011841 0.0210575
0.425254 0.0295567 0.0486458
0.775067 0.0618448 0.106172
0.946334 0.137392 0.258824
0.994995 0.36817 0.580072
1 0.698512 0.813275
1 0.698512 0.813275
0.00350958 0.160113 0.00523384
0.00352483 0.157488 0.00656138
0.138308 0.146136 0.0121309
0.417975 0.103731 0.0428473
0.77583 0.0860761 0.106355
0.946334 0.137392 0.258824
0.994995 0.36817 0.580072
1 0.698512 0.813275
1 0.698512 0.813275
0.00350958 0.39939 0.0142214
0.00355535 0.39765 0.0140841
0.00987259 0.391638 0.0144503
0.353033 0.3635 0.0209049
0.763012 0.300038 0.0949264
0.946319 0.253956 0.265949
0.994995 0.36817 0.580072
1 0.698512 0.813275
1 0.698512 0.813275
0.00401312 0.717266 0.0864881
0.0040589 0.716838 0.0863355
0.00543221 0.715099 0.0867628
0.0940871 0.705653 0.097673
0.662028 0.673747 0.147692
0.928481 0.607492 0.28661
0.992615 0.586374 0.580682
1 0.698955 0.813275
1 0.698512 0.813275
0.0115511 0.888182 0.370443
0.0115358 0.888106 0.370199
0.0149996 0.8878 0.370214
0.0401312 0.886305 0.370382
0.394766 0.879942 0.386343
0.854505 0.86183 0.459266
0.981064 0.827619 0.612863
1 0.819257 0.80795
1 0.700664 0.813275
0.077348 0.96025 0.704997
0.077348 0.96025 0.704997
0.0772717 0.960204 0.704799
0.103426 0.959976 0.704799
0.278355 0.958938 0.704921
0.729809 0.955383 0.715236
0.942916 0.946471 0.757931
0.996338 0.931991 0.829664
0.998108 0.914885 0.820722
0.398764 0.986374 0.872663
0.398764 0.986374 0.872663
0.398764 0.986374 0.872663
0.398764 0.986374 0.872663
0.486519 0.986206 0.872496
0.703685 0.98555 0.872419
0.897749 0.983627 0.878813
0.980041 0.979812 0.90045
0.980194 0.979583 0.899763
0.398764 0.986374 0.872663
0.398764 0.986374 0.872663
0.398764 0.986374 0.872663
0.398764 0.986374 0.872663
0.398764 0.986374 0.872663
0.629999 0.98584 0.872389
0.886137 0.983871 0.877653
0.979171 0.979904 0.900008
0.980041 0.979812 0.90045
0.00436408 0.00407416 0.131228
0.0166171 0.00401312 0.131762
0.166781 0.00494392 0.132525
0.424704 0.0236515 0.128008
0.775036 0.0594949 0.163363
0.946181 0.136584 0.296315
0.99498 0.368032 0.581643
1 0.698512 0.813275
1 0.698512 0.813275
0.00401312 0.00802625 0.131975
0.0115663 0.00645457 0.131777
0.164996 0.00611887 0.132021
0.423957 0.024094 0.125856
0.774838 0.0595102 0.161532
0.94612 0.136522 0.294957
0.994995 0.368048 0.581353
1 0.698512 0.813275
1 0.698512 0.813275
0.00350958 0.151675 0.134295
0.00355535 0.148928 0.134661
0.127871 0.138262 0.136934
0.414939 0.0938277 0.13135
0.775036 0.0819562 0.164111
0.94612 0.136538 0.293629
0.99498 0.367849 0.580667
1 0.698512 0.813275
1 0.698512 0.813275
0.00350958 0.392081 0.0932326
0.00352483 0.390356 0.0931563
0.00851453 0.385199 0.0928817
0.349889 0.357595 0.112703
0.761135 0.294972 0.156176
0.945815 0.248112 0.297795
0.994995 0.367926 0.579843
1 0.698512 0.813275
1 0.698512 0.813275
0.00396735 0.713939 0.14139
0.0039826 0.713756 0.140932
0.00527962 0.712016 0.141131
0.0890059 0.703059 0.146624
0.660868 0.671443 0.194339
0.928115 0.60528 0.30309
0.99263 0.584588 0.580468
1 0.698512 0.813275
1 0.698512 0.813275
0.0115053 0.887968 0.369696
0.0115053 0.887968 0.369696
0.0146487 0.887602 0.369467
0.0394751 0.886107 0.369619
0.392981 0.87982 0.385748
0.854582 0.861555 0.458671
0.981079 0.827283 0.612543
1 0.818998 0.80795
1 0.700252 0.813275
0.0772717 0.960204 0.704799
0.0772717 0.960204 0.704799
0.0772717 0.960204 0.704799
0.102617 0.959945 0.704601
0.276982 0.958907 0.704723
0.729625 0.955352 0.715053
0.942946 0.946426 0.757824
0.996353 0.93193 0.829618
0.998108 0.914824 0.820691
0.398764 0.986374 0.872663
0.398764 0.986374 0.872663
0.398764 0.986374 0.872663
0.398764 0.986374 0.872663
0.485893 0.986206 0.872496
0.70341 0.98555 0.872419
0.897658 0.983627 0.878798
0.980041 0.979812 0.90045
0.980194 0.979583 0.899763
0.398764 0.986374 0.872663
0.398764 0.986374 0.872663
0.398764 0.986374 0.872663
0.398764 0.986374 0.872663
0.398764 0.986374 0.872663
0.629572 0.98584 0.872389
0.886137 0.983871 0.877653
0.979171 0.979904 0.900008
0.980041 0.979812 0.90045
0.0154726 0.0120241 0.329686
0.0162509 0.0119631 0.329488
0.131807 0.010132 0.331655
0.416678 0.0126192 0.33463
0.772015 0.0533761 0.335042
0.944961 0.134966 0.407279
0.994568 0.36466 0.618769
1 0.698161 0.814343
1 0.698512 0.813275
0.0154269 0.0119173 0.328344
0.0160067 0.011841 0.327871
0.130556 0.0100557 0.330297
0.416037 0.0125429 0.333013
0.771862 0.0533761 0.333776
0.944961 0.134966 0.406363
0.994568 0.364675 0.618372
1 0.698177 0.814282
1 0.698512 0.813275
0.00570687 0.0973373 0.334051
0.00588998 0.0935683 0.333639
0.0886091 0.0830549 0.334325
0.405982 0.0562142 0.335622
0.771237 0.0672465 0.334401
0.9449 0.13489 0.405203
0.994568 0.364706 0.617929
1 0.698207 0.814206
1 0.698512 0.813275
0.00350958 0.367132 0.337179
0.00350958 0.365698 0.337026
0.00511177 0.360601 0.338369
0.338613 0.339574 0.339223
0.75375 0.27715 0.335012
0.943587 0.235645 0.40734
0.994583 0.364767 0.616663
1 0.698299 0.813931
1 0.698512 0.813275
0.00389105 0.703807 0.317678
0.00389105 0.703456 0.317372
0.004654 0.701686 0.316991
0.0804608 0.694179 0.316335
0.655512 0.663188 0.346197
0.924559 0.598016 0.40766
0.992096 0.577691 0.616098
1 0.698512 0.813275
1 0.698512 0.813275
0.0115358 0.885786 0.445243
0.0115358 0.885801 0.445045
0.01355 0.885496 0.444678
0.0379644 0.883955 0.443976
0.387442 0.878004 0.451957
0.85359 0.859937 0.51136
0.980728 0.826001 0.628733
1 0.818219 0.807919
1 0.698817 0.813275
0.0771191 0.960143 0.704433
0.0770275 0.960113 0.704234
0.0770275 0.960113 0.704234
0.100298 0.959899 0.704219
0.272877 0.958816 0.704143
0.728588 0.955245 0.714488
0.942885 0.946349 0.757534
0.996368 0.931792 0.829526
0.998138 0.914595 0.820584
0.398764 0.986374 0.872663
0.398764 0.986374 0.872663
0.398764 0.986374 0.872663
0.398764 0.986374 0.872663
0.483986 0.986206 0.872511
0.702754 0.98555 0.872419
0.897566 0.983642 0.878798
0.980041 0.979812 0.90045
0.980209 0.979553 0.899702
0.398764 0.986374 0.872663
0.398764 0.986374 0.872663
0.398764 0.986374 0.872663
0.398764 0.986374 0.872663
0.398764 0.986374 0.872663
0.628412 0.98584 0.872389
0.885939 0.983871 0.877638
0.979126 0.979904 0.899992
0.980041 0.979812 0.90045
0.0230411 0.0737926 0.65127
0.0230411 0.0737926 0.65127
0.0421302 0.0711528 0.65098
0.348272 0.0562753 0.651057
0.742916 0.0581521 0.649622
0.937819 0.138537 0.64538
0.993042 0.361837 0.712657
1 0.692882 0.832319
1 0.69752 0.816541
0.0230259 0.0736095 0.650904
0.0230259 0.073518 0.650721
0.0415808 0.0710307 0.650599
0.347295 0.0562295 0.650874
0.742763 0.0579843 0.649256
0.937835 0.138521 0.644877
0.993042 0.361837 0.712505
1 0.692897 0.832258
1 0.697536 0.81648
0.0230106 0.0733349 0.650339
0.0230106 0.0732433 0.650156
0.0409705 0.0708324 0.65005
0.346426 0.0558938 0.650126
0.742657 0.0578012 0.648676
0.937789 0.13843 0.644343
0.993042 0.361837 0.712261
1 0.692927 0.832181
1 0.697551 0.816403
0.00674449 0.308904 0.649989
0.00679026 0.307454 0.649989
0.0107424 0.303532 0.649683
0.269657 0.279973 0.647272
0.723507 0.234913 0.645777
0.935485 0.200626 0.643244
0.993042 0.361578 0.711391
1 0.693004 0.831983
1 0.697597 0.816236
0.00375372 0.676783 0.64332
0.00375372 0.676448 0.643366
0.00383001 0.675471 0.643229
0.0595712 0.66685 0.641993
0.638697 0.641047 0.640879
0.91368 0.57641 0.637858
0.990326 0.559731 0.709255
1 0.693278 0.831296
1 0.69778 0.815595
0.0114748 0.87895 0.636301
0.0114748 0.87895 0.636164
0.0114443 0.878874 0.635981
0.0313726 0.877302 0.635035
0.374884 0.871733 0.633799
0.849592 0.8542 0.661067
0.978454 0.821286 0.711116
0.999985 0.814313 0.827436
1 0.698512 0.813275
0.079469 0.958938 0.748638
0.0793774 0.958892 0.748501
0.0793774 0.958907 0.74847
0.0961166 0.958694 0.748257
0.266865 0.95761 0.747539
0.725521 0.954192 0.752407
0.942473 0.945357 0.784649
0.996216 0.931182 0.837369
0.998199 0.91397 0.820294
0.398764 0.986374 0.872663
0.398764 0.986374 0.872663
0.398764 0.986374 0.872663
0.398764 0.986374 0.872663
0.477501 0.986221 0.872526
0.700496 0.985565 0.872419
0.897108 0.983642 0.878737
0.980041 0.979812 0.90045
0.980255 0.979507 0.899519
0.398764 0.986374 0.872663
0.398764 0.986374 0.872663
0.398764 0.986374 0.872663
0.398764 0.986374 0.872663
0.398764 0.986374 0.872663
0.624491 0.985855 0.872389
0.885435 0.983886 0.877592
0.979095 0.979919 0.899977
0.980041 0.979812 0.90045
0.0469062 0.297108 0.859968
0.0468757 0.296895 0.859876
0.0468757 0.296895 0.859876
0.128161 0.287175 0.859236
0.655619 0.255146 0.857435
0.905562 0.259007 0.853788
0.987686 0.402457 0.848219
1 0.68954 0.878874
1 0.689647 0.868788
0.0468757 0.296895 0.859876
0.0468757 0.296895 0.859876
0.0468757 0.296895 0.859876
0.127382 0.287007 0.859144
0.655482 0.254734 0.857237
0.905562 0.259007 0.853788
0.987686 0.402365 0.848127
1 0.68954 0.878874
1 0.689647 0.868757
0.0468452 0.296681 0.85977
0.0468452 0.296681 0.85977
0.0468452 0.296681 0.85977
0.126421 0.28687 0.859052
0.655085 0.254551 0.85713
0.905577 0.258808 0.853681
0.987671 0.402121 0.848035
1 0.68954 0.878828
1 0.689647 0.868727
0.0467384 0.29604 0.859464
0.0467384 0.29604 0.859464
0.0467384 0.29604 0.859464
0.123507 0.286442 0.858763
0.654307 0.254185 0.856931
0.905562 0.258244 0.853361
0.987686 0.401968 0.847868
1 0.68954 0.878721
1 0.689647 0.868574
0.0192111 0.622248 0.853422
0.0192264 0.621775 0.853437
0.0192264 0.621241 0.853346
0.0443275 0.615183 0.852918
0.564782 0.585199 0.84979
0.889586 0.543313 0.847608
0.985519 0.521385 0.845853
1 0.68954 0.878386
1 0.689662 0.868147
0.0139925 0.86273 0.843976
0.0139925 0.862623 0.843976
0.0139925 0.862531 0.843976
0.0207218 0.861738 0.843702
0.33753 0.855467 0.841856
0.838056 0.840482 0.840146
0.972427 0.809689 0.84033
0.999924 0.804593 0.874922
1 0.689677 0.866758
0.0894942 0.955169 0.84419
0.0893873 0.955139 0.844175
0.0893873 0.955139 0.844175
0.0893721 0.955139 0.844099
0.250507 0.954009 0.843275
0.720195 0.950759 0.842298
0.940536 0.942351 0.855619
0.995132 0.929046 0.876768
0.997269 0.91046 0.864088
0.413764 0.985779 0.895293
0.413764 0.985779 0.895293
0.413764 0.985779 0.895293
0.413748 0.985779 0.895277
0.473091 0.985641 0.895171
0.697688 0.98497 0.89485
0.895628 0.983169 0.897963
0.979828 0.979492 0.912261
0.980224 0.979095 0.907423
0.398764 0.986374 0.872663
0.398764 0.986374 0.872663
0.398764 0.986374 0.872663
0.398764 0.986374 0.872663
0.398764 0.986374 0.872663
0.612558 0.985901 0.872404
0.883604 0.983917 0.877455
0.978943 0.979934 0.899886
0.980041 0.979812 0.90045
0.149065 0.632105 0.950225
0.149065 0.632105 0.950225
0.149065 0.632105 0.950225
0.149065 0.632105 0.950225
0.383276 0.621317 0.949569
0.851575 0.595468 0.947646
0.969451 0.613733 0.945129
0.999466 0.726406 0.941695
0.999527 0.722179 0.938964
0.149065 0.632105 0.950225
0.149065 0.632105 0.950225
0.149065 0.632105 0.950225
0.149065 0.632105 0.950225
0.382818 0.621332 0.949569
0.851469 0.595483 0.947646
0.969451 0.613733 0.945129
0.999466 0.72636 0.941665
0.999527 0.722118 0.938933
0.149065 0.632105 0.950225
0.149065 0.632105 0.950225
0.149065 0.632105 0.950225
0.148898 0.631891 0.950195
0.382345 0.621363 0.949569
0.851469 0.595483 0.947646
0.969467 0.61355 0.945083
0.999466 0.72636 0.941665
0.999527 0.722118 0.938933
0.148898 0.631891 0.950195
0.148898 0.631891 0.950195
0.148898 0.631891 0.950195
0.148898 0.631891 0.950195
0.38085 0.621195 0.949538
0.851377 0.595254 0.947616
0.969467 0.61355 0.945083
0.999466 0.726299 0.941619
0.999527 0.722057 0.938888
0.148409 0.631266 0.950088
0.148409 0.631266 0.950088
0.148409 0.631266 0.950088
0.148409 0.631266 0.950088
0.375143 0.620783 0.949432
0.85095 0.594827 0.94754
0.969467 0.612985 0.944961
0.999466 0.726177 0.941558
0.999542 0.721889 0.938766
0.0930037 0.837003 0.944564
0.0930037 0.837003 0.944564
0.0930037 0.836942 0.944564
0.0930037 0.836637 0.944579
0.226551 0.832853 0.944121
0.801892 0.816785 0.941939
0.960449 0.798154 0.940566
0.998825 0.791226 0.940093
0.999557 0.72137 0.938384
0.141497 0.947494 0.938949
0.141405 0.947463 0.938964
0.141405 0.947463 0.938964
0.141299 0.947417 0.938964
0.20679 0.946975 0.938766
0.702327 0.943374 0.937453
0.935943 0.936492 0.936339
0.992462 0.923247 0.935988
0.994614 0.903502 0.933135
0.475441 0.984192 0.938445
0.475441 0.984192 0.938445
0.475441 0.984192 0.938445
0.475441 0.984192 0.938445
0.47538 0.984192 0.938415
0.691707 0.983536 0.937865
0.893156 0.981918 0.937209
0.978668 0.978515 0.94313
0.979782 0.977386 0.940597
0.453117 0.98468 0.92726
0.453117 0.98468 0.92726
0.453117 0.98468 0.92726
0.453117 0.98468 0.92726
0.453071 0.98468 0.92723
0.601236 0.984314 0.926863
0.879408 0.982498 0.926406
0.977707 0.978882 0.934386
0.9794 0.97879 0.932647
0.478004 0.847807 0.984405
0.478004 0.847807 0.984405
0.478004 0.847807 0.984405
0.478004 0.847807 0.984405
0.478004 0.847807 0.984405
0.713909 0.842527 0.983963
0.942092 0.832258 0.982727
0.991684 0.843412 0.981323
0.99263 0.842145 0.98085
0.478004 0.847807 0.984405
0.478004 0.847807 0.984405
0.478004 0.847807 0.984405
0.478004 0.847807 0.984405
0.478004 0.847807 0.984405
0.713787 0.842527 0.983963
0.942092 0.832258 0.982727
0.991684 0.843412 0.981323
0.99263 0.842145 0.98085
0.478004 0.847807 0.984405
0.478004 0.847807 0.984405
0.478004 0.847807 0.984405
0.478004 0.847807 0.984405
0.478004 0.847807 0.984405
0.713664 0.842542 0.983963
0.942031 0.832258 0.982727
0.991684 0.843412 0.981323
0.99263 0.842145 0.98085
0.478004 0.847807 0.984405
0.478004 0.847807 0.984405
0.478004 0.847807 0.984405
0.478004 0.847807 0.984405
0.478004 0.847807 0.984405
0.71342 0.842542 0.983963
0.942031 0.832258 0.982727
0.991669 0.843397 0.981323
0.99263 0.842054 0.980835
0.477699 0.8477 0.98439
0.477699 0.8477 0.98439
0.477699 0.8477 0.98439
0.477699 0.8477 0.98439
0.477699 0.8477 0.98439
0.71223 0.842481 0.983948
0.942 0.832151 0.982712
0.991684 0.84329 0.981308
0.99263 0.842054 0.980835
0.476783 0.847395 0.984344
0.476783 0.847395 0.984344
0.476783 0.847395 0.984344
0.476783 0.847395 0.984344
0.476783 0.847395 0.984344
0.708782 0.842374 0.983932
0.941817 0.831937 0.982681
0.991684 0.842985 0.981247
0.992645 0.841764 0.980789
0.437293 0.936385 0.980865
0.437293 0.936385 0.980865
0.437293 0.936385 0.980865
0.437278 0.936355 0.980865
0.437217 0.936217 0.98088
0.63212 0.93431 0.980575
0.919982 0.926787 0.979339
0.986969 0.919814 0.978668
0.989685 0.900771 0.978912
0.619364 0.981567 0.977691
0.619364 0.981567 0.977691
0.619211 0.981552 0.977691
0.619211 0.981552 0.977691
0.619211 0.981552 0.977691
0.673457 0.981292 0.9776
0.886488 0.979416 0.976837
0.975967 0.976272 0.976272
0.978683 0.974197 0.97586
0.611215 0.982193 0.97554
0.611215 0.982193 0.97554
0.611215 0.982193 0.97554
0.611215 0.982193 0.97554
0.611215 0.982193 0.97554
0.611078 0.982193 0.975525
0.871763 0.980453 0.974685
0.974273 0.977798 0.974243
0.977707 0.9776 0.973907
0.482872 0.849439 0.984649
0.482872 0.849439 0.984649
0.482872 0.849439 0.984649
0.482872 0.849439 0.984649
0.482872 0.849439 0.984649
0.482872 0.849439 0.984649
0.874311 0.837568 0.983551
0.98851 0.843107 0.982116
0.99234 0.846555 0.981659
0.482872 0.849439 0.984649
0.482872 0.849439 0.984649
0.482872 0.849439 0.984649
0.482872 0.849439 0.984649
0.482872 0.849439 0.984649
0.482872 0.849439 0.984649
0.874311 0.837568 0.983551
0.98851 0.843107 0.982116
0.99234 0.846555 0.981659
0.482872 0.849439 0.984649
0.482872 0.849439 0.984649
0.482872 0.849439 0.984649
0.482872 0.849439 0.984649
0.482872 0.849439 0.984649
0.482872 0.849439 0.984649
0.87422 0.837568 0.983551
0.98851 0.843107 0.982116
0.99234 0.846555 0.981659
0.482872 0.849439 0.984649
0.482872 0.849439 0.984649
0.482872 0.849439 0.984649
0.482872 0.849439 0.984649
0.482872 0.849439 0.984649
0.482872 0.849439 0.984649
0.87422 0.837568 0.983551
0.98851 0.843107 0.982116
0.99234 0.846555 0.981659
0.482872 0.849439 0.984649
0.482872 0.849439 0.984649
0.482872 0.849439 0.984649
0.482872 0.849439 0.984649
0.482872 0.849439 0.984649
0.482872 0.849439 0.984649
0.87393 0.837583 0.983551
0.98851 0.843107 0.982116
0.99234 0.846555 0.981659
0.482872 0.849439 0.984649
0.482872 0.849439 0.984649
0.482872 0.849439 0.984649
0.482872 0.849439 0.984649
0.482872 0.849439 0.984649
0.482872 0.849439 0.984649
0.873091 0.837629 0.983566
0.988479 0.843076 0.982132
0.99234 0.846555 0.981659
0.482872 0.849439 0.984649
0.482872 0.849439 0.984649
0.482872 0.849439 0.984649
0.482872 0.849439 0.984649
0.482872 0.849439 0.984649
0.482872 0.849439 0.984649
0.87039 0.837751 0.983581
0.988418 0.843015 0.982132
0.99234 0.846555 0.981659
0.568627 0.974884 0.979065
0.568627 0.974884 0.979065
0.568627 0.974884 0.979065
0.568444 0.974868 0.979065
0.568276 0.974853 0.979065
0.567758 0.974807 0.979065
0.793484 0.973266 0.978531
0.973465 0.968322 0.977539
0.981262 0.964752 0.977569
0.631006 0.981994 0.978882
0.631006 0.981994 0.978882
0.631006 0.981994 0.978882
0.631006 0.981994 0.978882
0.631006 0.981994 0.978882
0.631006 0.981994 0.978882
0.76701 0.981323 0.978592
0.967788 0.978012 0.977569
0.977554 0.977569 0.977569
