Luts/Nikon/N-Log_BT2020_to_REC709_BT1886_VLog.cube
TITLE "Generated by Resolve"
LUT_3D_SIZE 33
0 0 0
0 0 0
0 0 0
4.57771e-05 0 0
0.0478218 0.00280766 0.00282292
0.0784619 0.00352483 0.00363165
0.105837 0.00387579 0.00444038
0.13579 0.00466926 0.00624094
0.173266 0.00636301 0.00994888
0.221164 0.0101472 0.0164492
0.278416 0.0151217 0.0244755
0.346899 0.0210117 0.0334936
0.428382 0.0274662 0.0429847
0.520394 0.0345159 0.0534371
0.613413 0.0424201 0.0655833
0.702342 0.051667 0.0813153
0.77583 0.0622721 0.100938
0.835721 0.0749981 0.125734
0.882856 0.090547 0.158434
0.919402 0.110857 0.202548
0.94641 0.137469 0.258991
0.966598 0.171359 0.327245
0.979858 0.219959 0.405997
0.989502 0.28159 0.49308
0.994995 0.36817 0.580072
0.998993 0.462257 0.656565
0.999756 0.554818 0.719539
1 0.636439 0.772122
1 0.698512 0.813275
1 0.698512 0.813275
1 0.698512 0.813275
1 0.698512 0.813275
1 0.698512 0.813275
0 0 0
0 0 0
0 0 0
4.57771e-05 0 0
0.047364 0.00280766 0.00282292
0.0780957 0.00352483 0.00361639
0.105486 0.00387579 0.00442512
0.135348 0.004654 0.00619516
0.173037 0.00634775 0.00991836
0.220905 0.010132 0.0164187
0.278111 0.0151064 0.0244297
0.346578 0.0209812 0.033463
0.428046 0.0274357 0.0429541
0.520394 0.0345159 0.0534371
0.613413 0.0424201 0.0655833
0.702342 0.051667 0.0813153
0.77583 0.0622721 0.100938
0.835721 0.0749981 0.125734
0.882856 0.090547 0.158434
0.919402 0.110857 0.202548
0.94641 0.137469 0.258991
0.966598 0.171359 0.327245
0.979858 0.219959 0.405997
0.989502 0.28159 0.49308
0.994995 0.36817 0.580072
0.998993 0.462257 0.656565
0.999756 0.554818 0.719539
1 0.636439 0.772122
1 0.698512 0.813275
1 0.698512 0.813275
1 0.698512 0.813275
1 0.698512 0.813275
1 0.698512 0.813275
0 0 0
0 0 0
0 0 0
4.57771e-05 0 0
0.0469062 0.0027924 0.00280766
0.0775616 0.00352483 0.00360113
0.105119 0.00386053 0.00442512
0.135119 0.00463874 0.00616464
0.172824 0.00633249 0.0099031
0.22063 0.0101015 0.0163729
0.277821 0.0150759 0.0243992
0.346258 0.0209659 0.0334173
0.428046 0.0274357 0.0429541
0.520073 0.0345006 0.0534066
0.613123 0.0423896 0.0655375
0.702342 0.051667 0.0813153
0.77583 0.0622721 0.100938
0.835721 0.0749981 0.125734
0.882856 0.090547 0.158434
0.919402 0.110857 0.202548
0.94641 0.137469 0.258991
0.966598 0.171359 0.327245
0.979858 0.219959 0.405997
0.989502 0.28159 0.49308
0.994995 0.36817 0.580072
0.998993 0.462257 0.656565
0.999756 0.554818 0.719539
1 0.636439 0.772122
1 0.698512 0.813275
1 0.698512 0.813275
1 0.698512 0.813275
1 0.698512 0.813275
1 0.698512 0.813275
0.000808728 0.00929274 0.000808728
0.000686656 0.00802625 0.000686656
0.000579843 0.00675975 0.000579843
0.000564584 0.00535592 0.000488289
0.0416114 0.00578317 0.00296025
0.0741588 0.00456245 0.00358587
0.103273 0.00466926 0.00437934
0.134173 0.00560006 0.00605783
0.17229 0.00796521 0.00968948
0.22034 0.0118563 0.0163119
0.277592 0.0165255 0.0243992
0.346273 0.0217441 0.0334325
0.42771 0.0275883 0.0429084
0.520073 0.0345006 0.0534066
0.613123 0.0423896 0.0655375
0.702098 0.0516365 0.0812695
0.77583 0.0622721 0.100938
0.835721 0.0749981 0.125734
0.882856 0.090547 0.158434
0.919402 0.110857 0.202548
0.94641 0.137469 0.258991
0.966598 0.171359 0.327245
0.979858 0.219959 0.405997
0.989502 0.28159 0.49308
0.994995 0.36817 0.580072
0.998993 0.462257 0.656565
0.999756 0.554818 0.719539
1 0.636439 0.772122
1 0.698512 0.813275
1 0.698512 0.813275
1 0.698512 0.813275
1 0.698512 0.813275
1 0.698512 0.813275
0.00292973 0.0458228 0.00292973
0.00289921 0.0449531 0.00289921
0.0028687 0.0439307 0.0028687
0.00306706 0.0421912 0.0028687
0.0273594 0.0368505 0.00326543
0.0671702 0.0292058 0.00352483
0.0990768 0.0250401 0.0041352
0.132082 0.0213016 0.00570687
0.171572 0.0184482 0.00950637
0.220096 0.0190738 0.0162356
0.277745 0.0219577 0.0243687
0.346029 0.0262303 0.0331731
0.427893 0.0315709 0.0427405
0.520363 0.0373693 0.0535897
0.613352 0.0440986 0.0656291
0.70219 0.0521401 0.0814221
0.77583 0.0622721 0.100938
0.835569 0.0749523 0.125673
0.882856 0.090547 0.158434
0.919402 0.110857 0.202548
0.94641 0.137469 0.258991
0.966598 0.171359 0.327245
0.979858 0.219959 0.405997
0.989502 0.28159 0.49308
0.994995 0.36817 0.580072
0.998993 0.462257 0.656565
0.999756 0.554818 0.719539
1 0.636439 0.772122
1 0.698512 0.813275
1 0.698512 0.813275
1 0.698512 0.813275
1 0.698512 0.813275
1 0.698512 0.813275
0.00350958 0.0755627 0.00354009
0.00350958 0.0747082 0.00354009
0.00350958 0.0740368 0.00354009
0.00350958 0.0721141 0.00352483
0.0166629 0.068574 0.00352483
0.0545052 0.064271 0.00354009
0.0921645 0.0583352 0.00411994
0.129305 0.0507057 0.0055848
0.169986 0.0388647 0.00917067
0.219425 0.0320134 0.0157168
0.277455 0.0297093 0.0237125
0.345739 0.0328985 0.0324865
0.42739 0.0376287 0.0422217
0.520134 0.0426337 0.0529793
0.613382 0.0483711 0.0657511
0.702586 0.055314 0.0820783
0.775921 0.0645762 0.101366
0.835584 0.0749981 0.125689
0.882856 0.090547 0.158434
0.919402 0.110857 0.202548
0.94641 0.137469 0.258991
0.966598 0.171359 0.327245
0.979858 0.219959 0.405997
0.989502 0.28159 0.49308
0.994995 0.36817 0.580072
0.998993 0.462257 0.656565
0.999756 0.554818 0.719539
1 0.636439 0.772122
1 0.698512 0.813275
1 0.698512 0.813275
1 0.698512 0.813275
1 0.698512 0.813275
1 0.698512 0.813275
0.00350958 0.101061 0.00360113
0.00350958 0.100542 0.00360113
0.00350958 0.0998703 0.00360113
0.00350958 0.0987869 0.00358587
0.00941482 0.0966659 0.00358587
0.0299077 0.0941329 0.00358587
0.0783856 0.0900282 0.00386053
0.123598 0.0843061 0.00477607
0.166476 0.0748608 0.00730907
0.216922 0.0654765 0.0133516
0.275578 0.0559854 0.0214389
0.344579 0.049546 0.0307622
0.426429 0.0499886 0.0406653
0.519692 0.0516976 0.0517281
0.613458 0.0550546 0.0652476
0.702968 0.0604562 0.0820783
0.776272 0.0693217 0.101793
0.835966 0.078996 0.126574
0.88278 0.0908522 0.158511
0.919402 0.110857 0.202548
0.94641 0.137469 0.258991
0.966598 0.171359 0.327245
0.979858 0.219959 0.405997
0.989502 0.28159 0.49308
0.994995 0.36817 0.580072
0.998993 0.462257 0.656565
0.999756 0.554818 0.719539
1 0.636439 0.772122
1 0.698512 0.813275
1 0.698512 0.813275
1 0.698512 0.813275
1 0.698512 0.813275
1 0.698512 0.813275
0.00350958 0.13106 0.0037232
0.00350958 0.130434 0.0037232
0.00350958 0.12961 0.0037232
0.00350958 0.128817 0.00370794
0.00567636 0.127504 0.00370794
0.0153353 0.125887 0.0037232
0.0584268 0.122789 0.00383001
0.10454 0.118547 0.00436408
0.158343 0.111543 0.00598154
0.212482 0.101762 0.0109102
0.27245 0.0890211 0.0184482
0.342168 0.0758373 0.0280461
0.424353 0.0698253 0.0382849
0.518441 0.0653544 0.049897
0.613123 0.0662242 0.0642863
0.702846 0.0707561 0.0808423
0.776532 0.0769207 0.102113
0.836408 0.08542 0.127062
0.883284 0.0968643 0.159686
0.919448 0.111376 0.20267
0.94641 0.137469 0.258991
0.966598 0.171359 0.327245
0.979858 0.219959 0.405997
0.989502 0.28159 0.49308
0.994995 0.36817 0.580072
0.998993 0.462257 0.656565
0.999756 0.554818 0.719539
1 0.636439 0.772122
1 0.698512 0.813275
1 0.698512 0.813275
1 0.698512 0.813275
1 0.698512 0.813275
1 0.698512 0.813275
0.00350958 0.166705 0.00392157
0.00350958 0.165972 0.00390631
0.00350958 0.165484 0.00390631
0.00350958 0.164721 0.00390631
0.00401312 0.163668 0.00390631
0.00660716 0.162432 0.00395209
0.0327306 0.160098 0.0039826
0.071458 0.157183 0.00421149
0.144396 0.152377 0.00502022
0.205402 0.144747 0.00813306
0.26717 0.135103 0.0140993
0.337743 0.123461 0.0232242
0.420325 0.110842 0.0341802
0.515343 0.099321 0.0472114
0.61149 0.0925612 0.0619669
0.702464 0.0903029 0.0795148
0.776501 0.0909285 0.101595
0.836789 0.0961776 0.127947
0.883741 0.106584 0.161135
0.919875 0.120211 0.203876
0.946441 0.138201 0.259098
0.966598 0.171359 0.327245
0.979858 0.219959 0.405997
0.989502 0.28159 0.49308
0.994995 0.36817 0.580072
0.998993 0.462257 0.656565
0.999756 0.554818 0.719539
1 0.636439 0.772122
1 0.698512 0.813275
1 0.698512 0.813275
1 0.698512 0.813275
1 0.698512 0.813275
1 0.698512 0.813275
0.00350958 0.211704 0.00425727
0.00350958 0.211231 0.00424201
0.00350958 0.210742 0.00424201
0.00350958 0.210269 0.00422675
0.00363165 0.209384 0.00421149
0.00437934 0.20827 0.00422675
0.0210575 0.206485 0.00424201
0.0493629 0.204242 0.00434882
0.110796 0.200229 0.00476081
0.182376 0.193988 0.00686656
0.255695 0.185763 0.0111543
0.32903 0.17528 0.0187228
0.412909 0.163195 0.0298466
0.510109 0.14963 0.0430457
0.608316 0.1364 0.0586099
0.700893 0.124956 0.0776074
0.77612 0.117052 0.0998093
0.836774 0.11577 0.127749
0.884077 0.123491 0.161883
0.920317 0.133593 0.20557
0.946899 0.150042 0.261418
0.966583 0.172259 0.327245
0.979858 0.219959 0.405997
0.989502 0.28159 0.49308
0.994995 0.36817 0.580072
0.998993 0.462257 0.656565
0.999756 0.554818 0.719539
1 0.636439 0.772122
1 0.698512 0.813275
1 0.698512 0.813275
1 0.698512 0.813275
1 0.698512 0.813275
1 0.698512 0.813275
0.00350958 0.265476 0.00527962
0.00350958 0.264942 0.00527962
0.00350958 0.264668 0.00526436
0.00350958 0.264149 0.0052491
0.00352483 0.263539 0.00523384
0.00364691 0.262776 0.00520333
0.00973526 0.261082 0.00521859
0.0258488 0.259037 0.00527962
0.0746929 0.255665 0.00540169
0.149172 0.250538 0.0061799
0.2327 0.243503 0.00833143
0.315007 0.233738 0.0137026
0.401556 0.222568 0.0246738
0.500664 0.209735 0.0385595
0.602472 0.195407 0.0548562
0.697658 0.17879 0.0744335
0.77438 0.164034 0.0977035
0.836164 0.153948 0.126375
0.883864 0.152483 0.160693
0.92047 0.158297 0.207599
0.947112 0.170214 0.263416
0.966857 0.190677 0.329915
0.979858 0.221317 0.406256
0.989502 0.28159 0.49308
0.994995 0.36817 0.580072
0.998993 0.462257 0.656565
0.999756 0.554818 0.719539
1 0.636439 0.772122
1 0.698512 0.813275
1 0.698512 0.813275
1 0.698512 0.813275
1 0.698512 0.813275
1 0.698512 0.813275
0.00350958 0.329122 0.00738537
0.00350958 0.328832 0.00737011
0.00350958 0.328542 0.00735485
0.00350958 0.327947 0.00737011
0.00352483 0.32755 0.00741588
0.00361639 0.326574 0.0074464
0.00418097 0.325292 0.00750744
0.00950637 0.323354 0.00758373
0.0351873 0.320378 0.0077821
0.102373 0.315938 0.00798047
0.193301 0.30927 0.00856031
0.289738 0.300999 0.0112306
0.383963 0.289586 0.0194858
0.486107 0.276768 0.0334783
0.592447 0.262486 0.0511025
0.6916 0.246921 0.0708629
0.770382 0.230472 0.095491
0.833936 0.214771 0.124331
0.882902 0.203265 0.160754
0.920058 0.199557 0.20824
0.947051 0.203891 0.264775
0.966903 0.220127 0.332219
0.979934 0.246693 0.409079
0.989487 0.282841 0.493095
0.994995 0.36817 0.580072
0.998993 0.462257 0.656565
0.999756 0.554818 0.719539
1 0.636439 0.772122
1 0.698512 0.813275
1 0.698512 0.813275
1 0.698512 0.813275
1 0.698512 0.813275
1 0.698512 0.813275
0.00350958 0.404425 0.0114443
0.00350958 0.40412 0.011429
0.00350958 0.4038 0.0114137
0.00350958 0.403174 0.0114137
0.00357061 0.40267 0.0114595
0.00366217 0.401984 0.0115053
0.00384527 0.400977 0.0114748
0.00483711 0.399619 0.0115053
0.0103914 0.396612 0.011841
0.0510567 0.392248 0.0124819
0.131792 0.386374 0.0133669
0.245457 0.378943 0.0148318
0.354513 0.368475 0.0187991
0.463508 0.354879 0.0290837
0.57644 0.339513 0.0468147
0.681132 0.322332 0.0697337
0.763149 0.305379 0.0941176
0.829541 0.289082 0.123278
0.8804 0.273457 0.160815
0.918532 0.263035 0.207401
0.946303 0.258518 0.266194
0.966567 0.266163 0.333455
0.979797 0.286595 0.411673
0.989395 0.31931 0.496269
0.994995 0.369955 0.580224
0.998993 0.462257 0.656565
0.999756 0.554818 0.719539
1 0.636439 0.772122
1 0.698512 0.813275
1 0.698512 0.813275
1 0.698512 0.813275
1 0.698512 0.813275
1 0.698512 0.813275
0.00354009 0.48835 0.0200809
0.00354009 0.488045 0.0200504
0.00354009 0.487755 0.0200046
0.00354009 0.487434 0.0199741
0.00363165 0.486549 0.0200351
0.0037232 0.486122 0.0200198
0.00387579 0.485313 0.0199741
0.00421149 0.484291 0.0199741
0.00636301 0.481956 0.0201572
0.0219883 0.478233 0.0209659
0.0722362 0.473014 0.0222477
0.17847 0.466148 0.0238193
0.306691 0.456962 0.0261845
0.428824 0.444877 0.0324712
0.551568 0.429267 0.0466926
0.662974 0.411475 0.0676127
0.7514 0.392828 0.0940414
0.821591 0.37351 0.125017
0.875242 0.355123 0.160494
0.915618 0.34081 0.208499
0.944503 0.331456 0.267018
0.965499 0.330404 0.335088
0.979232 0.342306 0.413031
0.989075 0.366415 0.498573
0.994812 0.409537 0.582391
0.998978 0.463661 0.656458
0.999756 0.554818 0.719539
1 0.636439 0.772122
1 0.698512 0.813275
1 0.698512 0.813275
1 0.698512 0.813275
1 0.698512 0.813275
1 0.698512 0.813275
0.00364691 0.575097 0.0341497
0.00364691 0.574823 0.0341039
0.00364691 0.574548 0.0340581
0.00364691 0.574533 0.0340734
0.00369268 0.573922 0.0343786
0.00376898 0.573266 0.0346838
0.00395209 0.572488 0.0348974
0.00424201 0.571588 0.03505
0.00563058 0.570123 0.0352941
0.0116274 0.5673 0.0362402
0.0395209 0.56318 0.0381476
0.117281 0.557427 0.0409857
0.238849 0.549752 0.0444953
0.376013 0.540078 0.0492409
0.511727 0.526864 0.0588083
0.634897 0.509926 0.0744335
0.732403 0.490532 0.0972305
0.809033 0.470481 0.128557
0.867033 0.450034 0.1664
0.910109 0.431662 0.212818
0.941161 0.416312 0.268467
0.963485 0.408896 0.336751
0.978027 0.412238 0.413733
0.988357 0.426932 0.498894
0.9944 0.457969 0.583398
0.998734 0.504219 0.657679
0.999756 0.5561 0.71957
1 0.636439 0.772122
1 0.698512 0.813275
1 0.698512 0.813275
1 0.698512 0.813275
1 0.698512 0.813275
1 0.698512 0.813275
0.00376898 0.652018 0.0539864
0.00376898 0.65182 0.0538949
0.00376898 0.651637 0.0538186
0.00376898 0.651453 0.0537423
0.00384527 0.651041 0.0538949
0.00396735 0.650706 0.054139
0.00411994 0.650156 0.0542306
0.00433356 0.649531 0.0542916
0.00537118 0.648539 0.0544747
0.00885023 0.647013 0.0548867
0.0198825 0.644404 0.0560006
0.0576333 0.640269 0.058732
0.168307 0.634852 0.0626688
0.305959 0.627619 0.0707713
0.450965 0.618845 0.0825208
0.591791 0.606867 0.0981155
0.703853 0.590326 0.118059
0.790173 0.571878 0.142992
0.854459 0.552285 0.175113
0.901839 0.532647 0.220356
0.935866 0.514611 0.274998
0.960082 0.50164 0.338827
0.975906 0.496941 0.415167
0.987106 0.501076 0.497704
0.993683 0.519585 0.581933
0.998337 0.550942 0.657801
0.999649 0.591653 0.719844
1 0.637598 0.772122
1 0.698512 0.813275
1 0.698512 0.813275
1 0.698512 0.813275
1 0.698512 0.813275
1 0.698512 0.813275
0.00401312 0.718486 0.0872511
0.00401312 0.718486 0.0872511
0.00401312 0.718303 0.0871443
0.00401312 0.718303 0.0871443
0.00408942 0.717998 0.0870985
0.00424201 0.717769 0.0872206
0.00440986 0.717342 0.0872511
0.00480659 0.71696 0.0873274
0.00555428 0.716243 0.0874647
0.0078584 0.715297 0.0878309
0.0146029 0.713664 0.0888533
0.0345617 0.710903 0.0921035
0.0974746 0.706966 0.0986801
0.228702 0.701473 0.106645
0.378683 0.69482 0.11751
0.530694 0.686625 0.13193
0.66215 0.675303 0.148882
0.761563 0.660227 0.171908
0.837156 0.643778 0.201175
0.890333 0.62623 0.239536
0.928481 0.609186 0.287297
0.955245 0.594903 0.346654
0.9729 0.584833 0.41796
0.985245 0.580575 0.499809
0.992599 0.587777 0.580697
0.997742 0.604547 0.65684
0.999542 0.630701 0.718959
1 0.666453 0.772076
1 0.699351 0.813275
1 0.698512 0.813275
1 0.698512 0.813275
1 0.698512 0.813275
1 0.698512 0.813275
0.00444038 0.773938 0.142794
0.00442512 0.7738 0.142611
0.00442512 0.7738 0.142611
0.00442512 0.7738 0.142611
0.00448615 0.773587 0.142489
0.0047303 0.773419 0.142397
0.0049897 0.773266 0.14229
0.00538643 0.772839 0.142184
0.00636301 0.772442 0.142138
0.0083772 0.771771 0.141848
0.0126955 0.770855 0.141711
0.0244144 0.769406 0.141634
0.0564736 0.766659 0.145876
0.144732 0.763149 0.154971
0.298421 0.758099 0.165347
0.458701 0.752087 0.179019
0.609277 0.744732 0.196979
0.723552 0.734829 0.217868
0.810651 0.721965 0.239368
0.873335 0.707195 0.269886
0.917601 0.692439 0.310033
0.948348 0.677729 0.362112
0.968582 0.665354 0.427558
0.982574 0.65687 0.503456
0.990967 0.655863 0.582452
0.996811 0.662242 0.654902
0.99942 0.676722 0.71725
1 0.699229 0.771328
1 0.724758 0.812802
1 0.69958 0.813275
1 0.698512 0.813275
1 0.698512 0.813275
1 0.698512 0.813275
0.00538643 0.820005 0.211185
0.00538643 0.820005 0.211185
0.00538643 0.819883 0.210971
0.00538643 0.819883 0.210971
0.00538643 0.819883 0.210971
0.00575265 0.81973 0.210971
0.00611887 0.819471 0.210803
0.00669871 0.819287 0.210925
0.00779736 0.819043 0.211048
0.00979629 0.818509 0.210864
0.0135958 0.817884 0.210864
0.0226444 0.816953 0.210895
0.0417487 0.815778 0.211261
0.101808 0.813275 0.216953
0.224384 0.809812 0.226093
0.38146 0.805554 0.237507
0.541833 0.800153 0.251835
0.674693 0.793729 0.270558
0.775906 0.785199 0.291142
0.849134 0.773648 0.313817
0.902998 0.761288 0.34522
0.938949 0.74844 0.388632
0.962615 0.736355 0.445212
0.978836 0.726375 0.512779
0.988678 0.720394 0.585611
0.995438 0.719326 0.655558
0.998962 0.725124 0.715328
0.999969 0.737285 0.769543
1 0.752575 0.81146
1 0.732357 0.812482
1 0.699977 0.813275
1 0.698512 0.813275
1 0.698512 0.813275
0.00741588 0.857527 0.288121
0.00741588 0.857527 0.288121
0.00741588 0.857527 0.288121
0.00741588 0.857527 0.288121
0.00741588 0.857527 0.288121
0.00764477 0.857374 0.287907
0.00814832 0.857252 0.287922
0.00881972 0.857099 0.287984
0.0102693 0.856931 0.28806
0.0124971 0.856596 0.287968
0.0166934 0.856168 0.28809
0.0241703 0.855543 0.288167
0.0415351 0.854047 0.292302
0.0740826 0.852903 0.292317
0.163088 0.851286 0.294514
0.306996 0.848341 0.303899
0.468574 0.844495 0.315373
0.617502 0.839887 0.330419
0.735805 0.834501 0.34963
0.818387 0.827085 0.371695
0.880796 0.817533 0.395621
0.925216 0.806867 0.429603
0.954162 0.796323 0.475532
0.973617 0.785977 0.53254
0.985473 0.778241 0.595087
0.993545 0.773098 0.658534
0.997925 0.77258 0.716579
0.999832 0.777417 0.767712
1 0.785046 0.809705
1 0.768978 0.810758
1 0.741436 0.81207
1 0.700435 0.813275
1 0.698512 0.813275
0.0115969 0.888334 0.370947
0.0115969 0.888334 0.370947
0.0115969 0.888334 0.370947
0.0115969 0.888334 0.370947
0.0115969 0.888334 0.370947
0.0115663 0.888258 0.370687
0.0122683 0.888197 0.370687
0.01355 0.888075 0.370687
0.0152743 0.887922 0.370703
0.0174716 0.887739 0.370794
0.0216373 0.887419 0.370672
0.02916 0.887022 0.370809
0.0406958 0.886442 0.370886
0.0680858 0.885664 0.371145
0.121294 0.884489 0.372045
0.23978 0.882612 0.377569
0.396399 0.880156 0.387167
0.555016 0.876783 0.399649
0.688807 0.872755 0.415427
0.783856 0.868177 0.436606
0.854536 0.862013 0.459693
0.90692 0.853834 0.48455
0.942885 0.844877 0.518532
0.966537 0.83592 0.56199
0.981048 0.827848 0.612985
0.99086 0.821332 0.667063
0.996414 0.817624 0.719127
0.999527 0.816861 0.768246
0.999985 0.81944 0.807965
1 0.807065 0.807919
1 0.787213 0.809491
1 0.755917 0.811261
1 0.701076 0.813275
0.0194247 0.912734 0.460929
0.0194247 0.912734 0.460929
0.0194247 0.912734 0.460929
0.0194247 0.912734 0.460929
0.0194247 0.912734 0.460929
0.0194247 0.912734 0.460929
0.0194247 0.912734 0.460929
0.0203555 0.912688 0.460929
0.0222934 0.912566 0.460899
0.0251469 0.912367 0.460609
0.0292515 0.912184 0.460639
0.0359503 0.91194 0.460761
0.0479896 0.911513 0.460594
0.0675517 0.910979 0.460594
0.109163 0.910307 0.460914
0.197391 0.909285 0.462211
0.332601 0.907683 0.467796
0.490501 0.905409 0.477668
0.636561 0.902602 0.490028
0.744121 0.899351 0.506218
0.825437 0.89543 0.52636
0.883833 0.890349 0.548608
0.926253 0.883726 0.571283
0.956573 0.876417 0.601892
0.974929 0.869383 0.639796
0.987167 0.86244 0.68246
0.994217 0.857206 0.727062
0.998596 0.853986 0.770916
0.999939 0.852766 0.809247
0.999954 0.844297 0.808759
0.999985 0.830381 0.808331
1 0.809201 0.807782
1 0.772244 0.81059
0.0307774 0.932738 0.554757
0.0307774 0.932738 0.554757
0.0307774 0.932738 0.554757
0.0307774 0.932738 0.554757
0.0307774 0.932738 0.554757
0.0307774 0.932738 0.554757
0.0307774 0.932738 0.554757
0.0307774 0.932738 0.554757
0.0325475 0.932708 0.554772
0.036408 0.93254 0.554543
0.0413214 0.932403 0.554574
0.0476081 0.932219 0.554604
0.0572519 0.931945 0.55433
0.0783093 0.931624 0.554299
0.10808 0.931121 0.554116
0.189563 0.929747 0.561913
0.30164 0.929046 0.560845
0.43444 0.928222 0.560159
0.583246 0.926329 0.568673
0.701991 0.923888 0.579461
0.794018 0.921035 0.593362
0.860502 0.917662 0.610636
0.907881 0.913314 0.630045
0.943023 0.907744 0.649302
0.966567 0.901656 0.675547
0.982101 0.895781 0.706432
0.991089 0.890684 0.740948
0.996826 0.88658 0.777905
0.999496 0.883726 0.811475
0.999588 0.877852 0.810834
0.999786 0.868742 0.810254
0.999939 0.85536 0.809415
0.999969 0.832883 0.808408
0.0505379 0.947875 0.633951
0.0505379 0.947875 0.633951
0.0505379 0.947875 0.633951
0.0505379 0.947875 0.633951
0.0505379 0.947875 0.633951
0.0505379 0.947875 0.633951
0.0505379 0.947875 0.633951
0.0505379 0.947875 0.633951
0.0504768 0.947829 0.633753
0.052781 0.947799 0.633707
0.0574807 0.947707 0.633631
0.0655985 0.94757 0.633616
0.0760662 0.947402 0.633646
0.0927749 0.947158 0.633539
0.124804 0.946868 0.633585
0.179706 0.946349 0.634485
0.277913 0.945418 0.638743
0.403906 0.944793 0.637903
0.535637 0.943847 0.63975
0.664103 0.942306 0.647959
0.762234 0.940291 0.657847
0.834653 0.937957 0.669963
0.888319 0.935317 0.684321
0.927184 0.93196 0.699413
0.955184 0.92755 0.714916
0.975204 0.922698 0.73608
0.986847 0.918105 0.762051
0.994308 0.913573 0.790066
0.99852 0.909789 0.818601
0.998779 0.906142 0.817182
0.999176 0.900923 0.815152
0.999451 0.893065 0.813062
0.999527 0.880674 0.811017
0.077348 0.96025 0.704997
0.077348 0.96025 0.704997
0.077348 0.96025 0.704997
0.077348 0.96025 0.704997
0.077348 0.96025 0.704997
0.077348 0.96025 0.704997
0.077348 0.96025 0.704997
0.077348 0.96025 0.704997
0.077348 0.96025 0.704997
0.077348 0.96025 0.704997
0.0818799 0.960204 0.704997
0.090898 0.960128 0.704997
0.10396 0.959976 0.704799
0.121065 0.959808 0.704829
0.145937 0.959625 0.704952
0.196719 0.959319 0.704875
0.279408 0.958923 0.704921
0.383154 0.958465 0.704952
0.509422 0.957794 0.705653
0.628031 0.956771 0.709224
0.730312 0.955383 0.715267
0.808865 0.953735 0.722911
0.868025 0.951736 0.732616
0.911757 0.949462 0.74461
0.942946 0.946517 0.758068
0.96556 0.942885 0.770672
0.980987 0.938964 0.787808
0.990692 0.935256 0.808423
0.996338 0.931991 0.829664
0.996612 0.929961 0.828229
0.996994 0.92697 0.826276
0.997436 0.922087 0.824033
0.998108 0.914946 0.820737
0.1234 0.969894 0.761883
0.1234 0.969894 0.761883
0.1234 0.969894 0.761883
0.1234 0.969894 0.761883
0.1234 0.969894 0.761883
0.1234 0.969894 0.761883
0.1234 0.969894 0.761883
0.1234 0.969894 0.761883
0.123232 0.969879 0.761746
0.123232 0.969879 0.761746
0.123232 0.969879 0.761746
0.129015 0.969833 0.7617
0.139971 0.969772 0.761639
0.161669 0.969665 0.761608
0.193286 0.969512 0.761471
0.235294 0.969345 0.761532
0.300984 0.969085 0.761364
0.394781 0.96878 0.761593
0.500618 0.968368 0.761791
0.60763 0.967788 0.762387
0.705257 0.966903 0.765881
0.787335 0.96582 0.771267
0.847532 0.964446 0.778027
0.894835 0.96286 0.786587
0.930053 0.961059 0.79617
0.954955 0.958877 0.806073
0.973068 0.956161 0.815778
0.985748 0.953017 0.829541
0.993317 0.949844 0.845777
0.993576 0.948516 0.844358
0.993957 0.946624 0.842344
0.994476 0.943969 0.839536
0.995224 0.9402 0.835538
0.191226 0.977234 0.810697
0.191226 0.977234 0.810697
0.191226 0.977234 0.810697
0.191226 0.977234 0.810697
0.191226 0.977234 0.810697
0.191226 0.977234 0.810697
0.191226 0.977234 0.810697
0.191226 0.977234 0.810697
0.191226 0.977234 0.810697
0.191226 0.977234 0.810697
0.191226 0.977234 0.810697
0.191226 0.977234 0.810697
0.201648 0.977172 0.810544
0.223911 0.977127 0.810513
0.256123 0.97702 0.810483
0.298482 0.976883 0.810468
0.355901 0.97673 0.810391
0.430259 0.976516 0.810422
0.517739 0.976211 0.810452
0.610498 0.97586 0.810605
0.693385 0.975341 0.811063
0.769039 0.974609 0.813413
0.830243 0.973663 0.817563
0.879957 0.972519 0.822522
0.917601 0.971145 0.829099
0.94522 0.969635 0.837324
0.96524 0.967712 0.845945
0.979355 0.965408 0.853834
0.989425 0.963012 0.863722
0.989746 0.962341 0.862547
0.990204 0.961395 0.860883
0.990814 0.960067 0.858595
0.991333 0.958022 0.855955
0.303853 0.983169 0.84918
0.303853 0.983169 0.84918
0.303853 0.983169 0.84918
0.303853 0.983169 0.84918
0.303853 0.983169 0.84918
0.303853 0.983169 0.84918
0.303853 0.983169 0.84918
0.303853 0.983169 0.84918
0.303853 0.983169 0.84918
