Luts/Nikon/N-Log_BT2020_to_REC709_BT1886_VLog.cube
TITLE "Generated by Resolve"
LUT_3D_SIZE 5
0 0 0
0.173266 0.00636301 0.00994888
0.77583 0.0622721 0.100938
0.994995 0.36817 0.580072
1 0.698512 0.813275
0.00350958 0.166705 0.00392157
0.144396 0.152377 0.00502022
0.776501 0.0909285 0.101595
0.994995 0.36817 0.580072
1 0.698512 0.813275
0.00401312 0.718486 0.0872511
0.00555428 0.716243 0.0874647
0.66215 0.675303 0.148882
0.992599 0.587777 0.580697
1 0.698512 0.813275
0.077348 0.96025 0.704997
0.077348 0.96025 0.704997
0.279408 0.958923 0.704921
0.942946 0.946517 0.758068
0.998108 0.914946 0.820737
0.398764 0.986374 0.872663
0.398764 0.986374 0.872663
0.398764 0.986374 0.872663
0.886244 0.983871 0.877668
0.980041 0.979812 0.90045
0.00436408 0.00407416 0.131228
0.166781 0.00494392 0.132525
0.775036 0.0594949 0.163363
0.99498 0.368032 0.581643
1 0.698512 0.813275
0.00350958 0.151675 0.134295
0.127871 0.138262 0.136934
0.775036 0.0819562 0.164111
0.99498 0.367849 0.580667
1 0.698512 0.813275
0.00396735 0.713939 0.14139
0.00527962 0.712016 0.141131
0.660868 0.671443 0.194339
0.99263 0.584588 0.580468
1 0.698512 0.813275
0.0772717 0.960204 0.704799
0.0772717 0.960204 0.704799
0.276982 0.958907 0.704723
0.942946 0.946426 0.757824
0.998108 0.914824 0.820691
0.398764 0.986374 0.872663
0.398764 0.986374 0.872663
0.398764 0.986374 0.872663
0.886137 0.983871 0.877653
0.980041 0.979812 0.90045
0.0230411 0.0737926 0.65127
0.0421302 0.0711528 0.65098
0.742916 0.0581521 0.649622
0.993042 0.361837 0.712657
1 0.69752 0.816541
0.0230106 0.0733349 0.650339
0.0409705 0.0708324 0.65005
0.742657 0.0578012 0.648676
0.993042 0.361837 0.712261
1 0.697551 0.816403
0.00375372 0.676783 0.64332
0.00383001 0.675471 0.643229
0.638697 0.641047 0.640879
0.990326 0.559731 0.709255
1 0.69778 0.815595
0.079469 0.958938 0.748638
0.0793774 0.958907 0.74847
0.266865 0.95761 0.747539
0.942473 0.945357 0.784649
0.998199 0.91397 0.820294
0.398764 0.986374 0.872663
0.398764 0.986374 0.872663
0.398764 0.986374 0.872663
0.885435 0.983886 0.877592
0.980041 0.979812 0.90045
0.149065 0.632105 0.950225
0.149065 0.632105 0.950225
0.383276 0.621317 0.949569
0.969451 0.613733 0.945129
0.999527 0.722179 0.938964
0.149065 0.632105 0.950225
0.149065 0.632105 0.950225
0.382345 0.621363 0.949569
0.969467 0.61355 0.945083
0.999527 0.722118 0.938933
0.148409 0.631266 0.950088
0.148409 0.631266 0.950088
0.375143 0.620783 0.949432
0.969467 0.612985 0.944961
0.999542 0.721889 0.938766
0.141497 0.947494 0.938949
0.141405 0.947463 0.938964
0.20679 0.946975 0.938766
0.935943 0.936492 0.936339
0.994614 0.903502 0.933135
0.453117 0.98468 0.92726
0.453117 0.98468 0.92726
0.453071 0.98468 0.92723
0.879408 0.982498 0.926406
0.9794 0.97879 0.932647
0.482872 0.849439 0.984649
0.482872 0.849439 0.984649
0.482872 0.849439 0.984649
0.874311 0.837568 0.983551
0.99234 0.846555 0.981659
0.482872 0.849439 0.984649
0.482872 0.849439 0.984649
0.482872 0.849439 0.984649
0.87422 0.837568 0.983551
0.99234 0.846555 0.981659
0.482872 0.849439 0.984649
0.482872 0.849439 0.984649
0.482872 0.849439 0.984649
0.87393 0.837583 0.983551
0.99234 0.846555 0.981659
0.482872 0.849439 0.984649
0.482872 0.849439 0.984649
0.482872 0.849439 0.984649
0.87039 0.837751 0.983581
0.99234 0.846555 0.981659
0.631006 0.981994 0.978882
0.631006 0.981994 0.978882
0.631006 0.981994 0.978882
0.76701 0.981323 0.978592
0.977554 0.977569 0.977569
