Luts/Nikon/RED_FilmBias_Rec2020_N-Log_to_Rec709_BT1886_VLog.cube
TITLE "Generated by Resolve"
#LUMIXPHOTOSTYLE VLOG
LUT_3D_SIZE 9
0 0 0
0.0330358 0.0019379 0.00196841
0.152544 0.00730907 0.0128786
0.357931 0.0286107 0.0520485
0.636774 0.0698405 0.148821
0.853407 0.169604 0.337194
0.957534 0.385962 0.561669
0.993088 0.58584 0.710979
0.999603 0.672923 0.773983
0.00244144 0.035874 0.00248722
0.04094 0.0326848 0.00355535
0.190082 0.0204471 0.0144198
0.394049 0.0378119 0.0522469
0.636591 0.0697948 0.148714
0.853407 0.169604 0.337194
0.957534 0.385962 0.561669
0.993088 0.58584 0.710979
0.999603 0.672923 0.773983
0.00350958 0.161059 0.00653086
0.0112764 0.162249 0.00776684
0.196475 0.158648 0.0180819
0.472114 0.128985 0.0509041
0.70312 0.131212 0.148104
0.856275 0.176333 0.33611
0.957534 0.385962 0.561669
0.993088 0.58584 0.710979
0.999603 0.672923 0.773983
0.00369268 0.376394 0.0607156
0.00410468 0.382666 0.0591135
0.0998703 0.387961 0.0644999
0.439933 0.379202 0.107668
0.746487 0.343481 0.160647
0.892027 0.347478 0.354162
0.960845 0.415442 0.561944
0.993088 0.58584 0.710979
0.999603 0.672923 0.773983
0.00694286 0.627344 0.234379
0.0078584 0.628946 0.233616
0.0300603 0.638315 0.233509
0.300038 0.642573 0.246571
0.681147 0.631022 0.337713
0.895201 0.604227 0.406531
0.968444 0.608225 0.590906
0.996338 0.646052 0.712184
0.999603 0.672923 0.773983
0.0410163 0.797238 0.485222
0.0410163 0.797238 0.485222
0.064332 0.799802 0.486625
0.187472 0.806622 0.49192
0.559503 0.809796 0.507164
0.830442 0.799512 0.595804
0.958511 0.784527 0.640421
0.993362 0.783139 0.738811
0.999481 0.786816 0.7879
0.193881 0.894026 0.68336
0.193881 0.894026 0.68336
0.193881 0.894026 0.68336
0.284718 0.896223 0.685588
0.508415 0.900221 0.691646
0.746365 0.902281 0.706889
0.911772 0.895308 0.767086
0.980621 0.887724 0.784176
0.995804 0.884733 0.811307
0.48246 0.941329 0.797742
0.48246 0.941329 0.797742
0.48246 0.941329 0.797742
0.488869 0.941451 0.797925
0.585 0.943206 0.800641
0.725948 0.946441 0.805402
0.860807 0.946685 0.822995
0.950729 0.941543 0.859602
0.98088 0.939483 0.864012
0.589426 0.956573 0.838483
0.589426 0.956573 0.838483
0.589426 0.956573 0.838483
0.589426 0.956573 0.838483
0.634577 0.957488 0.840116
0.742153 0.95967 0.846784
0.852949 0.961303 0.852552
0.931029 0.958236 0.878172
0.967346 0.957565 0.893324
0.000274662 0.000274662 0.00268559
0.0189364 0.00189212 0.0135042
0.142733 0.00691234 0.0356603
0.348531 0.0273136 0.0786603
0.634348 0.0696574 0.168353
0.853284 0.169497 0.337011
0.957534 0.385962 0.561669
0.993088 0.58584 0.710979
0.999603 0.672923 0.773983
0.00282292 0.0251621 0.0170138
0.0160372 0.0156405 0.0158999
0.163668 0.0178683 0.030518
0.368414 0.0345922 0.0722362
0.634333 0.0695964 0.165515
0.853284 0.169497 0.337011
0.957534 0.385962 0.561669
0.993088 0.58584 0.710979
0.999603 0.672923 0.773983
0.00350958 0.1561 0.0359045
0.00500496 0.160357 0.031693
0.180377 0.15758 0.0380407
0.456916 0.127581 0.0658885
0.696681 0.126177 0.157824
0.853697 0.170535 0.336675
0.957534 0.385962 0.561669
0.993088 0.58584 0.710979
0.999603 0.672923 0.773983
0.00367742 0.373434 0.0740368
0.0039826 0.378424 0.0712902
0.0861067 0.386511 0.0735637
0.434836 0.376806 0.117388
0.745754 0.33872 0.161089
0.891493 0.343221 0.353323
0.960464 0.412421 0.561868
0.993088 0.58584 0.710979
0.999603 0.672923 0.773983
0.00688182 0.626337 0.233249
0.0074464 0.627298 0.232609
0.0283207 0.636805 0.232181
0.297261 0.641382 0.245014
0.680964 0.629847 0.336431
0.895293 0.60296 0.405768
0.968383 0.607263 0.590616
0.996307 0.645258 0.711925
0.999603 0.672923 0.773983
0.0409552 0.79704 0.484855
0.0409247 0.796933 0.484657
0.0628061 0.799374 0.485954
0.18471 0.806271 0.491279
0.558343 0.809613 0.506737
0.830411 0.799313 0.595514
0.958541 0.784329 0.640314
0.993362 0.782925 0.738781
0.999481 0.786587 0.787839
0.193881 0.894026 0.68336
0.193698 0.893965 0.683223
0.193698 0.893965 0.683223
0.283146 0.896132 0.68542
0.507805 0.90016 0.691524
0.746258 0.902235 0.706767
0.911711 0.895247 0.766979
0.980636 0.887663 0.784115
0.995804 0.884672 0.811292
0.48246 0.941329 0.797742
0.48246 0.941329 0.797742
0.48246 0.941329 0.797742
0.488075 0.941405 0.797818
0.584665 0.943191 0.800641
0.725856 0.946441 0.805402
0.860731 0.946685 0.82298
0.950729 0.941543 0.859602
0.98088 0.939483 0.864012
0.589426 0.956573 0.838483
0.589426 0.956573 0.838483
0.589426 0.956573 0.838483
0.589426 0.956573 0.838483
0.634333 0.957473 0.840116
0.742077 0.95967 0.846769
0.852857 0.961303 0.852537
0.930953 0.958236 0.878126
0.967346 0.957565 0.893324
0.00402838 0.0052491 0.0801709
0.00830091 0.00953689 0.0845502
0.146532 0.00686656 0.130373
0.360861 0.0258488 0.175235
0.63595 0.0731518 0.247227
0.851194 0.175708 0.383337
0.957168 0.386603 0.566323
0.993088 0.58584 0.710979
0.999603 0.672923 0.773983
0.00378424 0.0201572 0.0987716
0.0116274 0.0204013 0.101671
0.151217 0.0148013 0.134524
0.362158 0.0272831 0.173159
0.635599 0.0730449 0.24535
0.851194 0.175601 0.382025
0.957198 0.386511 0.56582
0.993088 0.58584 0.710979
0.999603 0.672923 0.773983
0.00352483 0.159731 0.140459
0.00389105 0.160708 0.145876
0.152621 0.161807 0.162264
0.428077 0.136172 0.169802
0.682383 0.133257 0.233799
0.851209 0.175463 0.380392
0.957229 0.386435 0.565332
0.993088 0.58584 0.710979
0.999603 0.672923 0.773983
0.00363165 0.374517 0.173999
0.00381476 0.377813 0.172625
0.0474403 0.395407 0.170855
0.414527 0.384634 0.208759
0.731899 0.344991 0.238575
0.888273 0.34345 0.385718
0.959854 0.409018 0.564172
0.993088 0.58584 0.710979
0.999603 0.672923 0.773983
0.00671397 0.626276 0.278676
0.00686656 0.626368 0.278172
0.0264134 0.636378 0.277821
0.273091 0.644831 0.283299
0.675456 0.631449 0.367132
0.893492 0.602487 0.420005
0.968368 0.606043 0.590433
0.996292 0.644434 0.711772
0.999603 0.672923 0.773983
0.0408484 0.79675 0.484291
0.0408179 0.796643 0.484108
0.0609445 0.798978 0.485451
0.18146 0.80589 0.490608
0.557229 0.809323 0.506172
0.830304 0.799023 0.595056
0.958541 0.784024 0.64004
0.993378 0.78262 0.73872
0.999481 0.786343 0.787793
0.193698 0.893965 0.683223
0.193698 0.893965 0.683223
0.193515 0.893919 0.683085
0.281132 0.896025 0.685252
0.506905 0.900084 0.691386
0.746014 0.902174 0.7066
0.911772 0.895186 0.766903
0.980667 0.887602 0.784054
0.995819 0.884627 0.811261
0.482231 0.941299 0.797665
0.482231 0.941299 0.797665
0.482231 0.941299 0.797665
0.487449 0.94139 0.797803
0.584192 0.943191 0.80061
0.725643 0.94641 0.805325
0.860731 0.946654 0.822919
0.950729 0.941543 0.859602
0.980896 0.939437 0.863951
0.589426 0.956573 0.838483
0.589426 0.956573 0.838483
0.589426 0.956573 0.838483
0.589426 0.956573 0.838483
0.633982 0.957473 0.840101
0.741924 0.959655 0.846769
0.852857 0.961303 0.852537
0.930953 0.958236 0.878126
0.967346 0.957565 0.893324
0.00920119 0.0424964 0.237018
0.00947585 0.0435035 0.237675
0.104112 0.0664378 0.263523
0.380514 0.0399939 0.342107
0.656886 0.0852827 0.400916
0.850355 0.19118 0.487221
0.954421 0.39585 0.608804
0.992386 0.587716 0.719783
0.999603 0.672984 0.774548
0.00910964 0.0419013 0.235935
0.00929274 0.0426184 0.236362
0.103166 0.0655985 0.262074
0.380011 0.0391699 0.340978
0.656718 0.0852064 0.399725
0.850248 0.190906 0.486381
0.954437 0.395712 0.608454
0.992401 0.587686 0.719676
0.999603 0.672984 0.774487
0.00515755 0.150713 0.286427
0.00523384 0.147875 0.285863
0.0883955 0.155154 0.316838
0.39762 0.126375 0.361563
0.669444 0.1187 0.400153
0.850248 0.190738 0.485512
0.954467 0.39556 0.608026
0.992401 0.587655 0.719524
0.999603 0.672969 0.774395
0.00363165 0.375357 0.341955
0.00363165 0.374166 0.341299
0.0269627 0.386389 0.365972
0.388403 0.38587 0.390997
0.710384 0.350805 0.385748
0.878538 0.347967 0.472419
0.955276 0.405356 0.606455
0.992432 0.587549 0.719097
0.999603 0.672938 0.774121
0.00715648 0.625254 0.403784
0.00712596 0.624964 0.403326
0.0202029 0.633356 0.407752
0.235935 0.647608 0.412131
0.658045 0.635462 0.464729
0.884031 0.6047 0.496696
0.96669 0.60473 0.616236
0.995926 0.643137 0.715862
0.999603 0.672923 0.773983
0.0442664 0.796506 0.530694
0.0442206 0.796414 0.530449
0.0581521 0.798047 0.531624
0.174487 0.805081 0.536248
0.541421 0.811048 0.546426
0.826307 0.799893 0.619806
0.957321 0.783597 0.652262
0.99321 0.78204 0.739895
0.999481 0.785657 0.787625
0.193149 0.893797 0.682811
0.193149 0.893797 0.682811
0.192966 0.893736 0.682673
0.275257 0.895781 0.684871
0.504234 0.89987 0.691005
0.745418 0.902007 0.706172
0.911711 0.895003 0.766613
0.980667 0.887419 0.783841
0.995819 0.884459 0.8112
0.482002 0.941268 0.797574
0.482002 0.941268 0.797574
0.482002 0.941268 0.797574
0.484962 0.941329 0.79765
0.582742 0.94313 0.800488
0.725139 0.946365 0.805234
0.860594 0.946624 0.822812
0.950729 0.941482 0.85948
0.980926 0.939391 0.86389
0.589426 0.956573 0.838483
0.589426 0.956573 0.838483
0.589426 0.956573 0.838483
0.589426 0.956573 0.838483
0.632975 0.957458 0.84007
0.741451 0.959655 0.846723
0.852705 0.961303 0.852522
0.930877 0.958236 0.878096
0.967346 0.957565 0.893324
0.0278325 0.191043 0.509789
0.0278325 0.191043 0.509789
0.0517586 0.198383 0.517372
0.277211 0.228611 0.551247
0.651209 0.180713 0.612192
0.851225 0.247898 0.645197
0.949065 0.429175 0.69485
0.989746 0.595712 0.758785
0.999512 0.676951 0.797009
0.0278019 0.190768 0.509422
0.0277714 0.190631 0.509224
0.0512398 0.19794 0.516915
0.276783 0.228321 0.550805
0.651118 0.180331 0.611933
0.851225 0.247715 0.644846
0.949065 0.429114 0.694713
0.989746 0.595682 0.758694
0.999512 0.676936 0.796948
0.0277256 0.190356 0.508827
0.0276951 0.190219 0.508629
0.0506447 0.19733 0.516243
0.276143 0.227878 0.550149
0.650858 0.179812 0.61149
0.851118 0.24741 0.64448
0.949081 0.429038 0.694514
0.989761 0.595651 0.758602
0.999512 0.676921 0.796872
0.0163729 0.36817 0.556039
0.0164797 0.366979 0.555688
0.0302739 0.366064 0.566323
0.287053 0.381384 0.590143
0.65771 0.350896 0.625025
0.85594 0.342168 0.643015
0.949111 0.428748 0.693828
0.989776 0.595514 0.758236
0.999527 0.676875 0.796628
0.00776684 0.623957 0.593515
0.0077821 0.623652 0.593347
0.0153811 0.625162 0.596948
0.204242 0.635157 0.61828
0.634195 0.632929 0.638178
0.865538 0.608392 0.62446
0.960739 0.605859 0.680125
0.992065 0.639323 0.754101
0.999557 0.676738 0.79588
0.0546578 0.794949 0.638376
0.0545815 0.794842 0.638239
0.05449 0.794751 0.638102
0.157488 0.801404 0.645258
0.525216 0.810742 0.653437
0.812512 0.802686 0.689784
0.951049 0.784176 0.703304
0.990707 0.781781 0.76495
0.999603 0.78471 0.799222
0.205692 0.893324 0.720592
0.205676 0.893324 0.720562
0.205661 0.893324 0.720531
0.271855 0.89456 0.72253
0.502785 0.899001 0.728832
0.738872 0.903258 0.73843
0.908843 0.895476 0.785977
0.979446 0.887373 0.795056
0.995468 0.884047 0.817456
0.48368 0.941085 0.802121
0.483665 0.941085 0.802106
0.483665 0.941085 0.802106
0.48365 0.941085 0.802075
0.579751 0.942901 0.804791
0.725155 0.946197 0.810208
0.859754 0.946746 0.825025
0.950591 0.941375 0.860105
0.981003 0.939223 0.863615
0.589426 0.956573 0.838483
0.589426 0.956573 0.838483
0.589426 0.956573 0.838483
0.589426 0.956573 0.838483
0.629816 0.957397 0.839948
0.739986 0.95964 0.846601
0.852201 0.961303 0.852445
0.930724 0.958251 0.878035
0.967346 0.957565 0.893324
0.0902266 0.4262 0.735775
0.0902266 0.4262 0.735775
0.0902266 0.4262 0.735775
0.196628 0.439368 0.741512
0.526101 0.472328 0.767651
0.823377 0.43595 0.795636
0.94052 0.509133 0.808774
0.984405 0.627298 0.827329
0.997971 0.693095 0.844312
0.0902266 0.4262 0.735775
0.0902266 0.4262 0.735775
0.090135 0.426001 0.735653
0.195956 0.439277 0.741497
0.525917 0.472297 0.767636
0.823438 0.435676 0.795575
0.940536 0.509056 0.808682
0.984405 0.627298 0.827329
0.997986 0.69308 0.844282
0.090135 0.426001 0.735653
0.090135 0.426001 0.735653
0.0900435 0.425818 0.735515
0.195056 0.438987 0.741344
0.52575 0.472114 0.767529
0.823484 0.435401 0.795514
0.940475 0.508934 0.808682
0.984405 0.627268 0.827268
0.997986 0.693049 0.844236
0.0898451 0.425422 0.735256
0.0898451 0.425422 0.735256
0.0898451 0.425422 0.735256
0.192538 0.438148 0.740902
0.525048 0.47155 0.767193
0.823438 0.434928 0.795346
0.940505 0.508705 0.808438
0.984421 0.627161 0.8271
0.998001 0.692988 0.844129
0.0674296 0.616144 0.757183
0.0674296 0.61593 0.757168
0.0674144 0.615518 0.757137
0.157443 0.616587 0.765362
0.547524 0.629938 0.780499
0.820676 0.608713 0.799313
0.941405 0.602594 0.805142
0.984558 0.634653 0.826322
0.998032 0.692821 0.843763
0.0836652 0.792081 0.772396
0.0835889 0.791989 0.772396
0.0834974 0.791913 0.772381
0.125063 0.793652 0.775464
0.505135 0.801068 0.790509
0.800351 0.799786 0.802777
0.937362 0.787106 0.787579
0.987167 0.781048 0.812726
0.998947 0.784939 0.832761
0.255909 0.891112 0.79585
0.255909 0.891112 0.79585
0.255909 0.891112 0.79585
0.25861 0.891127 0.795865
0.493324 0.896147 0.80293
0.740017 0.90193 0.809888
0.901808 0.896132 0.832319
0.974517 0.887785 0.831128
0.992447 0.884352 0.846372
0.501717 0.940337 0.835126
0.501717 0.940337 0.835126
0.501717 0.940337 0.835126
0.501472 0.940291 0.83505
0.578241 0.941833 0.837064
0.729427 0.945159 0.842863
0.857145 0.947494 0.85098
0.947646 0.942138 0.877333
0.979385 0.939193 0.877684
0.599695 0.956359 0.857206
0.599695 0.956359 0.857206
0.599695 0.956359 0.857206
0.59968 0.956359 0.857191
0.629374 0.957015 0.85803
0.739513 0.959365 0.862379
0.851667 0.961608 0.86775
0.927398 0.959899 0.887373
0.966308 0.957839 0.900908
0.279057 0.641474 0.864652
0.279057 0.641474 0.864652
0.279057 0.641474 0.864652
0.279057 0.641474 0.864652
0.467124 0.656168 0.868574
0.727474 0.677104 0.885649
0.915084 0.658946 0.896895
0.974899 0.694972 0.900664
0.991882 0.735637 0.903395
0.279057 0.641474 0.864652
0.279057 0.641474 0.864652
0.279057 0.641474 0.864652
0.278859 0.641321 0.864576
0.466987 0.656153 0.868574
0.727474 0.677104 0.885649
0.915084 0.658946 0.896895
0.974899 0.694972 0.900664
0.991882 0.735637 0.903395
0.279057 0.641474 0.864652
0.278859 0.641321 0.864576
0.278859 0.641321 0.864576
0.278859 0.641321 0.864576
0.466636 0.656001 0.868498
0.727367 0.676966 0.885588
0.915114 0.658763 0.896864
0.974914 0.694896 0.900603
0.991882 0.735637 0.903395
0.278859 0.641321 0.864576
0.278859 0.641321 0.864576
0.27866 0.641184 0.8645
0.27866 0.641184 0.8645
0.465843 0.655909 0.868498
0.72726 0.676829 0.885512
0.915145 0.658595 0.896819
0.974914 0.69482 0.900557
0.991897 0.735592 0.903365
0.27866 0.645838 0.864927
0.278645 0.645655 0.864897
0.278431 0.645274 0.864805
0.278355 0.644526 0.864713
0.463188 0.656794 0.868513
0.726787 0.676417 0.885298
0.915175 0.658091 0.896681
0.97496 0.694606 0.900404
0.991913 0.735454 0.903227
0.267857 0.786786 0.872358
0.267842 0.786725 0.872358
0.267842 0.786664 0.872358
0.267811 0.78645 0.872343
0.453986 0.788495 0.87863
0.747372 0.796963 0.887114
0.908522 0.785931 0.896315
0.972747 0.781308 0.895338
0.991073 0.784436 0.899748
0.368017 0.889052 0.876478
0.368017 0.889052 0.876478
0.368017 0.889052 0.876478
0.36788 0.889006 0.876478
0.471901 0.890761 0.879499
0.733852 0.895338 0.889784
0.894789 0.894148 0.896391
0.964584 0.889036 0.88484
0.987488 0.885023 0.887831
0.547936 0.938903 0.885695
0.547936 0.938903 0.885695
0.547753 0.938872 0.885679
0.547707 0.938872 0.885634
0.568719 0.939345 0.886351
0.725811 0.942504 0.892653
0.866377 0.94522 0.898344
0.944823 0.941787 0.909102
0.975616 0.938994 0.904204
0.631205 0.956207 0.894408
0.631205 0.956207 0.894408
0.631205 0.956207 0.894408
0.631174 0.956207 0.894377
0.631174 0.956207 0.894377
0.738689 0.958358 0.898344
0.857816 0.960906 0.903868
0.925002 0.961837 0.911742
0.964309 0.958206 0.921492
0.492744 0.770718 0.926879
0.492744 0.770718 0.926879
0.492744 0.770718 0.926879
0.492744 0.770718 0.926879
0.492744 0.770718 0.926879
0.704875 0.788647 0.928801
0.859098 0.798733 0.939529
0.956771 0.788098 0.944854
0.982345 0.795285 0.94609
0.492744 0.770718 0.926879
0.492744 0.770718 0.926879
0.492744 0.770718 0.926879
0.492744 0.770718 0.926879
0.492744 0.770718 0.926879
0.704875 0.788647 0.928801
0.859098 0.798733 0.939529
0.956771 0.788098 0.944854
0.982345 0.795285 0.94609
0.492744 0.770718 0.926879
0.492744 0.770718 0.926879
0.492744 0.770718 0.926879
0.492744 0.770718 0.926879
0.492531 0.770626 0.926833
0.704768 0.788632 0.928801
0.859098 0.798733 0.939529
0.956771 0.788098 0.944854
0.982345 0.795285 0.94609
0.492531 0.770626 0.926833
0.492531 0.770626 0.926833
0.492531 0.770626 0.926833
0.492531 0.770626 0.926833
0.492531 0.770626 0.926833
0.70454 0.788525 0.928756
0.858976 0.798718 0.939529
0.956802 0.787976 0.944823
0.982345 0.795224 0.946059
0.492332 0.77052 0.926787
0.492332 0.77052 0.926787
0.492332 0.77052 0.926787
0.492332 0.77052 0.926787
0.492332 0.77052 0.926787
0.704005 0.788388 0.92871
0.858961 0.79855 0.939437
0.956832 0.787854 0.944808
0.982361 0.795163 0.946014
0.499413 0.797375 0.928069
0.499397 0.797345 0.928069
0.499382 0.797284 0.928069
0.499352 0.797147 0.928069
0.499245 0.796658 0.928038
0.703426 0.807492 0.931487
0.855955 0.81326 0.941772
0.956542 0.795056 0.944701
0.982406 0.794903 0.945876
0.527321 0.885771 0.928389
0.527321 0.885771 0.928389
0.527321 0.885771 0.928389
0.527276 0.885725 0.928389
0.527108 0.885542 0.928389
0.710842 0.887892 0.934081
0.868299 0.892683 0.938445
0.949081 0.887175 0.942458
0.977783 0.883619 0.939651
0.614069 0.937209 0.929076
0.614069 0.937209 0.929076
0.614069 0.937209 0.929076
0.614069 0.937209 0.929076
0.613947 0.937179 0.929076
0.717891 0.939101 0.932677
0.864164 0.941436 0.938888
0.941039 0.940505 0.942168
0.969772 0.938323 0.937926
0.677256 0.955825 0.93051
0.677256 0.955825 0.93051
0.677256 0.955825 0.93051
0.677256 0.955825 0.93051
0.677256 0.955825 0.93051
0.736721 0.957046 0.932937
0.855756 0.959823 0.938155
0.93077 0.960662 0.94197
0.963058 0.958724 0.946334
0.606256 0.828275 0.95024
0.606256 0.828275 0.95024
0.606256 0.828275 0.95024
0.606256 0.828275 0.95024
0.606256 0.828275 0.95024
0.682582 0.832685 0.951415
0.838956 0.84622 0.957229
0.934813 0.852262 0.958633
0.973739 0.843961 0.963531
0.606256 0.828275 0.95024
0.606256 0.828275 0.95024
0.606256 0.828275 0.95024
0.606256 0.828275 0.95024
0.606256 0.828275 0.95024
0.682536 0.83267 0.951415
0.838956 0.84622 0.957229
0.934813 0.852262 0.958633
0.973739 0.843961 0.963531
0.606256 0.828275 0.95024
0.606256 0.828275 0.95024
0.606256 0.828275 0.95024
0.606256 0.828275 0.95024
0.606256 0.828275 0.95024
0.68246 0.83267 0.951415
0.838956 0.84622 0.957229
0.934813 0.852262 0.958633
0.973739 0.843961 0.963531
0.606256 0.828275 0.95024
0.606256 0.828275 0.95024
0.606256 0.828275 0.95024
0.606256 0.828275 0.95024
0.606256 0.828275 0.95024
0.682322 0.832654 0.951415
0.838956 0.84622 0.957229
0.934813 0.852262 0.958633
0.973739 0.843961 0.963531
0.606256 0.828275 0.95024
0.606256 0.828275 0.95024
0.606256 0.828275 0.95024
0.606256 0.828275 0.95024
0.606256 0.828275 0.95024
0.681865 0.832624 0.9514
0.838834 0.846204 0.957214
0.934737 0.852277 0.958633
0.973739 0.843961 0.963531
0.606256 0.828275 0.95024
0.606256 0.828275 0.95024
0.606256 0.828275 0.95024
0.606256 0.828275 0.95024
0.606256 0.828275 0.95024
0.680308 0.832486 0.9514
0.838605 0.846189 0.957168
0.934676 0.852277 0.958633
0.973739 0.843961 0.963531
0.623987 0.885359 0.951308
0.623987 0.885359 0.951308
0.623972 0.885328 0.951308
0.623972 0.885298 0.951308
0.623941 0.885161 0.951308
0.690532 0.885664 0.953109
0.852216 0.893462 0.956115
0.928801 0.893141 0.962036
0.970764 0.886305 0.962615
0.671855 0.935363 0.950393
0.671855 0.935363 0.950393
0.671855 0.935363 0.950393
0.671855 0.935363 0.950393
0.671748 0.935302 0.950393
0.706065 0.935866 0.951415
0.855436 0.938369 0.956909
0.931594 0.939483 0.959136
0.964828 0.936996 0.960952
0.716869 0.95668 0.951049
0.716869 0.95668 0.951049
0.716869 0.95668 0.951049
0.716869 0.95668 0.951049
0.716869 0.95668 0.951049
0.733013 0.957031 0.951629
0.853162 0.959365 0.95642
0.928725 0.960357 0.960082
0.961212 0.960006 0.961822
