Luts/Nikon/RED_FilmBiasOffset_Rec2020_N-Log_to_Rec709_BT1886_VLog.cube
TITLE "Generated by Resolve"
#LUMIXPHOTOSTYLE VLOG
LUT_3D_SIZE 5
0 0 0
0.0423438 0.0423438 0.0423438
0.342351 0.342367 0.342382
0.679438 0.679454 0.6795
0.837613 0.837629 0.837659
0.11342 0.11342 0.113436
0.169924 0.169924 0.16994
0.390631 0.390646 0.390677
0.679438 0.679454 0.6795
0.837613 0.837629 0.837659
0.473472 0.473487 0.473533
0.482338 0.482353 0.482399
0.575219 0.575235 0.575265
0.746578 0.746593 0.746624
0.837613 0.837629 0.837659
0.808637 0.808637 0.808682
0.808637 0.808637 0.808682
0.831418 0.831418 0.831464
0.901091 0.901106 0.901137
0.92929 0.92929 0.92932
0.921798 0.921798 0.921828
0.921798 0.921798 0.921828
0.921798 0.921798 0.921828
0.95111 0.95111 0.951125
0.97113 0.97113 0.971145
0 0 0
0.0642252 0.0642252 0.0642252
0.35491 0.35491 0.35494
0.679652 0.679667 0.679713
0.837613 0.837629 0.837659
0.117205 0.117205 0.11722
0.171008 0.171008 0.171023
0.391073 0.391073 0.391119
0.679438 0.679454 0.679484
0.837613 0.837629 0.837659
0.473121 0.473121 0.473167
0.481209 0.481209 0.481254
0.574502 0.574517 0.574548
0.745632 0.745647 0.745693
0.837613 0.837629 0.837659
0.808515 0.80853 0.80856
0.808515 0.80853 0.80856
0.831174 0.831174 0.83122
0.900984 0.900984 0.901015
0.929244 0.929244 0.929274
0.921798 0.921798 0.921828
0.921798 0.921798 0.921828
0.921798 0.921798 0.921828
0.951095 0.951095 0.95111
0.97113 0.97113 0.971145
0.227146 0.227146 0.227161
0.245731 0.245747 0.245762
0.441474 0.441489 0.44152
0.701152 0.701152 0.701198
0.838331 0.838346 0.838376
0.226444 0.226444 0.226459
0.244251 0.244266 0.244282
0.441016 0.441032 0.441062
0.70106 0.701076 0.701122
0.8383 0.838315 0.838346
0.486091 0.486107 0.486137
0.489296 0.489296 0.489342
0.580865 0.58088 0.580911
0.749676 0.749691 0.749722
0.838102 0.838102 0.838148
0.810056 0.810071 0.810101
0.809949 0.809964 0.809995
0.830884 0.8309 0.83093
0.900923 0.900923 0.900954
0.928832 0.928832 0.928862
0.921798 0.921798 0.921828
0.921798 0.921798 0.921828
0.921798 0.921798 0.921828
0.951003 0.951003 0.951019
0.97113 0.97113 0.971145
0.623087 0.623102 0.623148
0.623087 0.623102 0.623148
0.643626 0.643641 0.643687
0.800168 0.800183 0.800214
0.883696 0.883696 0.883726
0.623087 0.623102 0.623148
0.623087 0.623102 0.623148
0.643549 0.643565 0.64361
0.800122 0.800122 0.800168
0.883665 0.88368 0.883711
0.622583 0.622599 0.622644
0.622583 0.622599 0.622644
0.642542 0.642557 0.642603
0.799893 0.799908 0.799939
0.883574 0.883574 0.883604
0.833463 0.833478 0.833509
0.833387 0.833402 0.833432
0.838087 0.838102 0.838132
0.904677 0.904692 0.904723
0.932342 0.932357 0.932372
0.927047 0.927062 0.927077
0.927047 0.927062 0.927077
0.927047 0.927062 0.927077
0.952087 0.952102 0.952117
0.971954 0.971969 0.971984
0.803601 0.803616 0.803647
0.803601 0.803616 0.803647
0.803601 0.803616 0.803647
0.847364 0.847379 0.84741
0.926406 0.926406 0.926436
0.803601 0.803616 0.803647
0.803601 0.803616 0.803647
0.803601 0.803616 0.803647
0.847349 0.847364 0.847395
0.926406 0.926406 0.926436
0.803601 0.803616 0.803647
0.803601 0.803616 0.803647
0.803601 0.803616 0.803647
0.847272 0.847288 0.847318
0.926406 0.926406 0.926436
0.803601 0.803616 0.803647
0.803601 0.803616 0.803647
0.803601 0.803616 0.803647
0.846387 0.846403 0.846433
0.926406 0.926406 0.926436
0.942855 0.94287 0.942885
0.942855 0.94287 0.942885
0.942855 0.94287 0.942885
0.949523 0.949523 0.949554
0.975814 0.975814 0.975845
