Luts/Nikon/RED_Achromic_Rec2020_N-Log_to_Rec709_VLog.cube
TITLE "Generated by Resolve"
#LUMIXPHOTOSTYLE VLOG
LUT_3D_SIZE 5
0 0 0
0.152346 0.00729381 0.0128481
0.639857 0.0706035 0.150454
0.966888 0.42977 0.59472
0.999603 0.672923 0.773983
0.00350958 0.16083 0.0065156
0.196231 0.158404 0.0180819
0.705135 0.131502 0.149828
0.966888 0.42977 0.59472
0.999603 0.672923 0.773983
0.00708019 0.629679 0.236973
0.0301976 0.640528 0.236255
0.683131 0.633326 0.340627
0.97557 0.614847 0.618952
0.999603 0.672923 0.773983
0.251545 0.905135 0.709041
0.251545 0.905135 0.709041
0.5234 0.910506 0.717327
0.921004 0.90631 0.789014
0.996033 0.880735 0.809583
0.589426 0.956573 0.838483
0.589426 0.956573 0.838483
0.589426 0.956573 0.838483
0.861357 0.961288 0.853773
0.967346 0.957565 0.893324
0.00401312 0.00523384 0.079881
0.146304 0.00686656 0.130159
0.638911 0.07393 0.248157
0.966796 0.429999 0.596078
0.999603 0.672923 0.773983
0.00352483 0.159487 0.14023
0.151934 0.161334 0.1617
0.684611 0.13312 0.234836
0.966812 0.429679 0.59527
0.999603 0.672923 0.773983
0.0068513 0.62858 0.2804
0.026627 0.63888 0.279774
0.677867 0.6336 0.369116
0.97557 0.612665 0.618448
0.999603 0.672923 0.773983
0.25127 0.905089 0.708919
0.25127 0.905089 0.708919
0.521813 0.91043 0.717144
0.921004 0.906203 0.78883
0.996033 0.880613 0.809537
0.589426 0.956573 0.838483
0.589426 0.956573 0.838483
0.589426 0.956573 0.838483
0.861265 0.961288 0.853758
0.967346 0.957565 0.893324
0.0280461 0.193286 0.512779
0.052018 0.200275 0.520195
0.653742 0.183154 0.614801
0.959396 0.464729 0.707713
0.999588 0.673411 0.777798
0.0279698 0.192584 0.511849
0.0506752 0.199176 0.519097
0.65362 0.182101 0.614191
0.959426 0.464591 0.707408
0.999588 0.673396 0.77763
0.00781262 0.626383 0.596033
0.0153201 0.627527 0.599191
0.637293 0.635309 0.640787
0.969238 0.612436 0.693858
0.999603 0.673243 0.776562
0.261707 0.904448 0.738643
0.261402 0.904402 0.738491
0.515358 0.909697 0.74432
0.91899 0.90634 0.801953
0.996078 0.879805 0.809186
0.589426 0.956573 0.838483
0.589426 0.956573 0.838483
0.589426 0.956573 0.838483
0.8607 0.961288 0.853681
0.967346 0.957565 0.893324
0.319814 0.670893 0.879759
0.319814 0.670893 0.879759
0.46157 0.680369 0.882521
0.925383 0.688899 0.908736
0.990921 0.742397 0.909758
0.319814 0.670893 0.879759
0.319814 0.670893 0.879759
0.461143 0.680339 0.882521
0.925414 0.688731 0.90869
0.990921 0.742351 0.909712
0.319066 0.670375 0.879499
0.319066 0.670375 0.879499
0.457527 0.67953 0.882231
0.925444 0.688273 0.908568
0.990951 0.742168 0.909545
0.421759 0.900877 0.88922
0.421592 0.900832 0.88922
0.48275 0.901854 0.890944
0.906691 0.905547 0.907942
0.987762 0.87924 0.894072
0.626734 0.956283 0.890471
0.626734 0.956283 0.890471
0.626703 0.956283 0.89044
0.862165 0.961288 0.899611
0.964599 0.958144 0.916609
0.606256 0.828275 0.95024
0.606256 0.828275 0.95024
0.606256 0.828275 0.95024
0.798047 0.844373 0.951873
0.973739 0.843961 0.963531
0.606256 0.828275 0.95024
0.606256 0.828275 0.95024
0.606256 0.828275 0.95024
0.797971 0.844373 0.951873
0.973739 0.843961 0.963531
0.606256 0.828275 0.95024
0.606256 0.828275 0.95024
0.606256 0.828275 0.95024
0.797742 0.844343 0.951873
0.973739 0.843961 0.963531
0.606256 0.828275 0.95024
0.606256 0.828275 0.95024
0.606256 0.828275 0.95024
0.794842 0.844038 0.951812
0.973739 0.843961 0.963531
0.716869 0.95668 0.951049
0.716869 0.95668 0.951049
0.716869 0.95668 0.951049
0.790906 0.958282 0.953933
0.961212 0.960006 0.961822
