Luts/Nikon/RED_Achromic_Rec2020_N-Log_to_Rec709_VLog.cube
TITLE "Generated by Resolve"
#LUMIXPHOTOSTYLE VLOG
LUT_3D_SIZE 33
0 0 0
0 0 0
0 0 0
1.5259e-05 0 0
0.0330358 0.0019379 0.00196841
0.0686809 0.00354009 0.00370794
0.0929274 0.00392157 0.00497444
0.119371 0.00497444 0.00759899
0.152346 0.00729381 0.0128481
0.192752 0.0112154 0.020264
0.240253 0.0162356 0.0291142
0.295476 0.0221714 0.0393683
0.35819 0.0286412 0.0521096
0.42739 0.0360266 0.069688
0.497429 0.0448463 0.0912642
0.56849 0.0569009 0.116106
0.639857 0.0706035 0.150454
0.706416 0.0882277 0.190555
0.765164 0.110185 0.236042
0.816968 0.13962 0.28867
0.860929 0.176806 0.348226
0.898039 0.224765 0.412009
0.926818 0.285466 0.476036
0.950332 0.355444 0.537881
0.966888 0.42977 0.59472
0.980606 0.500664 0.648096
0.990417 0.56524 0.695689
0.99704 0.623209 0.738155
0.999603 0.672923 0.773983
0.999603 0.672923 0.773983
0.999603 0.672923 0.773983
0.999603 0.672923 0.773983
0.999603 0.672923 0.773983
0 0 0
0 0 0
0 0 0
1.5259e-05 0 0
0.0325017 0.00192264 0.0019379
0.0683757 0.00352483 0.00367742
0.092607 0.00392157 0.00495918
0.118975 0.00494392 0.00753796
0.152148 0.00727855 0.0128176
0.192538 0.0112001 0.0202335
0.240009 0.0162051 0.0290684
0.295232 0.0221561 0.0393225
0.357931 0.0286107 0.0520485
0.42739 0.0360266 0.069688
0.497429 0.0448463 0.0912642
0.56849 0.0569009 0.116106
0.639857 0.0706035 0.150454
0.706416 0.0882277 0.190555
0.765164 0.110185 0.236042
0.816968 0.13962 0.28867
0.860929 0.176806 0.348226
0.898039 0.224765 0.412009
0.926818 0.285466 0.476036
0.950332 0.355444 0.537881
0.966888 0.42977 0.59472
0.980606 0.500664 0.648096
0.990417 0.56524 0.695689
0.99704 0.623209 0.738155
0.999603 0.672923 0.773983
0.999603 0.672923 0.773983
0.999603 0.672923 0.773983
0.999603 0.672923 0.773983
0.999603 0.672923 0.773983
0 0 0
0 0 0
0 0 0
1.5259e-05 0 0
0.0319524 0.00189212 0.00192264
0.0678874 0.00352483 0.00366217
0.0922866 0.00392157 0.00494392
0.118776 0.00492866 0.00749218
0.151949 0.00726329 0.0127871
0.192309 0.0111696 0.0201877
0.239765 0.0161746 0.0290227
0.294987 0.0221256 0.0392767
0.357931 0.0286107 0.0520485
0.427146 0.035996 0.0696117
0.497215 0.0448157 0.0911879
0.56849 0.0569009 0.116106
0.639857 0.0706035 0.150454
0.706416 0.0882277 0.190555
0.765164 0.110185 0.236042
0.816968 0.13962 0.28867
0.860929 0.176806 0.348226
0.898039 0.224765 0.412009
0.926818 0.285466 0.476036
0.950332 0.355444 0.537881
0.966888 0.42977 0.59472
0.980606 0.500664 0.648096
0.990417 0.56524 0.695689
0.99704 0.623209 0.738155
0.999603 0.672923 0.773983
0.999603 0.672923 0.773983
0.999603 0.672923 0.773983
0.999603 0.672923 0.773983
0.999603 0.672923 0.773983
0.00047303 0.00505074 0.00047303
0.000396735 0.00436408 0.000396735
0.000335698 0.00367742 0.000335698
0.000564584 0.00331121 0.000320439
0.0418555 0.0049897 0.00283818
0.0758984 0.00440986 0.00360113
0.10277 0.00546273 0.00457771
0.130266 0.00703441 0.00694286
0.163561 0.0096437 0.012604
0.203525 0.0136568 0.0200961
0.249622 0.0183719 0.0288548
0.30164 0.0234684 0.0390631
0.359319 0.0289311 0.0519265
0.427146 0.035996 0.0696117
0.497215 0.0448157 0.0911879
0.568276 0.0568551 0.11603
0.639857 0.0706035 0.150454
0.706416 0.0882277 0.190555
0.765164 0.110185 0.236042
0.816968 0.13962 0.28867
0.860929 0.176806 0.348226
0.898039 0.224765 0.412009
0.926818 0.285466 0.476036
0.950332 0.355444 0.537881
0.966888 0.42977 0.59472
0.980606 0.500664 0.648096
0.990417 0.56524 0.695689
0.99704 0.623209 0.738155
0.999603 0.672923 0.773983
0.999603 0.672923 0.773983
0.999603 0.672923 0.773983
0.999603 0.672923 0.773983
0.999603 0.672923 0.773983
0.00244144 0.035874 0.00248722
0.00239567 0.0348821 0.00242618
0.00233463 0.0337377 0.00236515
0.0030518 0.033753 0.00241093
0.04094 0.0325322 0.00355535
0.0816052 0.0266117 0.00393683
0.116136 0.0229343 0.00598154
0.150835 0.0205386 0.00895705
0.189837 0.0204623 0.0143893
0.233036 0.0233921 0.0214694
0.281163 0.0270237 0.0299992
0.334493 0.0308385 0.0401312
0.394202 0.0378119 0.0522927
0.454841 0.0441444 0.0688334
0.51397 0.0506142 0.0896925
0.57322 0.0592813 0.114443
0.639857 0.0706035 0.150454
0.706249 0.0881819 0.190433
0.765164 0.110185 0.236042
0.816968 0.13962 0.28867
0.860929 0.176806 0.348226
0.898039 0.224765 0.412009
0.926818 0.285466 0.476036
0.950332 0.355444 0.537881
0.966888 0.42977 0.59472
0.980606 0.500664 0.648096
0.990417 0.56524 0.695689
0.99704 0.623209 0.738155
0.999603 0.672923 0.773983
0.999603 0.672923 0.773983
0.999603 0.672923 0.773983
0.999603 0.672923 0.773983
0.999603 0.672923 0.773983
0.00350958 0.0684215 0.00396735
0.00350958 0.0675364 0.00393683
0.00350958 0.0668345 0.00392157
0.00352483 0.0660563 0.00383001
0.0363012 0.0641337 0.00404364
0.0801099 0.0604562 0.00471504
0.118563 0.0534066 0.00703441
0.157809 0.0464942 0.0101015
0.202625 0.0398718 0.0151064
0.252522 0.0378119 0.0221866
0.306355 0.0394598 0.0305028
0.362875 0.0439002 0.0404669
0.422019 0.0487526 0.0532387
0.480522 0.0560311 0.0681315
0.539117 0.0620432 0.0887617
0.597025 0.0694133 0.113664
0.654459 0.0791791 0.147692
0.706432 0.0883345 0.190356
0.765164 0.110185 0.236042
0.816968 0.13962 0.28867
0.860929 0.176806 0.348226
0.898039 0.224765 0.412009
0.926818 0.285466 0.476036
0.950332 0.355444 0.537881
0.966888 0.42977 0.59472
0.980606 0.500664 0.648096
0.990417 0.56524 0.695689
0.99704 0.623209 0.738155
0.999603 0.672923 0.773983
0.999603 0.672923 0.773983
0.999603 0.672923 0.773983
0.999603 0.672923 0.773983
0.999603 0.672923 0.773983
0.00350958 0.0949874 0.00485237
0.00350958 0.0944533 0.00483711
0.00350958 0.0937514 0.00480659
0.00355535 0.0937057 0.00468452
0.0231479 0.0933547 0.00500496
0.0738537 0.0924239 0.00588998
0.115373 0.0887922 0.00810254
0.156756 0.0840162 0.0107881
0.203296 0.0770733 0.014847
0.257588 0.0703288 0.0213169
0.318013 0.0657054 0.0296178
0.381582 0.064271 0.0399939
0.442741 0.065156 0.052781
0.501167 0.070222 0.0675822
0.55906 0.0750591 0.0881971
0.616495 0.0813916 0.1149
0.672572 0.0921035 0.148714
0.722103 0.100618 0.186374
0.766415 0.11194 0.235264
0.816968 0.13962 0.28867
0.860929 0.176806 0.348226
0.898039 0.224765 0.412009
0.926818 0.285466 0.476036
0.950332 0.355444 0.537881
0.966888 0.42977 0.59472
0.980606 0.500664 0.648096
0.990417 0.56524 0.695689
0.99704 0.623209 0.738155
0.999603 0.672923 0.773983
0.999603 0.672923 0.773983
0.999603 0.672923 0.773983
0.999603 0.672923 0.773983
0.999603 0.672923 0.773983
0.00350958 0.125368 0.00553903
0.00350958 0.124743 0.00552377
0.00350958 0.123903 0.00550851
0.00354009 0.124453 0.0053254
0.0155184 0.125017 0.0062562
0.0564584 0.124926 0.00788891
0.104753 0.123476 0.0102693
0.15198 0.120806 0.0127718
0.201297 0.115389 0.0158389
0.258503 0.107424 0.0213321
0.32372 0.0990921 0.0290227
0.394186 0.0922255 0.0392462
0.460472 0.0881056 0.0517891
0.520974 0.0879225 0.0671397
0.57847 0.094316 0.0883345
0.635233 0.0993057 0.116304
0.689067 0.107866 0.149706
0.73669 0.116167 0.18761
0.779675 0.128939 0.231281
0.81799 0.141421 0.288243
0.860929 0.176806 0.348226
0.898039 0.224765 0.412009
0.926818 0.285466 0.476036
0.950332 0.355444 0.537881
0.966888 0.42977 0.59472
0.980606 0.500664 0.648096
0.990417 0.56524 0.695689
0.99704 0.623209 0.738155
0.999603 0.672923 0.773983
0.999603 0.672923 0.773983
0.999603 0.672923 0.773983
0.999603 0.672923 0.773983
0.999603 0.672923 0.773983
0.00350958 0.16083 0.0065156
0.00350958 0.160143 0.00646983
0.00350958 0.159686 0.00643931
0.00350958 0.160723 0.00614939
0.0112917 0.161776 0.00775158
0.0324102 0.161379 0.0104372
0.087602 0.161501 0.0132143
0.142489 0.160998 0.0158236
0.196231 0.158404 0.0180819
0.254749 0.153307 0.022385
0.321248 0.146334 0.0288548
0.396536 0.137606 0.0381781
0.471992 0.128542 0.0509194
0.537758 0.124224 0.0675669
0.598306 0.124544 0.0881971
0.654551 0.126406 0.116426
0.705135 0.131502 0.149828
0.75172 0.139544 0.190173
0.794278 0.148608 0.234104
0.83035 0.164782 0.284504
0.861677 0.178531 0.347982
0.898039 0.224765 0.412009
0.926818 0.285466 0.476036
0.950332 0.355444 0.537881
0.966888 0.42977 0.59472
0.980606 0.500664 0.648096
0.990417 0.56524 0.695689
0.99704 0.623209 0.738155
0.999603 0.672923 0.773983
0.999603 0.672923 0.773983
0.999603 0.672923 0.773983
0.999603 0.672923 0.773983
0.999603 0.672923 0.773983
0.00350958 0.20354 0.00961318
0.00350958 0.203082 0.00958267
0.00350958 0.202625 0.00955215
0.00355535 0.204273 0.009308
0.0084535 0.206424 0.00926223
0.0328985 0.206226 0.0101167
0.0746624 0.206424 0.0109712
0.122057 0.20647 0.0126192
0.184863 0.205539 0.0166323
0.246601 0.202472 0.0263371
0.314031 0.197833 0.0350805
0.390417 0.191196 0.0410925
0.470542 0.182376 0.0516976
0.546746 0.173236 0.0680705
0.614115 0.166766 0.0889601
0.672526 0.164492 0.116121
0.721691 0.167041 0.149844
0.765698 0.172396 0.192111
0.807218 0.179965 0.237934
0.842191 0.19263 0.2878
0.872709 0.208408 0.343938
0.898482 0.226932 0.411688
0.926818 0.285466 0.476036
0.950332 0.355444 0.537881
0.966888 0.42977 0.59472
0.980606 0.500664 0.648096
0.990417 0.56524 0.695689
0.99704 0.623209 0.738155
0.999603 0.672923 0.773983
0.999603 0.672923 0.773983
0.999603 0.672923 0.773983
0.999603 0.672923 0.773983
0.999603 0.672923 0.773983
0.00355535 0.253574 0.01944
0.00354009 0.253086 0.0193179
0.00354009 0.252827 0.0192721
0.00360113 0.25449 0.0189822
0.0053254 0.258015 0.0183108
0.0163882 0.259541 0.018143
0.0573587 0.258976 0.019028
0.104829 0.258396 0.0207523
0.166003 0.258076 0.0249943
0.233097 0.256504 0.0345159
0.304829 0.253986 0.0443122
0.381491 0.249714 0.0510719
0.463279 0.243107 0.0587625
0.545846 0.232944 0.0713817
0.622095 0.222324 0.0912337
0.685985 0.214801 0.117357
0.737621 0.213428 0.150744
0.780179 0.216831 0.193011
0.817853 0.223087 0.241764
0.853208 0.231159 0.293706
0.883055 0.246586 0.348882
0.907332 0.266682 0.408896
0.927275 0.288029 0.475944
0.950332 0.355444 0.537881
0.966888 0.42977 0.59472
0.980606 0.500664 0.648096
0.990417 0.56524 0.695689
0.99704 0.623209 0.738155
0.999603 0.672923 0.773983
0.999603 0.672923 0.773983
0.999603 0.672923 0.773983
0.999603 0.672923 0.773983
0.999603 0.672923 0.773983
0.00360113 0.31165 0.0370489
0.00360113 0.311391 0.0369573
0.00360113 0.311131 0.0368658
0.00366217 0.312657 0.0362707
0.00416571 0.317479 0.0359808
0.00633249 0.320226 0.0348821
0.0334173 0.320317 0.0361791
0.0715496 0.319661 0.0383307
0.138277 0.318944 0.0428473
0.210605 0.317723 0.0505989
0.288396 0.315541 0.0601511
0.36965 0.313191 0.0698711
0.453361 0.308461 0.0770123
0.537392 0.301015 0.0848249
0.619516 0.28986 0.0988785
0.690944 0.27834 0.121813
0.747982 0.270512 0.155993
0.79266 0.270298 0.195285
0.829358 0.274556 0.244724
0.861784 0.282292 0.299336
0.891585 0.291081 0.357259
0.915053 0.309758 0.415595
0.934691 0.33257 0.474372
0.950576 0.3579 0.537789
0.966888 0.42977 0.59472
0.980606 0.500664 0.648096
0.990417 0.56524 0.695689
0.99704 0.623209 0.738155
0.999603 0.672923 0.773983
0.999603 0.672923 0.773983
0.999603 0.672923 0.773983
0.999603 0.672923 0.773983
0.999603 0.672923 0.773983
0.00369268 0.376654 0.0608225
0.00369268 0.376394 0.0607156
0.00367742 0.376135 0.0606241
0.00375372 0.377401 0.0597696
0.00410468 0.382666 0.0591135
0.00653086 0.386557 0.0578317
0.016022 0.38851 0.0577096
0.0352483 0.38967 0.0587472
0.09897 0.388235 0.0645151
0.176181 0.386831 0.0714427
0.261051 0.38497 0.0809949
0.34902 0.382635 0.094255
0.440192 0.379461 0.107851
0.525902 0.37406 0.116121
0.608865 0.365881 0.122057
0.685954 0.353811 0.134844
0.748943 0.343069 0.162219
0.799893 0.334997 0.20145
0.839368 0.334234 0.248402
0.86978 0.340536 0.305135
0.896742 0.349248 0.364843
0.921248 0.361196 0.425391
0.940627 0.380301 0.481636
0.955795 0.403815 0.53753
0.967147 0.432197 0.594797
0.980606 0.500664 0.648096
0.990417 0.56524 0.695689
0.99704 0.623209 0.738155
0.999603 0.672923 0.773983
0.999603 0.672923 0.773983
0.999603 0.672923 0.773983
0.999603 0.672923 0.773983
0.999603 0.672923 0.773983
0.00387579 0.44477 0.0945296
0.00387579 0.444541 0.0943923
0.00387579 0.444297 0.094255
0.00396735 0.444953 0.093492
0.00450141 0.449622 0.0909895
0.00575265 0.453803 0.0898756
0.0118715 0.456779 0.0878309
0.0228275 0.459419 0.0858167
0.0611124 0.459373 0.0895705
0.133043 0.458534 0.0949264
0.225208 0.457053 0.103075
0.31754 0.454917 0.116457
0.414008 0.451514 0.136965
0.509438 0.448325 0.156054
0.594293 0.44271 0.163745
0.672694 0.433707 0.167681
0.741985 0.422827 0.183001
0.798367 0.411658 0.215244
0.843305 0.404898 0.257694
0.876356 0.405356 0.311696
0.902129 0.410956 0.372305
0.924819 0.419883 0.433936
0.944396 0.433555 0.492012
0.959823 0.452689 0.543832
0.97174 0.477226 0.594644
0.980713 0.502586 0.64799
0.990417 0.56524 0.695689
0.99704 0.623209 0.738155
0.999603 0.672923 0.773983
0.999603 0.672923 0.773983
0.999603 0.672923 0.773983
0.999603 0.672923 0.773983
0.999603 0.672923 0.773983
0.00421149 0.511177 0.131884
0.00421149 0.510964 0.131762
0.00421149 0.510765 0.131655
0.00422675 0.510964 0.131533
0.00518807 0.515343 0.129122
0.00721752 0.518807 0.128099
0.0101625 0.521691 0.126787
0.0141146 0.524681 0.124987
0.0441138 0.527153 0.123415
0.0977646 0.527352 0.127062
0.179019 0.525948 0.135271
0.280217 0.524178 0.145739
0.378012 0.521172 0.163058
0.478233 0.517281 0.187869
0.573388 0.514351 0.211154
0.655238 0.508965 0.219654
0.727611 0.50045 0.223346
0.789303 0.490593 0.241016
0.839643 0.480659 0.2757
0.877653 0.474617 0.323415
0.906752 0.475273 0.381201
0.927932 0.481346 0.442191
0.946075 0.489982 0.500847
0.962448 0.502602 0.554025
0.974807 0.520836 0.601358
0.983871 0.544549 0.647486
0.990524 0.566979 0.69572
0.99704 0.623209 0.738155
0.999603 0.672923 0.773983
0.999603 0.672923 0.773983
0.999603 0.672923 0.773983
0.999603 0.672923 0.773983
0.999603 0.672923 0.773983
0.00508125 0.573007 0.181186
0.00508125 0.572839 0.181033
0.00508125 0.572671 0.180896
0.005066 0.572519 0.180743
0.0059968 0.575631 0.17937
0.00781262 0.578637 0.179034
0.0110323 0.581033 0.178897
0.0165866 0.583734 0.178744
0.0287785 0.586755 0.176257
0.0663462 0.589212 0.175738
0.138872 0.590021 0.179553
0.240391 0.58851 0.189227
0.34049 0.587289 0.200793
0.440314 0.584161 0.22005
0.538933 0.580224 0.247852
0.631525 0.57734 0.272969
0.70837 0.571588 0.282383
0.775189 0.563104 0.285237
0.830457 0.554253 0.304173
0.872984 0.545953 0.344213
0.906645 0.540124 0.393805
0.930205 0.54078 0.451362
0.94789 0.547494 0.508675
0.962997 0.554818 0.562509
0.975937 0.566888 0.611048
0.986099 0.58291 0.654139
0.993072 0.605783 0.694301
0.99707 0.624887 0.738125
0.999603 0.672923 0.773983
0.999603 0.672923 0.773983
0.999603 0.672923 0.773983
0.999603 0.672923 0.773983
0.999603 0.672923 0.773983
0.00708019 0.629679 0.236973
0.00708019 0.629679 0.236973
0.00708019 0.629526 0.236805
0.00708019 0.629526 0.236805
0.00802625 0.63122 0.23621
0.0101778 0.633768 0.235966
0.0132753 0.635721 0.235859
0.019089 0.637949 0.236362
0.0301976 0.640528 0.236255
0.0503243 0.643488 0.234897
0.0925154 0.646082 0.233249
0.183093 0.646494 0.238178
0.29807 0.645029 0.248783
0.402792 0.643 0.261906
0.502495 0.639399 0.283406
0.597726 0.63563 0.314382
0.683131 0.633326 0.340627
0.754879 0.628275 0.349966
0.816083 0.620645 0.353445
0.863935 0.61294 0.375586
0.901274 0.605493 0.41561
0.928847 0.601022 0.464347
0.948928 0.601694 0.518181
0.963409 0.607279 0.570993
0.97557 0.614847 0.618952
0.986816 0.625406 0.662867
0.994263 0.640253 0.700069
0.997986 0.660426 0.736248
0.999664 0.674342 0.773953
0.999603 0.672923 0.773983
0.999603 0.672923 0.773983
0.999603 0.672923 0.773983
0.999603 0.672923 0.773983
0.0106355 0.681041 0.297856
0.0106203 0.680903 0.297688
0.0106203 0.680903 0.297688
0.0106203 0.680903 0.297688
0.0112306 0.681514 0.297444
0.0129549 0.683345 0.297353
0.0164797 0.685069 0.297292
0.0225834 0.686824 0.297688
0.0328069 0.68893 0.298451
0.0499733 0.691249 0.29865
0.0792554 0.694102 0.297307
0.130282 0.696986 0.294591
0.238605 0.697139 0.30071
0.365911 0.696086 0.31194
0.464454 0.694438 0.326635
0.559091 0.6907 0.349416
0.649195 0.686366 0.382589
0.729183 0.684489 0.411597
0.795087 0.679667 0.423835
0.849836 0.672206 0.427573
0.891707 0.665904 0.447898
0.923247 0.660197 0.485817
0.946685 0.656199 0.530694
0.963607 0.656184 0.579324
0.975601 0.661875 0.626734
0.985794 0.668406 0.6701
0.994079 0.677775 0.708415
0.998672 0.691615 0.74165
1 0.706157 0.771344
0.99968 0.674708 0.773953
0.999603 0.672923 0.773983
0.999603 0.672923 0.773983
0.999603 0.672923 0.773983
0.0182345 0.726635 0.362615
0.0182345 0.726635 0.362615
0.018204 0.726528 0.362417
0.018204 0.726528 0.362417
0.018204 0.726528 0.362417
0.0213931 0.728008 0.3626
0.0251011 0.729305 0.362631
0.0296483 0.730938 0.363012
0.0378271 0.732769 0.363821
0.0541848 0.734554 0.365118
0.0827649 0.736645 0.36669
0.125505 0.739254 0.365026
0.197955 0.742138 0.362799
0.311345 0.742184 0.369894
0.429389 0.74107 0.381506
0.525353 0.739574 0.397467
0.613626 0.73547 0.421683
0.696498 0.731517 0.454963
0.769985 0.729702 0.48159
0.829374 0.725704 0.49102
0.878538 0.719615 0.494224
0.915297 0.713634 0.5149
0.941283 0.708751 0.550057
0.960906 0.705608 0.590585
0.974929 0.705943 0.63505
0.984817 0.71014 0.677363
0.992676 0.71606 0.715373
0.998642 0.724117 0.748898
1 0.734798 0.776089
1 0.715145 0.771893
0.99971 0.675364 0.773953
0.999603 0.672923 0.773983
0.999603 0.672923 0.773983
0.0304723 0.767559 0.429953
0.0304723 0.767559 0.429953
0.0304723 0.767559 0.429953
0.0304723 0.767559 0.429953
0.0304723 0.767559 0.429953
0.0321355 0.767865 0.429908
0.0361486 0.768765 0.430274
0.0412909 0.769833 0.430747
0.047776 0.771191 0.431418
0.0581521 0.772747 0.43241
0.0824445 0.774533 0.434272
0.129686 0.776471 0.435798
0.189868 0.778912 0.434638
0.27396 0.781384 0.43331
0.382406 0.781704 0.439902
0.493568 0.780896 0.451316
0.582391 0.779446 0.466712
0.661845 0.775631 0.490318
0.737835 0.771374 0.521309
0.804608 0.770138 0.545937
0.858793 0.766155 0.556298
0.902464 0.760296 0.560555
0.933272 0.755505 0.577874
0.9561 0.751812 0.608896
0.972168 0.749569 0.645441
0.983841 0.749249 0.68481
0.991897 0.753262 0.721874
0.997833 0.758144 0.755474
0.999802 0.763607 0.782757
1 0.748028 0.779599
1 0.725521 0.773861
0.999741 0.676112 0.773938
0.999603 0.672923 0.773983
0.0453498 0.803113 0.496254
0.0453498 0.803113 0.496254
0.0453498 0.803113 0.496254
0.0453498 0.803113 0.496254
0.0453498 0.803113 0.496254
0.0452735 0.803021 0.496086
0.0491798 0.80351 0.4963
0.0571908 0.804364 0.496818
0.0673228 0.805432 0.497536
0.0803845 0.80679 0.498512
0.0980087 0.808316 0.499611
0.129534 0.810147 0.501183
0.187991 0.811994 0.502998
0.262867 0.814084 0.502007
0.35024 0.816159 0.500694
0.454612 0.816373 0.506844
0.557244 0.815824 0.516991
0.633173 0.814511 0.531731
0.705943 0.810666 0.553536
0.775387 0.80679 0.583444
0.835935 0.8056 0.606104
0.884016 0.802853 0.615412
0.921477 0.797955 0.617411
0.949538 0.793133 0.633143
0.967605 0.789746 0.66186
0.981003 0.787991 0.694224
0.990524 0.788312 0.728908
0.996551 0.791058 0.761303
0.999527 0.794202 0.789471
0.999512 0.783032 0.786984
0.999756 0.765545 0.783123
1 0.737179 0.776715
0.999786 0.677211 0.773922
0.0745251 0.834684 0.556146
0.0745251 0.834684 0.556146
0.0745251 0.834684 0.556146
0.0745251 0.834684 0.556146
0.0745251 0.834684 0.556146
0.0745251 0.834684 0.556146
0.0745251 0.834684 0.556146
0.0814069 0.835142 0.556435
0.092256 0.835828 0.556924
0.106691 0.836622 0.557458
0.127077 0.837751 0.558419
0.155489 0.839078 0.559838
0.19852 0.840482 0.561685
0.264302 0.842069 0.563684
0.343282 0.844038 0.56321
0.429999 0.845991 0.562615
0.522576 0.846479 0.568246
0.610407 0.846006 0.578195
0.68014 0.845029 0.59147
0.744915 0.841596 0.612146
0.807858 0.837873 0.639094
0.862303 0.836545 0.6598
0.90428 0.833692 0.667994
0.938521 0.829129 0.670802
0.961028 0.825727 0.684504
0.977035 0.823407 0.708583
0.9879 0.821973 0.737209
0.995407 0.821607 0.767849
0.999191 0.823453 0.794659
0.999268 0.815976 0.793225
0.999512 0.804044 0.791424
0.999496 0.784909 0.787442
0.999969 0.751308 0.780285
0.109514 0.861875 0.612543
0.109514 0.861875 0.612543
0.109514 0.861875 0.612543
0.109514 0.861875 0.612543
0.109514 0.861875 0.612543
0.109514 0.861875 0.612543
0.109514 0.861875 0.612543
0.109514 0.861875 0.612543
0.117632 0.862272 0.612879
0.13167 0.862882 0.613291
0.152758 0.863722 0.614084
0.187762 0.864836 0.615183
0.231418 0.866087 0.616571
0.285969 0.867536 0.618814
0.352743 0.869078 0.621393
0.422919 0.870909 0.621027
0.503151 0.872602 0.619867
0.583658 0.872694 0.625406
0.662257 0.872129 0.63357
0.722011 0.871229 0.646082
0.780957 0.867964 0.664714
0.837446 0.864088 0.689082
0.884779 0.863325 0.708247
0.922942 0.861128 0.71632
0.951034 0.857313 0.718212
0.971298 0.854002 0.729519
0.984268 0.851621 0.750652
0.993423 0.85034 0.77586
0.998764 0.850141 0.80061
0.998993 0.844999 0.799252
0.999069 0.837354 0.797559
0.999161 0.825757 0.795117
0.999466 0.806195 0.791745
0.16669 0.885222 0.663111
0.16669 0.885222 0.663111
0.16669 0.885222 0.663111
0.16669 0.885222 0.663111
0.16669 0.885222 0.663111
0.16669 0.885222 0.663111
0.16669 0.885222 0.663111
0.16669 0.885222 0.663111
0.166506 0.885161 0.662974
0.179721 0.885512 0.663371
0.201709 0.886076 0.663966
0.230808 0.886809 0.664744
0.266743 0.887724 0.665675
0.315068 0.888716 0.666941
0.377264 0.88983 0.669062
0.444099 0.891005 0.67126
0.506737 0.89247 0.671077
0.571466 0.893996 0.67071
0.641016 0.894347 0.675456
0.707225 0.894224 0.683803
0.760159 0.893629 0.695445
0.812436 0.890669 0.712077
0.861631 0.887572 0.734203
0.905303 0.886183 0.751492
0.937087 0.884321 0.758343
0.962325 0.880995 0.759777
0.978943 0.878553 0.769329
0.990127 0.876875 0.787076
0.996445 0.875532 0.807904
0.996796 0.871778 0.806912
0.997299 0.866377 0.805493
0.998001 0.858763 0.803281
0.998962 0.847364 0.799786
0.251545 0.905135 0.709041
0.251545 0.905135 0.709041
0.251545 0.905135 0.709041
0.251545 0.905135 0.709041
0.251545 0.905135 0.709041
0.251545 0.905135 0.709041
0.251545 0.905135 0.709041
0.251545 0.905135 0.709041
0.251545 0.905135 0.709041
0.251545 0.905135 0.709041
0.26566 0.905455 0.709438
0.290929 0.905974 0.710018
0.323812 0.9066 0.710643
0.364004 0.907408 0.711574
0.409323 0.908385 0.713024
0.463279 0.909377 0.715007
0.5234 0.910506 0.717327
0.575769 0.911894 0.717449
0.630259 0.913298 0.717357
0.691447 0.913542 0.72195
0.748455 0.913191 0.729046
0.794064 0.912703 0.739223
0.83946 0.910048 0.754467
0.884657 0.906859 0.773693
0.921004 0.90631 0.789014
0.949508 0.904768 0.795117
0.970626 0.902007 0.796658
0.985061 0.899718 0.804715
0.994369 0.897917 0.818128
0.994827 0.895628 0.816617
0.995392 0.892348 0.814603
0.995651 0.887633 0.812573
0.996033 0.880735 0.809583
0.353506 0.922545 0.750271
0.353506 0.922545 0.750271
0.353506 0.922545 0.750271
0.353506 0.922545 0.750271
0.353506 0.922545 0.750271
0.353506 0.922545 0.750271
0.353506 0.922545 0.750271
0.353506 0.922545 0.750271
0.353231 0.922499 0.750164
0.353231 0.922499 0.750164
0.353231 0.922499 0.750164
0.368154 0.922774 0.750546
0.39089 0.923201 0.751095
0.419394 0.923735 0.751766
0.453788 0.924346 0.752544
0.497505 0.925139 0.753887
0.543099 0.925948 0.755856
0.592691 0.926863 0.758312
0.639094 0.927977 0.758267
0.683772 0.929229 0.757916
0.735973 0.929595 0.762005
0.783688 0.929595 0.768231
0.823133 0.92932 0.778088
0.864546 0.92697 0.791287
0.902281 0.924208 0.808194
0.935561 0.923079 0.821775
0.959609 0.921889 0.828244
0.978012 0.919417 0.828428
0.990051 0.917464 0.834028
0.990387 0.916045 0.8327
0.99086 0.914015 0.830777
0.991531 0.911192 0.828092
0.992493 0.907179 0.824308
0.450706 0.936873 0.786297
0.450706 0.936873 0.786297
0.450706 0.936873 0.786297
0.450706 0.936873 0.786297
0.450706 0.936873 0.786297
0.450706 0.936873 0.786297
0.450706 0.936873 0.786297
0.450706 0.936873 0.786297
0.450706 0.936873 0.786297
0.450706 0.936873 0.786297
0.450706 0.936873 0.786297
0.450706 0.936873 0.786297
0.463783 0.937087 0.786572
0.484947 0.937499 0.787121
0.5093 0.937972 0.787823
0.538094 0.938582 0.788754
0.572519 0.939269 0.790021
0.61239 0.939941 0.792096
0.65388 0.940688 0.794064
0.693538 0.941634 0.794446
0.731807 0.942672 0.794461
0.775677 0.942962 0.797726
0.81593 0.942794 0.803662
0.850797 0.942473 0.811643
0.885191 0.940291 0.823819
