Luts/Nikon/RED_FilmBiasOffset_Rec2020_N-Log_to_Rec709_BT1886_VLog.cube
TITLE "Generated by Resolve"
#LUMIXPHOTOSTYLE VLOG
LUT_3D_SIZE 9
0 0 0
0 0 0
0.0423438 0.0423438 0.0423438
0.175097 0.175097 0.175113
0.342351 0.342367 0.342382
0.513512 0.513527 0.513558
0.679438 0.679454 0.6795
0.837613 0.837629 0.837659
0.837613 0.837629 0.837659
0.00262455 0.00262455 0.00262455
0.00677501 0.00677501 0.00677501
0.0746014 0.0746014 0.0746014
0.192187 0.192187 0.192203
0.342351 0.342367 0.342382
0.513512 0.513527 0.513558
0.679438 0.679454 0.6795
0.837613 0.837629 0.837659
0.837613 0.837629 0.837659
0.11342 0.11342 0.113436
0.115114 0.115114 0.115114
0.169924 0.169924 0.16994
0.264805 0.264805 0.264836
0.390631 0.390646 0.390677
0.514244 0.51426 0.51429
0.679438 0.679454 0.6795
0.837613 0.837629 0.837659
0.837613 0.837629 0.837659
0.288609 0.288609 0.288624
0.288029 0.288045 0.28806
0.3149 0.314916 0.314946
0.382239 0.382239 0.382269
0.472023 0.472038 0.472068
0.569863 0.569879 0.569924
0.680186 0.680201 0.680232
0.837613 0.837629 0.837659
0.837613 0.837629 0.837659
0.473472 0.473487 0.473533
0.47332 0.473335 0.473365
0.482338 0.482353 0.482399
0.517311 0.517327 0.517372
0.575219 0.575235 0.575265
0.65362 0.653635 0.653666
0.746578 0.746593 0.746624
0.838117 0.838117 0.838163
0.837613 0.837629 0.837659
0.636713 0.636728 0.636759
0.636713 0.636728 0.636759
0.641703 0.641718 0.641749
0.660853 0.660853 0.660899
0.699153 0.699168 0.699199
0.758511 0.758511 0.758556
0.826749 0.826764 0.826795
0.890211 0.890227 0.890242
0.839124 0.839139 0.83917
0.808637 0.808637 0.808682
0.808637 0.808637 0.808682
0.808637 0.808637 0.808682
0.814145 0.81416 0.814206
0.831418 0.831418 0.831464
0.86183 0.86183 0.86186
0.901091 0.901106 0.901137
0.937804 0.937804 0.937835
0.92929 0.92929 0.92932
0.921798 0.921798 0.921828
0.921798 0.921798 0.921828
0.921798 0.921798 0.921828
0.921798 0.921798 0.921828
0.925551 0.925566 0.925597
0.935805 0.935821 0.935836
0.95259 0.95259 0.952605
0.97113 0.97113 0.971145
0.970886 0.970886 0.970901
0.921798 0.921798 0.921828
0.921798 0.921798 0.921828
0.921798 0.921798 0.921828
0.921798 0.921798 0.921828
0.921798 0.921798 0.921828
0.931807 0.931807 0.931838
0.95111 0.95111 0.951125
0.970779 0.970779 0.970794
0.97113 0.97113 0.971145
0 0 0
0 0 0
0.0442817 0.0442817 0.0442817
0.1776 0.177615 0.177615
0.343999 0.344015 0.344045
0.513405 0.51342 0.513451
0.679438 0.679454 0.6795
0.837613 0.837629 0.837659
0.837613 0.837629 0.837659
0.000869764 0.000869764 0.000869764
0 0 0
0.0671855 0.0671855 0.0672007
0.187732 0.187732 0.187747
0.343572 0.343572 0.343603
0.513405 0.51342 0.513451
0.679438 0.679454 0.6795
0.837613 0.837629 0.837659
0.837613 0.837629 0.837659
0.109392 0.109392 0.109407
0.109209 0.109209 0.109209
0.165072 0.165072 0.165087
0.261555 0.26157 0.261585
0.387549 0.387549 0.387594
0.513405 0.51342 0.513451
0.679438 0.679454 0.6795
0.837613 0.837629 0.837659
0.837613 0.837629 0.837659
0.286519 0.286519 0.286549
0.285847 0.285863 0.285893
0.311513 0.311513 0.311543
0.379782 0.379782 0.379812
0.470298 0.470314 0.470344
0.568627 0.568643 0.568689
0.679438 0.679454 0.6795
0.837613 0.837629 0.837659
0.837613 0.837629 0.837659
0.472679 0.472694 0.47274
0.47248 0.472496 0.472541
0.480903 0.480919 0.480949
0.516091 0.516106 0.516152
0.574411 0.574411 0.574456
0.65301 0.65301 0.653056
0.746181 0.746197 0.746242
0.837873 0.837873 0.837919
0.837613 0.837629 0.837659
0.636454 0.636469 0.6365
0.636332 0.636347 0.636378
0.641108 0.641123 0.641154
0.660365 0.660365 0.66041
0.69868 0.698695 0.698726
0.758312 0.758328 0.758358
0.826658 0.826658 0.826703
0.89015 0.89015 0.890181
0.838865 0.83888 0.838911
0.808637 0.808637 0.808682
0.808637 0.808637 0.808682
0.808515 0.80853 0.80856
0.814038 0.814054 0.814099
0.831342 0.831357 0.831388
0.861784 0.861784 0.861814
0.901015 0.90103 0.901061
0.937804 0.937804 0.937835
0.929259 0.929259 0.92929
0.921798 0.921798 0.921828
0.921798 0.921798 0.921828
0.921798 0.921798 0.921828
0.921798 0.921798 0.921828
0.925536 0.925551 0.925566
0.93579 0.935805 0.935821
0.95259 0.95259 0.952605
0.97113 0.97113 0.971145
0.970886 0.970886 0.970901
0.921798 0.921798 0.921828
0.921798 0.921798 0.921828
0.921798 0.921798 0.921828
0.921798 0.921798 0.921828
0.921798 0.921798 0.921828
0.931792 0.931792 0.931823
0.951095 0.951095 0.95111
0.970779 0.970779 0.970794
0.97113 0.97113 0.971145
0 0 0
0 0 0
0.0642252 0.0642252 0.0642252
0.192355 0.192355 0.19237
0.35491 0.35491 0.35494
0.517937 0.517937 0.517983
0.679652 0.679667 0.679713
0.837613 0.837629 0.837659
0.837613 0.837629 0.837659
0.00241093 0.00241093 0.00241093
0.00587472 0.00587472 0.00587472
0.0760815 0.0760815 0.0760967
0.193759 0.193774 0.193774
0.354498 0.354498 0.354528
0.517678 0.517678 0.517723
0.679622 0.679637 0.679667
0.837613 0.837629 0.837659
0.837613 0.837629 0.837659
0.117205 0.117205 0.11722
0.117372 0.117372 0.117388
0.171008 0.171008 0.171023
0.266468 0.266468 0.266499
0.391073 0.391073 0.391119
0.51751 0.517525 0.517555
0.679438 0.679454 0.679484
0.837613 0.837629 0.837659
0.837613 0.837629 0.837659
0.289494 0.289509 0.289525
0.288823 0.288823 0.288853
0.313954 0.313954 0.313985
0.381903 0.381918 0.381949
0.471839 0.471855 0.471901
0.568902 0.568917 0.568963
0.679316 0.679332 0.679377
0.837613 0.837629 0.837659
0.837613 0.837629 0.837659
0.473121 0.473121 0.473167
0.472999 0.473014 0.47306
0.481209 0.481209 0.481254
0.516182 0.516197 0.516243
0.574502 0.574517 0.574548
0.652857 0.652873 0.652918
0.745632 0.745647 0.745693
0.837613 0.837629 0.837659
0.837613 0.837629 0.837659
0.636072 0.636088 0.636118
0.636072 0.636088 0.636118
0.640269 0.640284 0.64033
0.659709 0.659724 0.65977
0.698314 0.698329 0.69836
0.758053 0.758053 0.758099
0.826444 0.826459 0.82649
0.890043 0.890059 0.890074
0.838621 0.838636 0.838682
0.808515 0.80853 0.80856
0.808515 0.80853 0.80856
0.808515 0.80853 0.80856
0.813809 0.813825 0.813855
0.831174 0.831174 0.83122
0.861692 0.861692 0.861723
0.900984 0.900984 0.901015
0.937774 0.937774 0.937804
0.929244 0.929244 0.929274
0.921798 0.921798 0.921828
0.921798 0.921798 0.921828
0.921798 0.921798 0.921828
0.921798 0.921798 0.921828
0.925505 0.925521 0.925551
0.935775 0.93579 0.935805
0.952575 0.952575 0.952605
0.97113 0.97113 0.971145
0.970886 0.970886 0.970901
0.921798 0.921798 0.921828
0.921798 0.921798 0.921828
0.921798 0.921798 0.921828
0.921798 0.921798 0.921828
0.921798 0.921798 0.921828
0.931777 0.931777 0.931807
0.951095 0.951095 0.95111
0.970779 0.970779 0.970794
0.97113 0.97113 0.971145
0.0505989 0.0505989 0.0505989
0.0534676 0.0534676 0.0534676
0.124163 0.124163 0.124178
0.235889 0.235904 0.23592
0.3823 0.382315 0.382345
0.530602 0.530617 0.530663
0.6851 0.685115 0.685145
0.837842 0.837842 0.837873
0.837613 0.837629 0.837659
0.0498817 0.0498817 0.0498817
0.0518807 0.0518807 0.0518807
0.123095 0.12311 0.12311
0.235233 0.235233 0.235248
0.381964 0.381979 0.38201
0.530495 0.53051 0.530556
0.685039 0.685054 0.685084
0.837827 0.837827 0.837858
0.837613 0.837629 0.837659
0.138125 0.13814 0.13814
0.135882 0.135882 0.135882
0.187442 0.187442 0.187457
0.279637 0.279637 0.279667
0.399985 0.399985 0.400031
0.530266 0.530282 0.530327
0.684977 0.684993 0.685023
0.837812 0.837812 0.837842
0.837613 0.837629 0.837659
0.298543 0.298543 0.298573
0.297749 0.297749 0.29778
0.320867 0.320867 0.320897
0.388144 0.388144 0.38819
0.475685 0.4757 0.475731
0.572061 0.572076 0.572122
0.684794 0.68481 0.68484
0.837751 0.837751 0.837781
0.837613 0.837629 0.837659
0.47567 0.475685 0.475715
0.475456 0.475456 0.475502
0.48278 0.482795 0.482841
0.518242 0.518257 0.518288
0.576089 0.576104 0.57615
0.654292 0.654307 0.654353
0.746303 0.746319 0.746349
0.837613 0.837629 0.837659
0.837613 0.837629 0.837659
0.637201 0.637217 0.637247
0.637186 0.637201 0.637232
0.640589 0.640604 0.64065
0.660121 0.660121 0.660166
0.69865 0.698665 0.698711
0.758221 0.758221 0.758267
0.826383 0.826383 0.826429
0.889754 0.889754 0.889784
0.837797 0.837797 0.837842
0.808301 0.808316 0.808347
0.808194 0.808209 0.80824
0.808194 0.808209 0.80824
0.813184 0.813199 0.81323
0.830655 0.830671 0.830701
0.861372 0.861372 0.861402
0.900832 0.900847 0.900877
0.937697 0.937697 0.937728
0.929122 0.929122 0.929152
0.921798 0.921798 0.921828
0.921798 0.921798 0.921828
0.921798 0.921798 0.921828
0.921798 0.921798 0.921828
0.925444 0.92546 0.925475
0.935729 0.935744 0.93576
0.952575 0.952575 0.95259
0.97113 0.97113 0.971145
0.970871 0.970871 0.970886
0.921798 0.921798 0.921828
0.921798 0.921798 0.921828
0.921798 0.921798 0.921828
0.921798 0.921798 0.921828
0.921798 0.921798 0.921828
0.931716 0.931716 0.931746
0.95108 0.95108 0.951095
0.970764 0.970764 0.970779
0.97113 0.97113 0.971145
0.227146 0.227146 0.227161
0.227146 0.227146 0.227161
0.245731 0.245747 0.245762
0.328405 0.328405 0.328435
0.441474 0.441489 0.44152
0.56199 0.562005 0.562051
0.701152 0.701152 0.701198
0.84271 0.842725 0.842756
0.838331 0.838346 0.838376
0.226871 0.226871 0.226886
0.226734 0.226734 0.226749
0.24509 0.24509 0.245106
0.328038 0.328054 0.328069
0.441276 0.441291 0.441321
0.561898 0.561913 0.561959
0.701122 0.701122 0.701167
0.842695 0.84271 0.842741
0.838315 0.838331 0.838361
0.226444 0.226444 0.226459
0.226307 0.226307 0.226322
0.244251 0.244266 0.244282
0.327367 0.327367 0.327398
0.441016 0.441032 0.441062
0.56173 0.561746 0.561791
0.70106 0.701076 0.701122
0.84268 0.842695 0.842725
0.8383 0.838315 0.838346
0.33164 0.33164 0.33167
0.330953 0.330953 0.330983
0.343359 0.343359 0.343389
0.404913 0.404929 0.404959
0.487984 0.487999 0.488045
0.581613 0.581628 0.581674
0.700801 0.700816 0.700862
0.842634 0.842649 0.84268
0.838254 0.83827 0.8383
0.486091 0.486107 0.486137
0.485908 0.485924 0.485954
0.489296 0.489296 0.489342
0.524056 0.524071 0.524102
0.580865 0.58088 0.580911
0.658503 0.658518 0.658549
0.749676 0.749691 0.749722
0.842481 0.842496 0.842527
0.838102 0.838102 0.838148
0.644038 0.644053 0.644083
0.644022 0.644038 0.644068
0.6439 0.643915 0.643946
0.66244 0.662455 0.662501
0.70074 0.70074 0.700786
0.759716 0.759731 0.759777
0.827451 0.827466 0.827497
0.890303 0.890303 0.890333
0.837613 0.837629 0.837659
0.810056 0.810071 0.810101
0.809949 0.809964 0.809995
0.809949 0.809964 0.809995
0.813489 0.813504 0.813535
0.830884 0.8309 0.83093
0.86157 0.861585 0.861616
0.900923 0.900923 0.900954
0.937697 0.937697 0.937728
0.928832 0.928832 0.928862
0.921798 0.921798 0.921828
0.921798 0.921798 0.921828
0.921798 0.921798 0.921828
0.921798 0.921798 0.921828
0.925216 0.925231 0.925246
0.935576 0.935592 0.935607
0.952514 0.952514 0.952529
0.97113 0.97113 0.971145
0.97081 0.97081 0.970825
0.921798 0.921798 0.921828
0.921798 0.921798 0.921828
0.921798 0.921798 0.921828
0.921798 0.921798 0.921828
0.921798 0.921798 0.921828
0.931533 0.931533 0.931563
0.951003 0.951003 0.951019
0.970748 0.970748 0.970764
0.97113 0.97113 0.971145
0.438483 0.438499 0.438529
0.438346 0.438361 0.438392
0.438346 0.438361 0.438392
0.459556 0.459571 0.459602
0.531426 0.531441 0.531472
0.623072 0.623087 0.623117
0.738033 0.738048 0.738079
0.856519 0.856519 0.856565
0.853056 0.853071 0.853101
0.438346 0.438361 0.438392
0.438346 0.438361 0.438392
0.438346 0.438361 0.438392
0.459312 0.459327 0.459358
0.531212 0.531228 0.531258
0.623072 0.623087 0.623117
0.737987 0.738003 0.738048
0.856519 0.856519 0.856565
0.85304 0.853056 0.853086
0.438193 0.438209 0.438254
0.438193 0.438209 0.438254
0.438193 0.438209 0.438254
0.459037 0.459052 0.459083
0.531044 0.53106 0.53109
0.623011 0.623026 0.623072
0.737865 0.737881 0.737926
0.856504 0.856519 0.85655
0.853025 0.85304 0.853071
0.437781 0.437797 0.437842
0.437781 0.437797 0.437842
0.437781 0.437797 0.437842
0.458213 0.458213 0.458259
0.530694 0.530709 0.530739
0.622782 0.622797 0.622827
0.737804 0.737819 0.73785
0.856458 0.856474 0.856504
0.852979 0.852995 0.853025
0.529946 0.529946 0.529992
0.529763 0.529778 0.529824
0.529519 0.529519 0.529564
0.541772 0.541787 0.541833
0.595712 0.595728 0.595773
0.670939 0.670954 0.671
0.759625 0.759625 0.75967
0.856321 0.856336 0.856367
0.852842 0.852857 0.852888
0.664164 0.664179 0.66421
0.664057 0.664073 0.664118
0.663966 0.663981 0.664027
0.669017 0.669032 0.669078
0.70692 0.70692 0.706966
0.764202 0.764218 0.764263
0.830945 0.830961 0.830991
0.892699 0.892714 0.892744
0.852399 0.852415 0.852445
0.816541 0.816556 0.816587
0.816449 0.816464 0.816495
0.816449 0.816464 0.816495
0.816434 0.816449 0.81648
0.83238 0.83238 0.83241
0.862776 0.862776 0.862806
0.901869 0.901869 0.9019
0.93846 0.93846 0.938491
0.929488 0.929488 0.929519
0.923568 0.923568 0.923598
0.923568 0.923568 0.923598
0.923568 0.923568 0.923598
0.923568 0.923568 0.923598
0.925872 0.925887 0.925917
0.936172 0.936172 0.936202
0.952865 0.95288 0.952895
0.971389 0.971389 0.971405
0.970794 0.970794 0.97081
0.921798 0.921798 0.921828
0.921798 0.921798 0.921828
0.921798 0.921798 0.921828
0.921798 0.921798 0.921828
0.921798 0.921798 0.921828
0.930953 0.930953 0.930983
0.950774 0.950774 0.95079
0.970687 0.970687 0.970703
0.97113 0.97113 0.971145
0.623087 0.623102 0.623148
0.623087 0.623102 0.623148
0.623087 0.623102 0.623148
0.623087 0.623102 0.623148
0.643626 0.643641 0.643687
0.714595 0.714611 0.714656
0.800168 0.800183 0.800214
0.885496 0.885496 0.885527
0.883696 0.883696 0.883726
0.623087 0.623102 0.623148
0.623087 0.623102 0.623148
0.623087 0.623102 0.623148
0.623087 0.623102 0.623148
0.643595 0.64361 0.643641
0.714549 0.714565 0.714611
0.800168 0.800183 0.800214
0.885481 0.885481 0.885512
0.883665 0.88368 0.883711
0.623087 0.623102 0.623148
0.623087 0.623102 0.623148
0.623087 0.623102 0.623148
0.622965 0.62298 0.623026
0.643549 0.643565 0.64361
0.714549 0.714565 0.714611
0.800122 0.800122 0.800168
0.885481 0.885481 0.885512
0.883665 0.88368 0.883711
0.622965 0.62298 0.623026
0.622965 0.62298 0.623026
0.622965 0.62298 0.623026
0.622965 0.62298 0.623026
0.64332 0.643336 0.643381
0.714427 0.714443 0.714488
0.800122 0.800122 0.800168
0.885451 0.885451 0.885481
0.88365 0.88365 0.88368
0.622583 0.622599 0.622644
0.622583 0.622599 0.622644
0.622583 0.622599 0.622644
0.622583 0.622599 0.622644
0.642542 0.642557 0.642603
0.714092 0.714107 0.714153
0.799893 0.799908 0.799939
0.885405 0.885405 0.885435
0.883574 0.883574 0.883604
0.710994 0.711009 0.71104
0.710994 0.711009 0.71104
0.710948 0.710964 0.710994
0.710719 0.710735 0.710765
0.724056 0.724071 0.724102
0.777829 0.777844 0.777874
0.841047 0.841047 0.841077
0.899901 0.899901 0.899931
0.883345 0.88336 0.883391
0.833463 0.833478 0.833509
0.833387 0.833402 0.833432
0.833387 0.833402 0.833432
0.83331 0.833326 0.833356
0.838087 0.838102 0.838132
0.867033 0.867048 0.867079
0.904677 0.904692 0.904723
0.940459 0.940459 0.94049
0.932342 0.932357 0.932372
0.928817 0.928832 0.928847
0.928817 0.928832 0.928847
0.928817 0.928832 0.928847
0.928817 0.928832 0.928847
0.928817 0.928832 0.928847
0.938445 0.93846 0.938476
0.954269 0.954284 0.954299
0.972244 0.972259 0.972274
0.971328 0.971344 0.971359
0.927047 0.927062 0.927077
0.927047 0.927062 0.927077
0.927047 0.927062 0.927077
0.927047 0.927062 0.927077
0.927047 0.927062 0.927077
0.932998 0.932998 0.933028
0.952087 0.952102 0.952117
0.971435 0.97145 0.971466
0.971954 0.971969 0.971984
0.80174 0.801755 0.801785
0.80174 0.801755 0.801785
0.80174 0.801755 0.801785
0.80174 0.801755 0.801785
0.80174 0.801755 0.801785
0.819715 0.81973 0.81976
0.872648 0.872663 0.872694
0.924071 0.924071 0.924102
0.925048 0.925048 0.925078
0.80174 0.801755 0.801785
0.80174 0.801755 0.801785
0.80174 0.801755 0.801785
0.80174 0.801755 0.801785
0.80174 0.801755 0.801785
0.819699 0.819715 0.819745
0.872648 0.872663 0.872694
0.924071 0.924071 0.924102
0.925048 0.925048 0.925078
0.80174 0.801755 0.801785
0.80174 0.801755 0.801785
0.80174 0.801755 0.801785
0.80174 0.801755 0.801785
0.80174 0.801755 0.801785
0.819684 0.819699 0.81973
0.872618 0.872633 0.872663
0.924071 0.924071 0.924102
0.925048 0.925048 0.925078
0.80174 0.801755 0.801785
0.80174 0.801755 0.801785
0.80174 0.801755 0.801785
0.80174 0.801755 0.801785
0.80174 0.801755 0.801785
0.819654 0.819669 0.819699
0.872618 0.872633 0.872663
0.924041 0.924041 0.924071
0.925017 0.925032 0.925048
0.801633 0.801648 0.801678
0.801633 0.801648 0.801678
0.801633 0.801648 0.801678
0.801633 0.801648 0.801678
0.801633 0.801648 0.801678
0.81944 0.819455 0.819486
0.872526 0.872541 0.872572
0.92401 0.92401 0.924041
0.925017 0.925032 0.925048
0.801282 0.801297 0.801328
0.801282 0.801297 0.801328
0.801282 0.801297 0.801328
0.801282 0.801297 0.801328
0.801282 0.801297 0.801328
0.818891 0.818906 0.818936
0.872297 0.872312 0.872343
0.923888 0.923888 0.923919
0.924941 0.924941 0.924956
0.869169 0.869184 0.869215
0.869169 0.869184 0.869215
0.869169 0.869184 0.869215
0.869139 0.869154 0.869184
0.869001 0.869001 0.869047
0.878614 0.87863 0.87866
0.912703 0.912703 0.912734
0.945403 0.945403 0.945434
0.940261 0.940261 0.940291
0.941131 0.941146 0.941161
0.941131 0.941146 0.941161
0.941085 0.9411 0.941115
0.941085 0.9411 0.941115
0.941085 0.9411 0.941115
0.943374 0.943374 0.943404
0.957656 0.957656 0.957671
0.973907 0.973907 0.973938
0.97319 0.97319 0.97322
0.9411 0.941115 0.941131
0.9411 0.941115 0.941131
0.9411 0.941115 0.941131
0.9411 0.941115 0.941131
0.9411 0.941115 0.941131
0.941085 0.9411 0.941131
0.956619 0.956619 0.956634
0.974197 0.974197 0.974212
0.975189 0.975189 0.975204
0.803601 0.803616 0.803647
0.803601 0.803616 0.803647
0.803601 0.803616 0.803647
0.803601 0.803616 0.803647
0.803601 0.803616 0.803647
0.803601 0.803616 0.803647
0.847364 0.847379 0.84741
0.918929 0.918929 0.918975
0.926406 0.926406 0.926436
0.803601 0.803616 0.803647
0.803601 0.803616 0.803647
0.803601 0.803616 0.803647
0.803601 0.803616 0.803647
0.803601 0.803616 0.803647
0.803601 0.803616 0.803647
0.847364 0.847379 0.84741
0.918929 0.918929 0.918975
0.926406 0.926406 0.926436
0.803601 0.803616 0.803647
0.803601 0.803616 0.803647
0.803601 0.803616 0.803647
0.803601 0.803616 0.803647
0.803601 0.803616 0.803647
0.803601 0.803616 0.803647
0.847349 0.847364 0.847395
0.918929 0.918929 0.918975
0.926406 0.926406 0.926436
0.803601 0.803616 0.803647
0.803601 0.803616 0.803647
0.803601 0.803616 0.803647
0.803601 0.803616 0.803647
0.803601 0.803616 0.803647
0.803601 0.803616 0.803647
0.847349 0.847364 0.847395
0.918929 0.918929 0.918975
0.926406 0.926406 0.926436
0.803601 0.803616 0.803647
0.803601 0.803616 0.803647
0.803601 0.803616 0.803647
0.803601 0.803616 0.803647
0.803601 0.803616 0.803647
0.803601 0.803616 0.803647
0.847272 0.847288 0.847318
0.918929 0.918929 0.918975
0.926406 0.926406 0.926436
0.803601 0.803616 0.803647
0.803601 0.803616 0.803647
0.803601 0.803616 0.803647
0.803601 0.803616 0.803647
0.803601 0.803616 0.803647
0.803601 0.803616 0.803647
0.847059 0.847074 0.847105
0.918853 0.918868 0.918898
0.926406 0.926406 0.926436
0.803601 0.803616 0.803647
0.803601 0.803616 0.803647
0.803601 0.803616 0.803647
0.803601 0.803616 0.803647
0.803601 0.803616 0.803647
0.803601 0.803616 0.803647
0.846387 0.846403 0.846433
0.91873 0.918746 0.918776
0.926406 0.926406 0.926436
0.927703 0.927703 0.927733
0.927703 0.927703 0.927733
0.927703 0.927703 0.927733
0.927657 0.927657 0.927687
0.927626 0.927626 0.927642
0.927504 0.927504 0.927535
0.939086 0.939101 0.939116
0.965896 0.965911 0.965927
0.967193 0.967208 0.967224
0.942855 0.94287 0.942885
0.942855 0.94287 0.942885
0.942855 0.94287 0.942885
0.942855 0.94287 0.942885
0.942855 0.94287 0.942885
0.942855 0.94287 0.942885
0.949523 0.949523 0.949554
0.972778 0.972778 0.972808
0.975814 0.975814 0.975845
