Luts/Nikon/RED_FilmBias_Rec2020_N-Log_to_Rec709_BT1886_VLog.cube
TITLE "Generated by Resolve"
#LUMIXPHOTOSTYLE VLOG
LUT_3D_SIZE 33
0 0 0
0 0 0
0 0 0
1.5259e-05 0 0
0.0330358 0.0019379 0.00196841
0.0686809 0.00354009 0.00370794
0.09308 0.00392157 0.0049897
0.11957 0.0049897 0.00762951
0.152544 0.00730907 0.0128786
0.192981 0.0112459 0.0203098
0.240497 0.0162661 0.02916
0.295476 0.0221714 0.0393683
0.357931 0.0286107 0.0520485
0.426902 0.0359655 0.0695506
0.496117 0.0446784 0.0907912
0.5664 0.0564889 0.115389
0.636774 0.0698405 0.148821
0.70248 0.087068 0.187823
0.760037 0.107866 0.231617
0.811002 0.135592 0.281605
0.853407 0.169604 0.337194
0.890303 0.211246 0.396262
0.918013 0.2645 0.455436
0.940551 0.323796 0.510887
0.957534 0.385962 0.561669
0.970306 0.446998 0.607431
0.980499 0.500099 0.647654
0.987839 0.546532 0.68188
0.993088 0.58584 0.710979
0.996567 0.618418 0.734691
0.998596 0.645365 0.754131
0.999405 0.667384 0.769985
0.999603 0.672923 0.773983
0 0 0
0 0 0
0 0 0
1.5259e-05 0 0
0.0325017 0.00192264 0.0019379
0.0683757 0.00352483 0.00367742
0.0927596 0.00392157 0.00497444
0.119371 0.00497444 0.00759899
0.152346 0.00729381 0.0128481
0.192752 0.0112154 0.020264
0.240253 0.0162356 0.0291142
0.295232 0.0221561 0.0393225
0.357931 0.0286107 0.0520485
0.426657 0.035935 0.0694896
0.496117 0.0446784 0.0907912
0.5664 0.0564889 0.115389
0.636774 0.0698405 0.148821
0.702312 0.0870222 0.187701
0.760037 0.107866 0.231617
0.810864 0.1355 0.281453
0.853407 0.169604 0.337194
0.890303 0.211246 0.396262
0.918013 0.2645 0.455436
0.940551 0.323796 0.510887
0.957534 0.385962 0.561669
0.970306 0.446998 0.607431
0.980499 0.500099 0.647654
0.987839 0.546532 0.68188
0.993088 0.58584 0.710979
0.996567 0.618418 0.734691
0.998596 0.645365 0.754131
0.999405 0.667384 0.769985
0.999603 0.672923 0.773983
0 0 0
0 0 0
0 0 0
1.5259e-05 0 0
0.0319524 0.00189212 0.00192264
0.0680552 0.00352483 0.00366217
0.092607 0.00392157 0.00495918
0.118975 0.00494392 0.00753796
0.152148 0.00727855 0.0128176
0.192538 0.0112001 0.0202335
0.240009 0.0162051 0.0290684
0.295232 0.0221561 0.0393225
0.357671 0.0285954 0.0519875
0.426657 0.035935 0.0694896
0.496117 0.0446784 0.0907912
0.5664 0.0564889 0.115389
0.636774 0.0698405 0.148821
0.702312 0.0870222 0.187701
0.760037 0.107866 0.231617
0.810864 0.1355 0.281453
0.853407 0.169604 0.337194
0.890196 0.211109 0.396094
0.918013 0.2645 0.455436
0.940551 0.323796 0.510887
0.957534 0.385962 0.561669
0.970306 0.446998 0.607431
0.980499 0.500099 0.647654
0.987839 0.546532 0.68188
0.993088 0.58584 0.710979
0.996567 0.618418 0.734691
0.998596 0.645365 0.754131
0.999405 0.667384 0.769985
0.999603 0.672923 0.773983
0.000457771 0.00500496 0.000457771
0.000396735 0.0043183 0.000396735
0.000335698 0.00361639 0.000335698
0.000549325 0.00325017 0.00030518
0.0418555 0.00488289 0.00283818
0.076051 0.00436408 0.00361639
0.102892 0.00544747 0.00457771
0.130404 0.00703441 0.00697337
0.163684 0.0096437 0.0126345
0.203662 0.0136568 0.0201267
0.24979 0.0183719 0.0289006
0.301503 0.0234379 0.0390631
0.359197 0.0289006 0.0519417
0.426429 0.0359045 0.0694285
0.495888 0.0446479 0.0907149
0.566201 0.0564431 0.115328
0.636774 0.0698405 0.148821
0.702312 0.0870222 0.187701
0.759869 0.10779 0.231479
0.810864 0.1355 0.281453
0.853407 0.169604 0.337194
0.890196 0.211109 0.396094
0.918013 0.2645 0.455436
0.940551 0.323796 0.510887
0.957534 0.385962 0.561669
0.970306 0.446998 0.607431
0.980499 0.500099 0.647654
0.987839 0.546532 0.68188
0.993088 0.58584 0.710979
0.996567 0.618418 0.734691
0.998596 0.645365 0.754131
0.999405 0.667384 0.769985
0.999603 0.672923 0.773983
0.00244144 0.035874 0.00248722
0.00239567 0.0348821 0.00242618
0.00233463 0.0339055 0.00238041
0.0030518 0.0337377 0.00241093
0.04094 0.0326848 0.00355535
0.0818341 0.026566 0.00395209
0.116381 0.0229038 0.00598154
0.151049 0.0205539 0.00900282
0.190082 0.0204471 0.0144198
0.233265 0.0234226 0.0215
0.281422 0.0270542 0.030045
0.334615 0.0308843 0.0401312
0.394049 0.0378119 0.0522469
0.454231 0.0440986 0.0686198
0.512886 0.0504768 0.0892653
0.571664 0.0590829 0.11368
0.636591 0.0697948 0.148714
0.702312 0.0870222 0.187701
0.759869 0.10779 0.231479
0.810864 0.1355 0.281453
0.853407 0.169604 0.337194
0.890196 0.211109 0.396094
0.918013 0.2645 0.455436
0.940551 0.323796 0.510887
0.957534 0.385962 0.561669
0.970306 0.446998 0.607431
0.980499 0.500099 0.647654
0.987839 0.546532 0.68188
0.993088 0.58584 0.710979
0.996567 0.618418 0.734691
0.998596 0.645365 0.754131
0.999405 0.667384 0.769985
0.999603 0.672923 0.773983
0.00350958 0.0686046 0.0039826
0.00350958 0.0677195 0.00395209
0.00350958 0.0670024 0.00392157
0.00352483 0.0664225 0.00384527
0.0361944 0.0643168 0.00404364
0.0803082 0.060441 0.0047303
0.11902 0.0535439 0.00708019
0.158083 0.0466926 0.010132
0.203143 0.0398108 0.0151827
0.252827 0.0380255 0.0222324
0.306737 0.0395361 0.0305486
0.363256 0.0439918 0.040528
0.422141 0.0487984 0.0532387
0.480293 0.0560769 0.0679942
0.538369 0.0620279 0.088426
0.595468 0.069276 0.112902
0.652247 0.0787671 0.146151
0.703624 0.0880903 0.187152
0.759869 0.10779 0.231479
0.810864 0.1355 0.281453
0.853407 0.169604 0.337194
0.890196 0.211109 0.396094
0.918013 0.2645 0.455436
0.940551 0.323796 0.510887
0.957534 0.385962 0.561669
0.970306 0.446998 0.607431
0.980499 0.500099 0.647654
0.987839 0.546532 0.68188
0.993088 0.58584 0.710979
0.996567 0.618418 0.734691
0.998596 0.645365 0.754131
0.999405 0.667384 0.769985
0.999603 0.672923 0.773983
0.00350958 0.0953384 0.00485237
0.00350958 0.0946365 0.00483711
0.00350958 0.0939193 0.00480659
0.00355535 0.0938735 0.00468452
0.0230869 0.0935531 0.00502022
0.0740063 0.0928359 0.00590524
0.115618 0.0890059 0.00813306
0.157305 0.084184 0.0108339
0.203845 0.0772412 0.0148928
0.257954 0.0707103 0.0213474
0.318456 0.0660258 0.0296483
0.381689 0.0643931 0.0399939
0.442618 0.0652628 0.0527199
0.500648 0.0702068 0.0673686
0.558068 0.0751049 0.0877699
0.614984 0.0811627 0.114076
0.670542 0.0918441 0.14725
0.719081 0.100191 0.183551
0.762661 0.111284 0.230274
0.810864 0.1355 0.281453
0.853407 0.169604 0.337194
0.890196 0.211109 0.396094
0.918013 0.2645 0.455436
0.940551 0.323796 0.510887
0.957534 0.385962 0.561669
0.970306 0.446998 0.607431
0.980499 0.500099 0.647654
0.987839 0.546532 0.68188
0.993088 0.58584 0.710979
0.996567 0.618418 0.734691
0.998596 0.645365 0.754131
0.999405 0.667384 0.769985
0.999603 0.672923 0.773983
0.00350958 0.125582 0.00553903
0.00350958 0.124956 0.00552377
0.00350958 0.124331 0.00550851
0.00354009 0.124865 0.00534066
0.0154116 0.125444 0.00627146
0.0565499 0.125139 0.00791943
0.105028 0.123705 0.0103151
0.152209 0.121019 0.0128023
0.201572 0.115618 0.0158694
0.258793 0.107652 0.0213779
0.324041 0.0993362 0.0290684
0.394186 0.0927443 0.0392462
0.460548 0.0883345 0.0517891
0.520729 0.0882429 0.0670024
0.577523 0.094316 0.0879225
0.633707 0.0993057 0.115389
0.687068 0.107607 0.148135
0.733684 0.115389 0.184909
0.776257 0.127977 0.227039
0.813687 0.140185 0.280201
0.853407 0.169604 0.337194
0.890196 0.211109 0.396094
0.918013 0.2645 0.455436
0.940551 0.323796 0.510887
0.957534 0.385962 0.561669
0.970306 0.446998 0.607431
0.980499 0.500099 0.647654
0.987839 0.546532 0.68188
0.993088 0.58584 0.710979
0.996567 0.618418 0.734691
0.998596 0.645365 0.754131
0.999405 0.667384 0.769985
0.999603 0.672923 0.773983
0.00350958 0.161059 0.00653086
0.00350958 0.160601 0.00650034
0.00350958 0.159915 0.00645457
0.00350958 0.160952 0.00616464
0.0112764 0.162249 0.00776684
0.032517 0.161624 0.0104677
0.0879072 0.16199 0.0132143
0.143008 0.161212 0.0158389
0.196475 0.158648 0.0180819
0.255039 0.153552 0.0224155
0.321584 0.146578 0.0289006
0.396551 0.138109 0.0381628
0.472114 0.128985 0.0509041
0.537499 0.124575 0.0674296
0.59736 0.124773 0.0877852
0.653101 0.126604 0.11548
0.70312 0.131212 0.148104
0.748882 0.139162 0.187381
0.790845 0.147585 0.229969
0.826001 0.162341 0.277424
0.856275 0.176333 0.33611
0.890196 0.211109 0.396094
0.918013 0.2645 0.455436
0.940551 0.323796 0.510887
0.957534 0.385962 0.561669
0.970306 0.446998 0.607431
0.980499 0.500099 0.647654
0.987839 0.546532 0.68188
0.993088 0.58584 0.710979
0.996567 0.618418 0.734691
0.998596 0.645365 0.754131
0.999405 0.667384 0.769985
0.999603 0.672923 0.773983
0.00350958 0.203769 0.00962844
0.00350958 0.203311 0.00959792
0.00350958 0.202853 0.00956741
0.00355535 0.204501 0.00933852
0.00842298 0.206912 0.00927749
0.0330205 0.206714 0.0101167
0.074815 0.206897 0.010956
0.122698 0.206714 0.0126497
0.185565 0.205798 0.0166629
0.24715 0.20296 0.0265049
0.314336 0.198093 0.0351415
0.390387 0.19147 0.0411078
0.470542 0.18265 0.0516976
0.546044 0.17351 0.0678874
0.613199 0.167239 0.0885786
0.671016 0.164691 0.115282
0.719829 0.167163 0.147967
0.763088 0.172107 0.189532
0.803571 0.179492 0.233463
0.838071 0.191257 0.281254
0.86772 0.206943 0.333272
0.893004 0.222766 0.395056
0.918013 0.2645 0.455436
0.940475 0.323583 0.510719
0.957534 0.385962 0.561669
0.970306 0.446998 0.607431
0.980499 0.500099 0.647654
0.987839 0.546532 0.68188
0.993088 0.58584 0.710979
0.996567 0.618418 0.734691
0.998596 0.645365 0.754131
0.999405 0.667384 0.769985
0.999603 0.672923 0.773983
0.00355535 0.253819 0.0194858
0.00354009 0.25333 0.019379
0.00354009 0.253086 0.0193179
0.00360113 0.254719 0.019028
0.00527962 0.258274 0.0183719
0.0163882 0.2598 0.018204
0.057557 0.259236 0.0191043
0.105135 0.258656 0.0208286
0.166232 0.258335 0.0250706
0.233356 0.256748 0.034638
0.305119 0.254246 0.0444038
0.38146 0.249989 0.0511482
0.462928 0.243397 0.0587778
0.545235 0.233555 0.0713207
0.620951 0.222934 0.090898
0.684367 0.215259 0.116594
0.735744 0.213626 0.14902
0.777569 0.216678 0.190112
0.814527 0.222705 0.237247
0.849104 0.23006 0.286488
0.878065 0.243595 0.339086
0.901793 0.261311 0.393256
0.921324 0.28011 0.45449
0.940475 0.323583 0.510719
0.957534 0.385962 0.561669
0.970306 0.446998 0.607431
0.980499 0.500099 0.647654
0.987839 0.546532 0.68188
0.993088 0.58584 0.710979
0.996567 0.618418 0.734691
0.998596 0.645365 0.754131
0.999405 0.667384 0.769985
0.999603 0.672923 0.773983
0.00360113 0.31191 0.0371405
0.00360113 0.311391 0.0369573
0.00360113 0.311131 0.0368658
0.00366217 0.312901 0.0363622
0.00416571 0.317479 0.0359808
0.00633249 0.320485 0.0349737
0.0335241 0.320317 0.0361944
0.0721447 0.319936 0.038468
0.13901 0.318944 0.0428931
0.210986 0.317723 0.05066
0.288594 0.316075 0.0603799
0.36994 0.313451 0.0700084
0.45301 0.308751 0.0770886
0.536538 0.301091 0.0846723
0.618006 0.290288 0.0986038
0.689036 0.278767 0.121035
0.745876 0.270802 0.154482
0.790158 0.270329 0.192462
0.826261 0.274098 0.239963
0.857832 0.281285 0.29189
0.886336 0.289631 0.346899
0.909865 0.304723 0.401526
0.929 0.324865 0.455009
0.943526 0.345922 0.510613
0.957534 0.385962 0.561669
0.970306 0.446998 0.607431
0.980499 0.500099 0.647654
0.987839 0.546532 0.68188
0.993088 0.58584 0.710979
0.996567 0.618418 0.734691
0.998596 0.645365 0.754131
0.999405 0.667384 0.769985
0.999603 0.672923 0.773983
0.00369268 0.376394 0.0607156
0.00367742 0.376135 0.0606241
0.00367742 0.375891 0.0605325
0.00375372 0.377386 0.0597696
0.00410468 0.382666 0.0591135
0.00654612 0.386313 0.0577401
0.0161288 0.388251 0.0576333
0.0357061 0.389395 0.0587015
0.0998703 0.387961 0.0644999
0.176745 0.386557 0.0714122
0.261448 0.384955 0.0810407
0.349111 0.382361 0.0941482
0.439933 0.379202 0.107668
0.525338 0.374075 0.116091
0.607401 0.365728 0.121706
0.683864 0.354025 0.134356
0.746487 0.343481 0.160647
0.797116 0.335012 0.198657
0.836133 0.333898 0.243732
0.866011 0.33933 0.297566
0.892027 0.347478 0.354162
0.916091 0.356756 0.410773
0.934585 0.373602 0.463981
0.949432 0.393378 0.512306
0.960845 0.415442 0.561944
0.970306 0.446998 0.607431
0.980499 0.500099 0.647654
0.987839 0.546532 0.68188
0.993088 0.58584 0.710979
0.996567 0.618418 0.734691
0.998596 0.645365 0.754131
0.999405 0.667384 0.769985
0.999603 0.672923 0.773983
0.00387579 0.444297 0.094255
0.00387579 0.444068 0.0941024
0.00387579 0.443824 0.0939651
0.00395209 0.44448 0.0932174
0.00450141 0.449393 0.0908522
0.00576791 0.453361 0.089601
0.0119478 0.456336 0.0875715
0.0233005 0.458961 0.0856184
0.0616159 0.458656 0.0892958
0.133883 0.457816 0.0946822
0.226017 0.456352 0.102861
0.318227 0.454185 0.116335
0.41387 0.451057 0.136736
0.508995 0.447883 0.155749
0.593194 0.442039 0.16318
0.670649 0.433371 0.167163
0.739467 0.422553 0.18143
0.795148 0.411643 0.212802
0.839719 0.404654 0.253254
0.872541 0.404303 0.304219
0.897932 0.409277 0.361227
0.919692 0.416815 0.419516
0.938338 0.427543 0.473274
0.953536 0.443107 0.521569
0.965133 0.461677 0.564584
0.973831 0.482353 0.60737
0.980636 0.502159 0.6477
0.987839 0.546532 0.68188
0.993088 0.58584 0.710979
0.996551 0.618265 0.734585
0.998581 0.645228 0.754025
0.999405 0.667384 0.769985
0.999603 0.672923 0.773983
0.00421149 0.509941 0.131212
0.00421149 0.509743 0.131106
0.00421149 0.509743 0.131106
0.00421149 0.509728 0.130877
0.00518807 0.514138 0.12842
0.00717174 0.517617 0.127398
0.0102083 0.520729 0.126177
0.0143893 0.523705 0.124331
0.0446021 0.525933 0.122728
0.0988785 0.526284 0.126589
0.180774 0.524666 0.134676
0.281315 0.522896 0.145144
0.378164 0.520119 0.162493
0.478141 0.516258 0.187228
0.572427 0.513329 0.210208
0.653346 0.507774 0.218448
0.724773 0.499626 0.222019
0.785901 0.489982 0.238666
0.835569 0.480217 0.271672
0.873426 0.473899 0.316213
0.901946 0.473518 0.370016
0.923156 0.478523 0.427359
0.940307 0.485924 0.481575
0.955581 0.495537 0.531136
0.967666 0.508598 0.574289
0.977279 0.5252 0.611429
0.98378 0.543786 0.647181
0.988815 0.55993 0.682063
0.993088 0.58584 0.710979
0.996551 0.618265 0.734585
0.998581 0.645228 0.754025
0.999405 0.667384 0.769985
0.999603 0.672923 0.773983
0.00505074 0.571221 0.179568
0.00503548 0.571054 0.179416
0.00503548 0.570886 0.179263
0.00503548 0.570886 0.179263
0.00596628 0.574044 0.177859
0.00775158 0.577081 0.177539
0.0109712 0.579522 0.177386
0.0165408 0.582238 0.177218
0.0289464 0.58529 0.17464
0.0672007 0.587686 0.174228
0.140566 0.588434 0.178241
0.241794 0.586923 0.187915
0.341543 0.58555 0.199405
0.440253 0.582574 0.218723
0.538338 0.578576 0.246372
0.62977 0.57554 0.271
0.705898 0.569894 0.280491
0.771756 0.561517 0.283223
0.826001 0.55314 0.300649
0.868437 0.545007 0.337697
0.901198 0.53901 0.384024
0.92517 0.53814 0.436683
0.942946 0.543038 0.490379
0.956222 0.549859 0.539101
0.968597 0.557977 0.582834
0.978668 0.56878 0.621118
0.985977 0.581659 0.653529
0.991196 0.59852 0.681453
0.994629 0.611109 0.710613
0.996658 0.622232 0.734524
0.998581 0.645228 0.754025
0.999405 0.667384 0.769985
0.999603 0.672923 0.773983
0.00694286 0.627344 0.234379
0.00694286 0.627344 0.234379
0.00694286 0.627207 0.234226
0.00694286 0.627207 0.234226
0.0078584 0.628946 0.233616
0.0100557 0.63151 0.233341
0.0133516 0.633478 0.233249
0.0191196 0.635706 0.233738
0.0300603 0.638315 0.233509
0.0506752 0.64126 0.232059
0.0946517 0.643793 0.230579
0.185885 0.644038 0.235966
0.300038 0.642573 0.246571
0.403601 0.640711 0.259815
0.502571 0.636912 0.281285
0.596597 0.63331 0.311971
0.681147 0.631022 0.337713
0.751507 0.626078 0.346777
0.811566 0.618738 0.34992
0.859327 0.611185 0.369131
0.895201 0.604227 0.406531
0.923339 0.598932 0.451011
0.94313 0.59823 0.500008
0.957412 0.602213 0.547555
0.968444 0.608225 0.590906
0.978363 0.614755 0.629068
0.98674 0.623423 0.662211
0.992309 0.633234 0.689158
0.996338 0.646052 0.712184
0.997833 0.657267 0.732754
0.998749 0.665614 0.753338
0.999603 0.672877 0.769879
0.999603 0.672923 0.773983
0.0103914 0.677684 0.293767
0.0103914 0.677684 0.293767
0.0103914 0.677684 0.293767
0.0103761 0.677546 0.293599
0.0110475 0.678355 0.293507
0.0128634 0.680262 0.2934
0.0161898 0.681895 0.293172
0.0223545 0.683818 0.293751
0.0328222 0.685847 0.294362
0.0501106 0.688228 0.294453
0.0795148 0.691096 0.292973
0.133318 0.69398 0.290852
0.242832 0.69398 0.297368
0.367346 0.692744 0.308461
0.465339 0.69102 0.323278
0.559045 0.687373 0.346349
0.647944 0.683055 0.378805
0.726131 0.681178 0.406622
0.790768 0.676509 0.418357
0.8448 0.669459 0.422187
0.885603 0.663325 0.440345
0.917266 0.657649 0.474037
0.940017 0.653666 0.513619
0.956985 0.652354 0.557015
0.9691 0.655222 0.598795
0.977798 0.660197 0.636713
0.985809 0.665599 0.669215
0.991974 0.672175 0.697032
0.996429 0.678828 0.719722
0.998428 0.688151 0.738277
0.999268 0.696696 0.753887
0.999817 0.703929 0.767575
1 0.699489 0.772137
0.0175326 0.722789 0.356298
0.0175174 0.722667 0.356115
0.0175174 0.722667 0.356115
0.0175174 0.722667 0.356115
0.0175174 0.722667 0.356115
0.0208896 0.724163 0.356085
0.0244755 0.725643 0.356283
0.0287327 0.727321 0.356649
0.0372473 0.729076 0.357259
0.0549477 0.730968 0.35877
0.0840772 0.733089 0.360265
0.124239 0.735714 0.358236
0.197848 0.738445 0.355901
0.315267 0.738109 0.364019
0.431739 0.737102 0.375921
0.525872 0.73547 0.392065
0.613214 0.731167 0.416571
0.694621 0.727489 0.449836
0.76643 0.725841 0.47512
0.82446 0.722316 0.485328
0.87219 0.716335 0.487511
0.90898 0.710307 0.504051
0.933898 0.705516 0.535424
0.953368 0.702129 0.570581
0.967483 0.700938 0.60827
0.977691 0.702632 0.644099
0.984802 0.706142 0.67631
0.990631 0.710384 0.70399
0.995087 0.715206 0.726268
0.998276 0.72018 0.745449
0.999756 0.72546 0.761074
0.999939 0.731472 0.772656
1 0.729351 0.77467
0.0284428 0.762448 0.421485
0.0284428 0.762448 0.421485
0.0284428 0.762448 0.421485
0.028397 0.762325 0.421302
0.028397 0.762325 0.421302
0.0302281 0.762844 0.421469
0.0343175 0.763836 0.421836
0.0396124 0.764858 0.422126
0.0464332 0.766293 0.422843
0.0565957 0.768017 0.424079
0.0814374 0.769757 0.425742
0.13019 0.771832 0.426993
0.191333 0.774365 0.425513
0.276066 0.776837 0.424964
0.386435 0.776913 0.432319
0.494728 0.775952 0.443748
0.582696 0.774441 0.459266
0.660761 0.770474 0.483421
0.735576 0.766644 0.514656
0.800412 0.765133 0.53817
0.85275 0.761242 0.547585
0.895735 0.755688 0.550759
0.92578 0.751278 0.564614
0.947646 0.747936 0.590951
0.963851 0.745357 0.62092
0.975814 0.743679 0.653056
0.983948 0.744518 0.683604
0.989899 0.747265 0.710094
0.994186 0.749905 0.733562
0.997467 0.75314 0.751904
0.999359 0.756603 0.766766
0.999771 0.759457 0.778973
0.999908 0.756954 0.781491
0.0410163 0.797238 0.485222
0.0410163 0.797238 0.485222
0.0410163 0.797238 0.485222
0.0410163 0.797238 0.485222
0.0410163 0.797238 0.485222
0.0409857 0.797131 0.485039
0.0459602 0.797772 0.485313
0.0540017 0.798657 0.485863
0.064332 0.799802 0.486625
0.0773785 0.80116 0.487449
0.0940566 0.802823 0.488777
0.126772 0.804639 0.490135
0.187472 0.806622 0.49192
0.263005 0.808698 0.490028
0.352087 0.810697 0.489525
0.457618 0.810559 0.496803
0.559503 0.809796 0.507164
0.632563 0.808362 0.522652
0.704631 0.804334 0.545022
0.772457 0.800504 0.573892
0.830442 0.799512 0.595804
0.877211 0.796689 0.60502
0.913161 0.792065 0.607294
0.939818 0.787884 0.61854
0.958511 0.784527 0.640421
0.972122 0.782254 0.666102
0.981476 0.78146 0.691936
0.988479 0.781628 0.717083
0.993362 0.783139 0.738811
0.996399 0.785138 0.75758
0.998428 0.786999 0.773083
0.999313 0.788846 0.785321
0.999481 0.786816 0.7879
0.0668956 0.827329 0.541817
0.0668956 0.827329 0.541817
0.0668956 0.827329 0.541817
0.0668956 0.827329 0.541817
0.0668956 0.827329 0.541817
0.0668956 0.827329 0.541817
0.066804 0.827237 0.54165
0.0740978 0.827848 0.542031
0.0838636 0.828611 0.54258
0.0967117 0.829587 0.543313
0.117418 0.830839 0.544366
0.147814 0.832212 0.5458
0.19382 0.833707 0.547768
0.261265 0.835523 0.549767
0.341024 0.837613 0.548348
0.430701 0.839506 0.548608
0.52491 0.839658 0.555718
0.611811 0.8392 0.566262
0.678111 0.838132 0.580087
0.743267 0.834165 0.600748
0.804028 0.830823 0.627619
0.856794 0.829267 0.648127
0.896468 0.826993 0.656535
0.928298 0.822873 0.657771
0.951431 0.819379 0.665812
0.966964 0.816892 0.683009
0.978042 0.815244 0.704387
0.985748 0.814115 0.725765
0.991592 0.813642 0.745907
0.995102 0.81445 0.763363
0.997208 0.815778 0.778134
0.99881 0.816892 0.790188
0.999268 0.815427 0.793133
0.0975204 0.853361 0.594385
0.0975204 0.853361 0.594385
0.0975204 0.853361 0.594385
0.0975204 0.853361 0.594385
0.0975204 0.853361 0.594385
0.0975204 0.853361 0.594385
0.0975204 0.853361 0.594385
0.098436 0.853407 0.594415
0.11046 0.854002 0.594858
0.1252 0.854627 0.595285
0.146914 0.855528 0.596109
0.177996 0.856687 0.597238
0.218753 0.857954 0.598779
0.276402 0.859403 0.601038
0.347387 0.86099 0.602747
0.422324 0.862882 0.60174
0.504677 0.864225 0.602396
0.587533 0.864149 0.609079
0.661692 0.8636 0.618585
0.720531 0.862562 0.632273
0.778836 0.858839 0.651942
0.833051 0.85626 0.675425
0.877714 0.855116 0.692622
0.912718 0.852842 0.70016
0.940261 0.84947 0.702388
0.959823 0.846418 0.708751
0.973312 0.844114 0.721553
0.982528 0.842557 0.73756
0.989136 0.841611 0.75494
0.993652 0.84126 0.770581
0.996704 0.841276 0.784039
0.99855 0.841764 0.795529
0.999039 0.840635 0.798276
0.139528 0.875395 0.641199
0.139528 0.875395 0.641199
0.139528 0.875395 0.641199
0.139528 0.875395 0.641199
0.139528 0.875395 0.641199
0.139528 0.875395 0.641199
0.139528 0.875395 0.641199
0.139528 0.875395 0.641199
0.142458 0.87541 0.641154
0.159045 0.875914 0.641642
0.181628 0.87657 0.642298
0.21117 0.877394 0.643137
0.249348 0.87837 0.644144
0.300023 0.879591 0.64593
0.364309 0.880827 0.648173
0.432898 0.8822 0.649805
0.500603 0.883833 0.648829
0.569131 0.885191 0.649958
0.64271 0.885069 0.656474
0.706508 0.88481 0.665553
0.758114 0.88368 0.678691
0.810162 0.880171 0.696254
0.85658 0.877485 0.717052
0.896132 0.876509 0.732738
0.926619 0.874678 0.73959
0.949615 0.872145 0.741207
0.966552 0.869551 0.745312
0.9776 0.86775 0.755093
0.985458 0.866346 0.76704
0.990982 0.865476 0.779599
0.994629 0.864866 0.791379
0.996887 0.864485 0.802045
0.997589 0.863432 0.804715
0.193881 0.894026 0.68336
0.193881 0.894026 0.68336
0.193881 0.894026 0.68336
0.193881 0.894026 0.68336
0.193881 0.894026 0.68336
0.193881 0.894026 0.68336
0.193881 0.894026 0.68336
0.193881 0.894026 0.68336
0.193881 0.894026 0.68336
0.199893 0.894194 0.683543
0.219974 0.894728 0.684153
0.248814 0.895415 0.684916
0.284718 0.896223 0.685588
0.330297 0.897124 0.686641
0.387854 0.898024 0.688228
0.451087 0.899092 0.690471
0.508415 0.900221 0.691646
0.5682 0.901656 0.69073
0.628412 0.902678 0.692348
0.693584 0.902525 0.698436
0.746365 0.902281 0.706889
0.790829 0.901503 0.718563
0.836591 0.898039 0.735668
0.877607 0.895781 0.754131
0.911772 0.895308 0.767086
0.93727 0.893874 0.773693
0.957137 0.891493 0.775021
0.971115 0.889281 0.77734
0.980621 0.887724 0.784176
0.987274 0.886656 0.792599
0.991928 0.885939 0.801129
0.994965 0.88542 0.809262
0.995804 0.884733 0.811307
0.274556 0.909346 0.718837
0.274556 0.909346 0.718837
0.274556 0.909346 0.718837
0.274556 0.909346 0.718837
0.274556 0.909346 0.718837
0.274556 0.909346 0.718837
0.274556 0.909346 0.718837
0.274556 0.909346 0.718837
0.274556 0.909346 0.718837
0.274556 0.909346 0.718837
0.284504 0.90956 0.719112
0.308034 0.909972 0.719524
0.338643 0.910552 0.720211
0.376516 0.911315 0.721096
0.417502 0.9122 0.722255
0.467597 0.913191 0.724224
0.52546 0.91426 0.726665
0.575113 0.915526 0.727535
0.625086 0.916976 0.726894
0.680919 0.917601 0.729656
0.735302 0.917357 0.735653
0.780941 0.917098 0.743313
0.819638 0.916243 0.753704
0.860197 0.912886 0.769192
0.896025 0.91107 0.78645
0.924666 0.910414 0.797162
0.946151 0.909667 0.802563
0.96257 0.907958 0.803159
0.974273 0.906264 0.804181
0.982574 0.904967 0.808316
0.988403 0.903929 0.813825
0.992279 0.903105 0.819699
0.993439 0.90248 0.821134
0.352682 0.922408 0.74995
0.352682 0.922408 0.74995
0.352682 0.922408 0.74995
0.352682 0.922408 0.74995
0.352682 0.922408 0.74995
0.352682 0.922408 0.74995
0.352682 0.922408 0.74995
0.352682 0.922408 0.74995
0.352682 0.922408 0.74995
0.352682 0.922408 0.74995
0.352682 0.922408 0.74995
0.367514 0.922652 0.750225
0.390173 0.923079 0.75079
0.418555 0.923598 0.751461
0.452888 0.924254 0.752331
0.495888 0.925002 0.753536
0.540825 0.925841 0.75555
0.589395 0.92668 0.757855
0.634867 0.927749 0.757992
0.677333 0.92903 0.757458
0.727077 0.929503 0.760845
0.772595 0.929503 0.766308
0.811505 0.929397 0.774258
0.845197 0.928267 0.784924
