Luts/Nikon/RED_FilmBiasOffset_Rec2020_N-Log_to_Rec709_BT1886_VLog.cube
TITLE "Generated by Resolve"
#LUMIXPHOTOSTYLE VLOG
LUT_3D_SIZE 33
0 0 0
0 0 0
0 0 0
0 0 0
0 0 0
0.000350958 0.000350958 0.000350958
0.00575265 0.00575265 0.00575265
0.0176699 0.0176699 0.0176699
0.0423438 0.0423438 0.0423438
0.0719768 0.0719921 0.0719921
0.104173 0.104189 0.104189
0.138369 0.138369 0.138384
0.175097 0.175097 0.175113
0.213947 0.213947 0.213962
0.255085 0.2551 0.255131
0.297383 0.297383 0.297414
0.342351 0.342367 0.342382
0.387366 0.387366 0.387411
0.430808 0.430823 0.430854
0.47277 0.472786 0.472816
0.513512 0.513527 0.513558
0.554391 0.554406 0.554437
0.595193 0.595209 0.595239
0.636591 0.636606 0.636637
0.679438 0.679454 0.6795
0.722393 0.722408 0.722438
0.764126 0.764141 0.764172
0.803235 0.80325 0.803281
0.837613 0.837629 0.837659
0.837613 0.837629 0.837659
0.837613 0.837629 0.837659
0.837613 0.837629 0.837659
0.837613 0.837629 0.837659
0 0 0
0 0 0
0 0 0
0 0 0
0 0 0
0.000289921 0.000289921 0.000289921
0.00569162 0.00569162 0.00569162
0.0173648 0.0173648 0.0173648
0.0421912 0.0421912 0.0421912
0.0718242 0.0718242 0.0718242
0.104021 0.104036 0.104036
0.138216 0.138216 0.138231
0.174945 0.174945 0.174975
0.213947 0.213947 0.213962
0.255085 0.2551 0.255131
0.297383 0.297383 0.297414
0.342351 0.342367 0.342382
0.387366 0.387366 0.387411
0.430808 0.430823 0.430854
0.47277 0.472786 0.472816
0.513512 0.513527 0.513558
0.554391 0.554406 0.554437
0.595193 0.595209 0.595239
0.636591 0.636606 0.636637
0.679438 0.679454 0.6795
0.722393 0.722408 0.722438
0.764126 0.764141 0.764172
0.803235 0.80325 0.803281
0.837613 0.837629 0.837659
0.837613 0.837629 0.837659
0.837613 0.837629 0.837659
0.837613 0.837629 0.837659
0.837613 0.837629 0.837659
0 0 0
0 0 0
0 0 0
0 0 0
0 0 0
0.000183108 0.000183108 0.000183108
0.00561532 0.00561532 0.00561532
0.0172274 0.0172274 0.0172274
0.0420386 0.0420386 0.0420386
0.0716564 0.0716716 0.0716716
0.103868 0.103883 0.103883
0.138079 0.138079 0.138079
0.174945 0.174945 0.174975
0.213809 0.213809 0.213825
0.254963 0.254963 0.254994
0.297383 0.297383 0.297414
0.342351 0.342367 0.342382
0.387366 0.387366 0.387411
0.430808 0.430823 0.430854
0.47277 0.472786 0.472816
0.513512 0.513527 0.513558
0.554391 0.554406 0.554437
0.595193 0.595209 0.595239
0.636591 0.636606 0.636637
0.679438 0.679454 0.6795
0.722393 0.722408 0.722438
0.764126 0.764141 0.764172
0.803235 0.80325 0.803281
0.837613 0.837629 0.837659
0.837613 0.837629 0.837659
0.837613 0.837629 0.837659
0.837613 0.837629 0.837659
0.837613 0.837629 0.837659
0 0 0
0 0 0
0 0 0
0 0 0
0.000198367 0.000198367 0.000198367
0.000762951 0.000762951 0.000762951
0.00910964 0.00910964 0.00910964
0.022797 0.022797 0.022797
0.0503395 0.0503395 0.0503395
0.0785992 0.0785992 0.0785992
0.108858 0.108858 0.108873
0.141024 0.141024 0.141039
0.175479 0.175494 0.175509
0.213809 0.213809 0.213825
0.254963 0.254963 0.254994
0.297246 0.297261 0.297276
0.342351 0.342367 0.342382
0.387366 0.387366 0.387411
0.430808 0.430823 0.430854
0.47277 0.472786 0.472816
0.513512 0.513527 0.513558
0.554391 0.554406 0.554437
0.595193 0.595209 0.595239
0.636591 0.636606 0.636637
0.679438 0.679454 0.6795
0.722393 0.722408 0.722438
0.764126 0.764141 0.764172
0.803235 0.80325 0.803281
0.837613 0.837629 0.837659
0.837613 0.837629 0.837659
0.837613 0.837629 0.837659
0.837613 0.837629 0.837659
0.837613 0.837629 0.837659
0.00262455 0.00262455 0.00262455
0.00250248 0.00250248 0.00250248
0.00236515 0.00236515 0.00236515
0.00233463 0.00233463 0.00233463
0.00677501 0.00677501 0.00677501
0.0152895 0.0152895 0.0152895
0.0318761 0.0318761 0.0318914
0.0500954 0.0500954 0.0500954
0.0746014 0.0746014 0.0746014
0.100282 0.100298 0.100298
0.128298 0.128313 0.128313
0.158373 0.158373 0.158389
0.192187 0.192187 0.192203
0.22768 0.22768 0.22771
0.263172 0.263188 0.263203
0.299809 0.299809 0.29984
0.342351 0.342367 0.342382
0.387243 0.387243 0.387289
0.430808 0.430823 0.430854
0.47277 0.472786 0.472816
0.513512 0.513527 0.513558
0.554391 0.554406 0.554437
0.595193 0.595209 0.595239
0.636591 0.636606 0.636637
0.679438 0.679454 0.6795
0.722393 0.722408 0.722438
0.764126 0.764141 0.764172
0.803235 0.80325 0.803281
0.837613 0.837629 0.837659
0.837613 0.837629 0.837659
0.837613 0.837629 0.837659
0.837613 0.837629 0.837659
0.837613 0.837629 0.837659
0.0172274 0.0172274 0.0172274
0.0163119 0.0163119 0.0163119
0.0155795 0.0155795 0.0155795
0.0148165 0.0148165 0.0148165
0.0233158 0.0233158 0.0233158
0.0384375 0.0384375 0.0384375
0.057435 0.057435 0.0574502
0.0765087 0.0765087 0.076524
0.0971237 0.0971237 0.0971389
0.120821 0.120836 0.120836
0.147723 0.147738 0.147738
0.177646 0.177661 0.177676
0.20943 0.20943 0.209461
0.243305 0.24332 0.243336
0.278111 0.278126 0.278141
0.312673 0.312688 0.312718
0.351049 0.351049 0.35108
0.387366 0.387366 0.387411
0.430808 0.430823 0.430854
0.47277 0.472786 0.472816
0.513512 0.513527 0.513558
0.554391 0.554406 0.554437
0.595193 0.595209 0.595239
0.636591 0.636606 0.636637
0.679438 0.679454 0.6795
0.722393 0.722408 0.722438
0.764126 0.764141 0.764172
0.803235 0.80325 0.803281
0.837613 0.837629 0.837659
0.837613 0.837629 0.837659
0.837613 0.837629 0.837659
0.837613 0.837629 0.837659
0.837613 0.837629 0.837659
0.0445411 0.0445411 0.0445411
0.0439918 0.0439918 0.0439918
0.0432593 0.0432593 0.0432593
0.0431067 0.0431067 0.0431067
0.0510719 0.0510719 0.0510719
0.0665141 0.0665141 0.0665141
0.0828107 0.0828107 0.082826
0.0993362 0.0993362 0.0993515
0.118776 0.118776 0.118791
0.14168 0.14168 0.141695
0.16733 0.16733 0.167346
0.195529 0.195529 0.195544
0.225803 0.225818 0.225834
0.258152 0.258167 0.258183
0.291646 0.291646 0.291676
0.326085 0.326085 0.326116
0.362829 0.362829 0.36286
0.397574 0.397589 0.39762
0.431739 0.431754 0.431785
0.47277 0.472786 0.472816
0.513512 0.513527 0.513558
0.554391 0.554406 0.554437
0.595193 0.595209 0.595239
0.636591 0.636606 0.636637
0.679438 0.679454 0.6795
0.722393 0.722408 0.722438
0.764126 0.764141 0.764172
0.803235 0.80325 0.803281
0.837613 0.837629 0.837659
0.837613 0.837629 0.837659
0.837613 0.837629 0.837659
0.837613 0.837629 0.837659
0.837613 0.837629 0.837659
0.0765087 0.0765087 0.076524
0.0758526 0.0758526 0.0758526
0.0749676 0.0749676 0.0749828
0.0748302 0.0748302 0.0748302
0.0808576 0.0808576 0.0808576
0.0945754 0.0945907 0.0945907
0.108919 0.108919 0.108934
0.123919 0.123919 0.123934
0.142336 0.142351 0.142351
0.163958 0.163973 0.163973
0.188067 0.188083 0.188083
0.214435 0.214435 0.21445
0.243336 0.243351 0.243366
0.274296 0.274296 0.274327
0.306889 0.306905 0.30692
0.340856 0.340856 0.340887
0.375647 0.375662 0.375692
0.408698 0.408713 0.408743
0.441749 0.441764 0.441794
0.473655 0.473671 0.473701
0.513512 0.513527 0.513558
0.554391 0.554406 0.554437
0.595193 0.595209 0.595239
0.636591 0.636606 0.636637
0.679438 0.679454 0.6795
0.722393 0.722408 0.722438
0.764126 0.764141 0.764172
0.803235 0.80325 0.803281
0.837613 0.837629 0.837659
0.837613 0.837629 0.837659
0.837613 0.837629 0.837659
0.837613 0.837629 0.837659
0.837613 0.837629 0.837659
0.11342 0.11342 0.113436
0.112779 0.112779 0.112795
0.112352 0.112352 0.112367
0.112001 0.112016 0.112016
0.115114 0.115114 0.115114
0.125689 0.125704 0.125704
0.138476 0.138476 0.138491
0.152316 0.152331 0.152331
0.169924 0.169924 0.16994
0.190021 0.190021 0.190036
0.212573 0.212573 0.212589
0.237568 0.237583 0.237598
0.264805 0.264805 0.264836
0.294545 0.294545 0.294575
0.325582 0.325582 0.325612
0.358144 0.35816 0.35819
0.390631 0.390646 0.390677
0.422248 0.422248 0.422293
0.45388 0.453895 0.453925
0.484382 0.484382 0.484428
0.514244 0.51426 0.51429
0.554391 0.554406 0.554437
0.595193 0.595209 0.595239
0.636591 0.636606 0.636637
0.679438 0.679454 0.6795
0.722393 0.722408 0.722438
0.764126 0.764141 0.764172
0.803235 0.80325 0.803281
0.837613 0.837629 0.837659
0.837613 0.837629 0.837659
0.837613 0.837629 0.837659
0.837613 0.837629 0.837659
0.837613 0.837629 0.837659
0.153399 0.153399 0.153414
0.152972 0.152972 0.152987
0.152544 0.152544 0.15256
0.152346 0.152346 0.152361
0.153826 0.153841 0.153841
0.16141 0.161425 0.161425
0.172824 0.172824 0.172839
0.185534 0.18555 0.18555
0.201755 0.20177 0.201785
0.22002 0.22002 0.22005
0.240955 0.240955 0.240986
0.264469 0.264485 0.2645
0.289784 0.289784 0.289815
0.317769 0.317769 0.3178
0.347311 0.347311 0.347341
0.377783 0.377798 0.377829
0.40798 0.407996 0.408026
0.437797 0.437812 0.437842
0.467857 0.467872 0.467903
0.496422 0.496437 0.496468
0.525811 0.525826 0.525856
0.554971 0.554971 0.555016
0.595193 0.595209 0.595239
0.636591 0.636606 0.636637
0.679438 0.679454 0.6795
0.722393 0.722408 0.722438
0.764126 0.764141 0.764172
0.803235 0.80325 0.803281
0.837613 0.837629 0.837659
0.837613 0.837629 0.837659
0.837613 0.837629 0.837659
0.837613 0.837629 0.837659
0.837613 0.837629 0.837659
0.19649 0.19649 0.196506
0.196063 0.196078 0.196094
0.195865 0.195865 0.19588
0.195621 0.195621 0.195636
0.196277 0.196292 0.196292
0.201312 0.201312 0.201328
0.210986 0.210986 0.211017
0.222126 0.222141 0.222156
0.236728 0.236728 0.236759
0.253635 0.253635 0.253666
0.272786 0.272801 0.272816
0.294148 0.294148 0.294179
0.317952 0.317968 0.317998
0.343893 0.343893 0.343923
0.371771 0.371771 0.371801
0.399496 0.399512 0.399542
0.427512 0.427527 0.427558
0.455604 0.455619 0.45565
0.483314 0.48333 0.483375
0.510857 0.510872 0.510903
0.538994 0.53901 0.53904
0.566842 0.566857 0.566903
0.595895 0.595911 0.595956
0.636591 0.636606 0.636637
0.679438 0.679454 0.6795
0.722393 0.722408 0.722438
0.764126 0.764141 0.764172
0.803235 0.80325 0.803281
0.837613 0.837629 0.837659
0.837613 0.837629 0.837659
0.837613 0.837629 0.837659
0.837613 0.837629 0.837659
0.837613 0.837629 0.837659
0.24181 0.241825 0.24184
0.241627 0.241627 0.241642
0.241428 0.241443 0.241459
0.241169 0.241169 0.241184
0.241428 0.241443 0.241459
0.243885 0.2439 0.243915
0.251957 0.251957 0.251987
0.26157 0.26157 0.261601
0.274479 0.274495 0.274525
0.289784 0.289799 0.289815
0.307088 0.307103 0.307134
0.327001 0.327016 0.327031
0.348974 0.348974 0.349004
0.373007 0.373007 0.373037
0.397955 0.397971 0.398001
0.423056 0.423072 0.423102
0.448981 0.448981 0.449027
0.474784 0.474815 0.474845
0.500542 0.500557 0.500603
0.527123 0.527138 0.527184
0.553307 0.553323 0.553353
0.58056 0.58056 0.580606
0.608362 0.608377 0.608423
0.637232 0.637247 0.637293
0.679438 0.679454 0.6795
0.722393 0.722408 0.722438
0.764126 0.764141 0.764172
0.803235 0.80325 0.803281
0.837613 0.837629 0.837659
0.837613 0.837629 0.837659
0.837613 0.837629 0.837659
0.837613 0.837629 0.837659
0.837613 0.837629 0.837659
0.288609 0.288609 0.288624
0.288426 0.288426 0.288441
0.288243 0.288258 0.288273
0.287953 0.287968 0.287999
0.288029 0.288045 0.28806
0.289662 0.289677 0.289693
0.29546 0.29546 0.295491
0.303304 0.303304 0.303334
0.3149 0.314916 0.314946
0.32845 0.328466 0.328496
0.344274 0.344289 0.34432
0.362676 0.362692 0.362722
0.382239 0.382239 0.382269
0.403037 0.403037 0.403082
0.425376 0.425391 0.425422
0.448218 0.448234 0.448264
0.472023 0.472038 0.472068
0.495506 0.495521 0.495552
0.519692 0.519707 0.519738
0.544915 0.54493 0.544961
0.569863 0.569879 0.569924
0.596139 0.596155 0.596185
0.622904 0.622904 0.62295
0.651072 0.651087 0.651118
0.680186 0.680201 0.680232
0.722393 0.722408 0.722438
0.764126 0.764141 0.764172
0.803235 0.80325 0.803281
0.837613 0.837629 0.837659
0.837613 0.837629 0.837659
0.837613 0.837629 0.837659
0.837613 0.837629 0.837659
0.837613 0.837629 0.837659
0.337194 0.337209 0.33724
0.337026 0.337041 0.337072
0.336858 0.336873 0.336904
0.336721 0.336736 0.336767
0.336583 0.336583 0.336614
0.337499 0.337514 0.337545
0.341588 0.341604 0.341634
0.347692 0.347707 0.347738
0.357763 0.357763 0.357794
0.369604 0.369604 0.369635
0.383307 0.383322 0.383352
0.398779 0.398779 0.398825
0.415763 0.415763 0.415808
0.434195 0.434211 0.434256
0.453925 0.453941 0.453971
0.474647 0.474647 0.474693
0.495888 0.495903 0.495949
0.518044 0.518059 0.51809
0.541146 0.541161 0.541192
0.563928 0.563943 0.563989
0.588129 0.588129 0.588174
0.613626 0.613642 0.613687
0.639353 0.639353 0.639399
0.666728 0.666743 0.666789
0.694697 0.694713 0.694743
0.722942 0.722957 0.723003
0.764126 0.764141 0.764172
0.803235 0.80325 0.803281
0.837613 0.837629 0.837659
0.837613 0.837629 0.837659
0.837613 0.837629 0.837659
0.837613 0.837629 0.837659
0.837613 0.837629 0.837659
0.385336 0.385351 0.385382
0.385183 0.385199 0.385229
0.385031 0.385046 0.385077
0.385046 0.385061 0.385092
0.385046 0.385061 0.385092
0.385641 0.385641 0.385687
0.387991 0.387991 0.388037
0.391836 0.391852 0.391882
0.400137 0.400153 0.400183
0.409903 0.409918 0.409949
0.42153 0.42153 0.421576
0.434821 0.434821 0.434867
0.449622 0.449638 0.449683
0.465797 0.465812 0.465858
0.483055 0.48307 0.483101
0.501472 0.501472 0.501518
0.521248 0.521248 0.521294
0.541924 0.541939 0.54197
0.562737 0.562737 0.562783
0.585168 0.585184 0.585229
0.60856 0.608576 0.608606
0.632303 0.632303 0.632349
0.657847 0.657862 0.657908
0.68365 0.683665 0.683711
0.710521 0.710536 0.710582
0.737377 0.737392 0.737423
0.764736 0.764752 0.764797
0.803235 0.80325 0.803281
0.837613 0.837629 0.837659
0.837613 0.837629 0.837659
0.837613 0.837629 0.837659
0.837613 0.837629 0.837659
0.837613 0.837629 0.837659
0.430686 0.430701 0.430732
0.430564 0.430579 0.43061
0.430442 0.430457 0.430503
0.43032 0.43035 0.430381
0.430304 0.430304 0.43035
0.431022 0.431037 0.431067
0.432532 0.432532 0.432578
0.435172 0.435187 0.435218
0.441688 0.441703 0.441733
0.449912 0.449928 0.449958
0.459632 0.459648 0.459678
0.470893 0.470909 0.470954
0.483452 0.483467 0.483497
0.497398 0.497414 0.497459
0.512795 0.51281 0.512856
0.530007 0.530022 0.530053
0.547951 0.547967 0.547997
0.566552 0.566567 0.566598
0.586679 0.586694 0.58674
0.60798 0.607996 0.608026
0.629816 0.629831 0.629862
0.653407 0.653407 0.653452
0.677531 0.677546 0.677577
0.70248 0.702495 0.702541
0.727916 0.727932 0.727977
0.75378 0.753796 0.753826
0.778988 0.778988 0.779034
0.803845 0.803861 0.803891
0.837613 0.837629 0.837659
0.837613 0.837629 0.837659
0.837613 0.837629 0.837659
0.837613 0.837629 0.837659
0.837613 0.837629 0.837659
0.473472 0.473487 0.473533
0.473472 0.473487 0.473533
0.473365 0.473365 0.473411
0.473365 0.473365 0.473411
0.47332 0.473335 0.473365
0.473777 0.473793 0.473823
0.474662 0.474662 0.474708
0.477592 0.477607 0.477638
0.482338 0.482353 0.482399
0.488716 0.488716 0.488762
0.496635 0.496651 0.496696
0.506142 0.506142 0.506188
0.517311 0.517327 0.517372
0.529778 0.529793 0.529839
0.543694 0.543709 0.543755
0.558679 0.558694 0.55874
0.575219 0.575235 0.575265
0.59324 0.593256 0.593286
0.612345 0.61236 0.61239
0.632105 0.632105 0.632151
0.65362 0.653635 0.653666
0.675868 0.675868 0.675914
0.699046 0.699062 0.699092
0.72282 0.72282 0.722866
0.746578 0.746593 0.746624
0.770397 0.770413 0.770443
0.794095 0.79411 0.794141
0.817533 0.817548 0.817578
0.838117 0.838117 0.838163
0.837613 0.837629 0.837659
0.837613 0.837629 0.837659
0.837613 0.837629 0.837659
0.837613 0.837629 0.837659
0.514199 0.514214 0.514244
0.514092 0.514107 0.514138
0.514092 0.514107 0.514138
0.514092 0.514107 0.514138
0.514122 0.514138 0.514168
0.514488 0.514504 0.514549
0.514992 0.515007 0.515053
0.517388 0.517403 0.517433
0.521523 0.521538 0.521569
0.527169 0.527184 0.527214
0.534173 0.534188 0.534218
0.542229 0.542245 0.542275
0.551522 0.551537 0.551583
0.562417 0.562432 0.562463
0.574777 0.574792 0.574823
0.588754 0.588754 0.5888
0.604685 0.6047 0.604746
0.620951 0.620966 0.621012
0.63888 0.638895 0.638941
0.658289 0.658305 0.658351
0.678309 0.678325 0.67837
0.699504 0.699519 0.699565
0.721401 0.721416 0.721462
0.743496 0.743511 0.743557
0.76614 0.766155 0.766201
0.788479 0.788495 0.788525
0.810468 0.810468 0.810513
0.831769 0.831769 0.831815
0.850492 0.850492 0.850523
0.838239 0.838239 0.838285
0.837613 0.837629 0.837659
0.837613 0.837629 0.837659
0.837613 0.837629 0.837659
0.553841 0.553841 0.553887
0.553841 0.553841 0.553887
0.553735 0.553735 0.55378
0.553735 0.553735 0.55378
0.553735 0.553735 0.55378
0.554986 0.555001 0.555032
0.556268 0.556283 0.556329
0.55816 0.558175 0.558221
0.561059 0.561059 0.561105
0.565301 0.565316 0.565362
0.570916 0.570932 0.570962
0.577996 0.578012 0.578042
0.586419 0.586435 0.58648
0.596307 0.596323 0.596368
0.607569 0.607584 0.60763
0.620249 0.620264 0.620295
0.634318 0.634333 0.634379
0.65005 0.650065 0.650111
0.667384 0.667384 0.66743
0.685039 0.685039 0.685084
0.704372 0.704387 0.704433
0.724239 0.724254 0.7243
0.744686 0.744701 0.744747
0.765469 0.765469 0.765515
0.786084 0.786099 0.78613
0.806668 0.806668 0.806714
0.826902 0.826917 0.826947
0.846357 0.846357 0.846403
0.863813 0.863828 0.863859
0.854353 0.854368 0.854398
0.838468 0.838483 0.838514
0.837613 0.837629 0.837659
0.837613 0.837629 0.837659
0.593896 0.593912 0.593942
0.593896 0.593912 0.593942
0.593896 0.593912 0.593942
0.593896 0.593912 0.593942
0.593896 0.593912 0.593942
0.594278 0.594278 0.594324
0.596078 0.596094 0.596124
0.598276 0.598291 0.598321
0.601099 0.601114 0.60116
0.604791 0.604807 0.604852
0.609705 0.60972 0.609751
0.615488 0.615503 0.615549
0.622919 0.622934 0.62298
0.631373 0.631388 0.631434
0.641718 0.641733 0.641764
0.653666 0.653681 0.653712
0.666484 0.666499 0.666545
0.680919 0.680934 0.68098
0.696788 0.696803 0.696834
0.713695 0.713695 0.713741
0.731182 0.731197 0.731228
0.749615 0.749615 0.74966
0.768322 0.768338 0.768368
0.787274 0.787274 0.78732
0.806516 0.806531 0.806561
0.825345 0.82536 0.825391
0.84358 0.843595 0.843626
0.861128 0.861128 0.861173
0.876814 0.876814 0.87686
0.869978 0.869978 0.870024
0.859327 0.859342 0.859373
0.838743 0.838758 0.838788
0.837613 0.837629 0.837659
0.636713 0.636728 0.636759
0.636713 0.636728 0.636759
0.636713 0.636728 0.636759
0.636713 0.636728 0.636759
0.636713 0.636728 0.636759
0.636591 0.636606 0.636637
0.637232 0.637247 0.637278
0.639094 0.639109 0.639139
0.641703 0.641718 0.641749
0.645014 0.645029 0.64506
0.649042 0.649042 0.649088
0.654368 0.654383 0.654429
0.660853 0.660853 0.660899
0.668589 0.668605 0.66865
0.677241 0.677256 0.677287
0.68748 0.68748 0.687526
0.699153 0.699168 0.699199
0.712749 0.712749 0.712795
0.726741 0.726741 0.726787
0.741939 0.741955 0.741985
0.758511 0.758511 0.758556
0.774762 0.774777 0.774823
0.792386 0.792401 0.792432
0.809384 0.8094 0.80943
0.826749 0.826764 0.826795
0.843626 0.843641 0.843671
0.860029 0.860044 0.860075
0.875837 0.875853 0.875883
0.890211 0.890227 0.890242
0.885435 0.885435 0.885466
0.877653 0.877653 0.877684
0.864927 0.864942 0.864973
0.839124 0.839139 0.83917
0.6813 0.681315 0.681361
0.6813 0.681315 0.681361
0.6813 0.681315 0.681361
0.6813 0.681315 0.681361
0.6813 0.681315 0.681361
0.6813 0.681315 0.681361
0.6813 0.681315 0.681361
0.682521 0.682536 0.682567
0.68452 0.684535 0.684581
0.687068 0.687083 0.687129
0.690501 0.690517 0.690547
0.69485 0.694865 0.694911
0.700191 0.700206 0.700236
0.706477 0.706493 0.706538
0.713939 0.713954 0.713985
0.723064 0.723079 0.72311
0.733349 0.733364 0.733394
0.744945 0.744961 0.744991
0.757336 0.757351 0.757382
0.77116 0.77116 0.771206
0.78558 0.785595 0.785626
0.800366 0.800381 0.800412
0.815808 0.815808 0.815854
0.831205 0.83122 0.83125
0.846479 0.846494 0.846525
0.861646 0.861662 0.861692
0.876143 0.876158 0.876188
0.89041 0.89041 0.89044
0.903105 0.90312 0.903151
0.899474 0.899489 0.899519
0.894331 0.894347 0.894362
0.886305 0.886305 0.886336
0.871443 0.871443 0.871473
0.725597 0.725612 0.725643
0.725597 0.725612 0.725643
0.725597 0.725612 0.725643
0.725597 0.725612 0.725643
0.725597 0.725612 0.725643
0.725597 0.725612 0.725643
0.725597 0.725612 0.725643
0.725597 0.725612 0.725643
0.726772 0.726787 0.726818
0.728664 0.728679 0.72871
0.731319 0.731319 0.731365
0.734752 0.734768 0.734813
0.738888 0.738903 0.738949
0.744228 0.744244 0.744274
0.750759 0.750774 0.75082
0.758434 0.75845 0.75848
0.766903 0.766918 0.766949
0.776547 0.776547 0.776593
0.787442 0.787457 0.787503
0.79968 0.799695 0.799725
0.811948 0.811963 0.811994
0.825177 0.825193 0.825223
0.838544 0.83856 0.83859
0.851926 0.851942 0.851972
0.865568 0.865583 0.865614
0.879011 0.879026 0.879057
0.891936 0.891951 0.891981
0.904326 0.904341 0.904372
0.915236 0.915251 0.915267
0.912917 0.912932 0.912947
0.909636 0.909651 0.909682
0.90425 0.904265 0.904295
0.895262 0.895277 0.895293
0.768826 0.768826 0.768872
0.768826 0.768826 0.768872
0.768826 0.768826 0.768872
0.768826 0.768826 0.768872
0.768826 0.768826 0.768872
0.768826 0.768826 0.768872
0.768826 0.768826 0.768872
0.768826 0.768826 0.768872
0.768704 0.768719 0.768765
0.770062 0.770077 0.770108
0.772061 0.772076 0.772107
0.774578 0.774594 0.774639
0.777798 0.777813 0.777844
0.781857 0.781857 0.781903
0.78674 0.786755 0.786786
0.792691 0.792691 0.792737
0.799863 0.799863 0.799908
0.808179 0.808194 0.808225
0.817044 0.81706 0.81709
0.827024 0.827039 0.82707
0.837842 0.837858 0.837888
0.848829 0.848844 0.848875
0.860426 0.860426 0.860471
0.872038 0.872053 0.872084
0.88397 0.88397 0.884001
0.895506 0.895521 0.895552
0.906783 0.906783 0.906813
0.917342 0.917342 0.917372
0.926909 0.926909 0.92694
0.925261 0.925261 0.925292
0.922911 0.922911 0.922942
0.919387 0.919402 0.919417
0.913924 0.913939 0.913954
0.808637 0.808637 0.808682
0.808637 0.808637 0.808682
0.808637 0.808637 0.808682
0.808637 0.808637 0.808682
0.808637 0.808637 0.808682
0.808637 0.808637 0.808682
0.808637 0.808637 0.808682
0.808637 0.808637 0.808682
0.808637 0.808637 0.808682
0.808637 0.808637 0.808682
0.809796 0.809812 0.809842
0.811704 0.811719 0.811749
0.814145 0.81416 0.814206
0.817349 0.817365 0.817395
0.821317 0.821332 0.821363
0.825971 0.825986 0.826017
0.831418 0.831418 0.831464
0.837552 0.837552 0.837583
0.844968 0.844984 0.845014
0.853101 0.853101 0.853147
0.86183 0.86183 0.86186
0.871168 0.871183 0.871214
0.881086 0.881086 0.881117
0.890913 0.890913 0.890944
0.901091 0.901106 0.901137
0.910872 0.910887 0.910918
0.920363 0.920363 0.920394
0.929488 0.929503 0.929534
0.937804 0.937804 0.937835
0.93669 0.93669 0.936721
0.935088 0.935088 0.935119
0.932738 0.932738 0.932769
0.92929 0.92929 0.92932
0.845319 0.845335 0.845365
0.845319 0.845335 0.845365
0.845319 0.845335 0.845365
0.845319 0.845335 0.845365
0.845319 0.845335 0.845365
0.845319 0.845335 0.845365
0.845319 0.845335 0.845365
0.845319 0.845335 0.845365
0.845228 0.845243 0.845273
0.845228 0.845243 0.845273
0.845228 0.845243 0.845273
0.846281 0.846281 0.846326
0.847944 0.847959 0.84799
0.85008 0.850095 0.850126
0.852705 0.85272 0.85275
0.85626 0.85626 0.856306
0.860502 0.860502 0.860533
0.865614 0.865614 0.865644
0.871153 0.871153 0.871183
0.877424 0.87744 0.877455
0.884703 0.884718 0.884749
0.892363 0.892378 0.892393
0.900236 0.900252 0.900282
0.908812 0.908827 0.908843
0.916777 0.916793 0.916808
0.925109 0.925124 0.925139
0.933013 0.933013 0.933043
0.940795 0.940795 0.940826
0.947738 0.947738 0.947768
0.94699 0.94699 0.947021
0.945922 0.945922 0.945953
0.944427 0.944427 0.944457
0.942321 0.942321 0.942351
0.877424 0.87744 0.87747
0.877424 0.87744 0.87747
0.877424 0.87744 0.87747
0.877424 0.87744 0.87747
0.877424 0.87744 0.87747
0.877424 0.87744 0.87747
0.877424 0.87744 0.87747
0.877424 0.87744 0.87747
0.877424 0.87744 0.87747
0.877424 0.87744 0.87747
0.877424 0.87744 0.87747
0.877424 0.87744 0.87747
0.878248 0.878248 0.878279
0.879713 0.879713 0.879759
0.881605 0.881605 0.881636
0.883986 0.884001 0.884031
0.886915 0.886915 0.886946
0.890639 0.890654 0.890684
0.895064 0.895064 0.895094
0.900023 0.900038 0.900053
0.905303 0.905318 0.905348
0.911208 0.911223 0.911238
0.917754 0.917754 0.917784
0.924193 0.924193 0.924224
0.931044 0.931044 0.931075
0.937774 0.937774 0.937804
0.944503 0.944503 0.944533
0.950851 0.950866 0.950881
0.956832 0.956832 0.956863
0.956329 0.956329 0.956344
0.955612 0.955612 0.955627
0.95462 0.95462 0.954635
0.953201 0.953201 0.953216
0.905303 0.905318 0.905348
0.905303 0.905318 0.905348
0.905303 0.905318 0.905348
0.905303 0.905318 0.905348
0.905303 0.905318 0.905348
0.905303 0.905318 0.905348
0.905303 0.905318 0.905348
0.905303 0.905318 0.905348
0.905303 0.905318 0.905348
