Luts/Nikon/RED_FilmBias_Rec2020_N-Log_to_Rec709_BT1886_VLog.cube
TITLE "Generated by Resolve"
#LUMIXPHOTOSTYLE VLOG
LUT_3D_SIZE 5
0 0 0
0.152544 0.00730907 0.0128786
0.636774 0.0698405 0.148821
0.957534 0.385962 0.561669
0.999603 0.672923 0.773983
0.00350958 0.161059 0.00653086
0.196475 0.158648 0.0180819
0.70312 0.131212 0.148104
0.957534 0.385962 0.561669
0.999603 0.672923 0.773983
0.00694286 0.627344 0.234379
0.0300603 0.638315 0.233509
0.681147 0.631022 0.337713
0.968444 0.608225 0.590906
0.999603 0.672923 0.773983
0.193881 0.894026 0.68336
0.193881 0.894026 0.68336
0.508415 0.900221 0.691646
0.911772 0.895308 0.767086
0.995804 0.884733 0.811307
0.589426 0.956573 0.838483
0.589426 0.956573 0.838483
0.634577 0.957488 0.840116
0.852949 0.961303 0.852552
0.967346 0.957565 0.893324
0.00402838 0.0052491 0.0801709
0.146532 0.00686656 0.130373
0.63595 0.0731518 0.247227
0.957168 0.386603 0.566323
0.999603 0.672923 0.773983
0.00352483 0.159731 0.140459
0.152621 0.161807 0.162264
0.682383 0.133257 0.233799
0.957229 0.386435 0.565332
0.999603 0.672923 0.773983
0.00671397 0.626276 0.278676
0.0264134 0.636378 0.277821
0.675456 0.631449 0.367132
0.968368 0.606043 0.590433
0.999603 0.672923 0.773983
0.193698 0.893965 0.683223
0.193515 0.893919 0.683085
0.506905 0.900084 0.691386
0.911772 0.895186 0.766903
0.995819 0.884627 0.811261
0.589426 0.956573 0.838483
0.589426 0.956573 0.838483
0.633982 0.957473 0.840101
0.852857 0.961303 0.852537
0.967346 0.957565 0.893324
0.0278325 0.191043 0.509789
0.0517586 0.198383 0.517372
0.651209 0.180713 0.612192
0.949065 0.429175 0.69485
0.999512 0.676951 0.797009
0.0277256 0.190356 0.508827
0.0506447 0.19733 0.516243
0.650858 0.179812 0.61149
0.949081 0.429038 0.694514
0.999512 0.676921 0.796872
0.00776684 0.623957 0.593515
0.0153811 0.625162 0.596948
0.634195 0.632929 0.638178
0.960739 0.605859 0.680125
0.999557 0.676738 0.79588
0.205692 0.893324 0.720592
0.205661 0.893324 0.720531
0.502785 0.899001 0.728832
0.908843 0.895476 0.785977
0.995468 0.884047 0.817456
0.589426 0.956573 0.838483
0.589426 0.956573 0.838483
0.629816 0.957397 0.839948
0.852201 0.961303 0.852445
0.967346 0.957565 0.893324
0.279057 0.641474 0.864652
0.279057 0.641474 0.864652
0.467124 0.656168 0.868574
0.915084 0.658946 0.896895
0.991882 0.735637 0.903395
0.279057 0.641474 0.864652
0.278859 0.641321 0.864576
0.466636 0.656001 0.868498
0.915114 0.658763 0.896864
0.991882 0.735637 0.903395
0.27866 0.645838 0.864927
0.278431 0.645274 0.864805
0.463188 0.656794 0.868513
0.915175 0.658091 0.896681
0.991913 0.735454 0.903227
0.368017 0.889052 0.876478
0.368017 0.889052 0.876478
0.471901 0.890761 0.879499
0.894789 0.894148 0.896391
0.987488 0.885023 0.887831
0.631205 0.956207 0.894408
0.631205 0.956207 0.894408
0.631174 0.956207 0.894377
0.857816 0.960906 0.903868
0.964309 0.958206 0.921492
0.606256 0.828275 0.95024
0.606256 0.828275 0.95024
0.606256 0.828275 0.95024
0.838956 0.84622 0.957229
0.973739 0.843961 0.963531
0.606256 0.828275 0.95024
0.606256 0.828275 0.95024
0.606256 0.828275 0.95024
0.838956 0.84622 0.957229
0.973739 0.843961 0.963531
0.606256 0.828275 0.95024
0.606256 0.828275 0.95024
0.606256 0.828275 0.95024
0.838834 0.846204 0.957214
0.973739 0.843961 0.963531
0.623987 0.885359 0.951308
0.623972 0.885328 0.951308
0.623941 0.885161 0.951308
0.852216 0.893462 0.956115
0.970764 0.886305 0.962615
0.716869 0.95668 0.951049
0.716869 0.95668 0.951049
0.716869 0.95668 0.951049
0.853162 0.959365 0.95642
0.961212 0.960006 0.961822
