Luts/Nikon/RED_FilmBiasBleachBypass_Rec2020_N-Log_to_Rec709_BT1886_VLog.cube
TITLE "Generated by Resolve"
LUT_3D_SIZE 33
0.0157168 0.0157168 0.0157168
0.0157168 0.0157168 0.0157168
0.0157168 0.0157168 0.0157168
0.0151522 0.0153658 0.0153048
0.0167697 0.0149996 0.0150759
0.0206455 0.0148928 0.0151369
0.0292973 0.0135042 0.0142824
0.0394598 0.0121614 0.0140383
0.053315 0.0107576 0.0149081
0.0717021 0.0120089 0.018677
0.0922866 0.0164797 0.0256809
0.115282 0.0229191 0.0353399
0.143359 0.0256962 0.04477
0.180636 0.028336 0.0565194
0.232059 0.0413519 0.0725109
0.300862 0.0465705 0.0911421
0.390921 0.0628519 0.117494
0.491844 0.0789502 0.154971
0.59707 0.105608 0.203723
0.701244 0.144121 0.2663
0.792081 0.195865 0.346517
0.870085 0.271 0.43978
0.919646 0.375647 0.536461
0.940841 0.490181 0.622232
0.952483 0.584039 0.6916
0.959915 0.663172 0.7505
0.963348 0.729397 0.797147
0.965225 0.781979 0.832914
0.965957 0.820661 0.860227
0.965957 0.820661 0.860227
0.965957 0.820661 0.860227
0.965957 0.820661 0.860227
0.965957 0.820661 0.860227
0.0157168 0.0157168 0.0157168
0.0157168 0.0157168 0.0157168
0.0157168 0.0157168 0.0157168
0.0151675 0.0153658 0.0153048
0.0167086 0.0149996 0.0150759
0.0205386 0.0149081 0.0151522
0.0291752 0.0135195 0.0142977
0.039292 0.0121767 0.0140383
0.0532387 0.0107729 0.0148928
0.0715953 0.0120089 0.0186465
0.0921798 0.016434 0.0256352
0.115175 0.0228885 0.0353094
0.143236 0.0257115 0.0447242
0.180636 0.028336 0.0565194
0.232059 0.0413519 0.0725109
0.300862 0.0465705 0.0911421
0.390921 0.0628519 0.117494
0.491844 0.0789502 0.154971
0.59707 0.105608 0.203723
0.701244 0.144121 0.2663
0.792081 0.195865 0.346517
0.870085 0.271 0.43978
0.919646 0.375647 0.536461
0.940841 0.490181 0.622232
0.952483 0.584039 0.6916
0.959915 0.663172 0.7505
0.963348 0.729397 0.797147
0.965225 0.781979 0.832914
0.965957 0.820661 0.860227
0.965957 0.820661 0.860227
0.965957 0.820661 0.860227
0.965957 0.820661 0.860227
0.965957 0.820661 0.860227
0.0157168 0.0157168 0.0157168
0.0157168 0.0157168 0.0157168
0.0157168 0.0157168 0.0157168
0.0151675 0.0153811 0.0153201
0.0166629 0.0149996 0.0150759
0.0203708 0.0149386 0.0151675
0.0290684 0.01355 0.0142977
0.0392004 0.012192 0.014023
0.0531472 0.0107729 0.0148928
0.0714885 0.0119936 0.0186313
0.0920882 0.0164034 0.0255894
0.115053 0.0228733 0.0352636
0.143236 0.0257115 0.0447242
0.180468 0.0282902 0.0564584
0.231876 0.0413214 0.0724651
0.300862 0.0465705 0.0911421
0.390921 0.0628519 0.117494
0.491844 0.0789502 0.154971
0.59707 0.105608 0.203723
0.701244 0.144121 0.2663
0.792081 0.195865 0.346517
0.870085 0.271 0.43978
0.919646 0.375647 0.536461
0.940841 0.490181 0.622232
0.952483 0.584039 0.6916
0.959915 0.663172 0.7505
0.963348 0.729397 0.797147
0.965225 0.781979 0.832914
0.965957 0.820661 0.860227
0.965957 0.820661 0.860227
0.965957 0.820661 0.860227
0.965957 0.820661 0.860227
0.965957 0.820661 0.860227
0.0150759 0.0160372 0.0151064
0.0150759 0.0159152 0.0150912
0.0150607 0.0158083 0.0150912
0.0154879 0.0158389 0.0150454
0.0201877 0.0159762 0.014725
0.0268711 0.0151369 0.0139162
0.0366522 0.0135348 0.0129091
0.047364 0.0125887 0.0127413
0.0619974 0.0132906 0.0141909
0.0795148 0.0155795 0.0185397
0.0983902 0.0201572 0.026154
0.118883 0.0249027 0.0356146
0.144106 0.0259556 0.0445258
0.180468 0.0282902 0.0564584
0.231876 0.0413214 0.0724651
0.300649 0.0465705 0.0910811
0.390921 0.0628519 0.117494
0.491844 0.0789502 0.154971
0.59707 0.105608 0.203723
0.701244 0.144121 0.2663
0.792081 0.195865 0.346517
0.870085 0.271 0.43978
0.919646 0.375647 0.536461
0.940841 0.490181 0.622232
0.952483 0.584039 0.6916
0.959915 0.663172 0.7505
0.963348 0.729397 0.797147
0.965225 0.781979 0.832914
0.965957 0.820661 0.860227
0.965957 0.820661 0.860227
0.965957 0.820661 0.860227
0.965957 0.820661 0.860227
0.965957 0.820661 0.860227
0.0137789 0.0244297 0.0151522
0.0138399 0.0241093 0.0151522
0.0139162 0.023743 0.0151675
0.0165103 0.0243076 0.0152438
0.0274357 0.0256504 0.014847
0.0400854 0.0259556 0.0138857
0.0535897 0.0257115 0.0126802
0.0672923 0.0256657 0.0127718
0.0831159 0.0259556 0.0155032
0.0997635 0.0285801 0.0213474
0.118578 0.031693 0.0281529
0.140536 0.033463 0.0350958
0.169604 0.0352789 0.0426032
0.20589 0.0405432 0.0577554
0.251347 0.0471962 0.0733196
0.308278 0.0491493 0.090959
0.390921 0.0628519 0.117494
0.491554 0.0788891 0.154864
0.59707 0.105608 0.203723
0.701244 0.144121 0.2663
0.792081 0.195865 0.346517
0.870085 0.271 0.43978
0.919646 0.375647 0.536461
0.940841 0.490181 0.622232
0.952483 0.584039 0.6916
0.959915 0.663172 0.7505
0.963348 0.729397 0.797147
0.965225 0.781979 0.832914
0.965957 0.820661 0.860227
0.965957 0.820661 0.860227
0.965957 0.820661 0.860227
0.965957 0.820661 0.860227
0.965957 0.820661 0.860227
0.0129244 0.0388952 0.0176547
0.0128939 0.0383154 0.0174563
0.0128634 0.0378424 0.0173037
0.018265 0.038819 0.0172122
0.0340429 0.0417182 0.0174563
0.0494698 0.0435187 0.0174411
0.0651408 0.0436255 0.0162966
0.0807813 0.0436713 0.0165103
0.0978866 0.0437934 0.019913
0.116396 0.0441291 0.0247959
0.137316 0.0450141 0.0282597
0.162799 0.0471504 0.0322881
0.195209 0.0498817 0.0446632
0.235508 0.0542458 0.0608377
0.285252 0.0576791 0.0752575
0.346197 0.0620127 0.0937362
0.417929 0.0730297 0.119341
0.491966 0.079057 0.154894
0.59707 0.105608 0.203723
0.701244 0.144121 0.2663
0.792081 0.195865 0.346517
0.870085 0.271 0.43978
0.919646 0.375647 0.536461
0.940841 0.490181 0.622232
0.952483 0.584039 0.6916
0.959915 0.663172 0.7505
0.963348 0.729397 0.797147
0.965225 0.781979 0.832914
0.965957 0.820661 0.860227
0.965957 0.820661 0.860227
0.965957 0.820661 0.860227
0.965957 0.820661 0.860227
0.965957 0.820661 0.860227
0.0141604 0.0564126 0.0236057
0.0141299 0.0560616 0.0234836
0.0140993 0.0555886 0.023331
0.0222324 0.0570535 0.0235752
0.0396582 0.0603037 0.0229648
0.0550698 0.0630198 0.0221866
0.0722362 0.0638743 0.0209201
0.0889906 0.0643931 0.0202182
0.107012 0.0646983 0.0209506
0.128954 0.0649577 0.0234989
0.154452 0.0644388 0.0273594
0.184451 0.0636149 0.0343328
0.220539 0.0646677 0.0479286
0.264332 0.0679026 0.0617838
0.317266 0.0694438 0.0764324
0.380972 0.0760204 0.0981308
0.452186 0.0851606 0.124529
0.525582 0.0954452 0.158206
0.600275 0.10724 0.203906
0.701244 0.144121 0.2663
0.792081 0.195865 0.346517
0.870085 0.271 0.43978
0.919646 0.375647 0.536461
0.940841 0.490181 0.622232
0.952483 0.584039 0.6916
0.959915 0.663172 0.7505
0.963348 0.729397 0.797147
0.965225 0.781979 0.832914
0.965957 0.820661 0.860227
0.965957 0.820661 0.860227
0.965957 0.820661 0.860227
0.965957 0.820661 0.860227
0.965957 0.820661 0.860227
0.00981155 0.0759289 0.0235599
0.00993362 0.0755322 0.0236057
0.0101015 0.0750134 0.0236667
0.0165408 0.0767376 0.0233616
0.0373083 0.0801556 0.0227359
0.0580758 0.0828412 0.0230411
0.0767071 0.0844892 0.0237278
0.0953536 0.0858167 0.0246738
0.115999 0.0868086 0.026215
0.141085 0.0872511 0.0278477
0.17084 0.0861677 0.0305791
0.20618 0.0834974 0.0375219
0.247807 0.0823377 0.0508125
0.296223 0.0838788 0.0610361
0.353384 0.0867933 0.079469
0.418616 0.0941024 0.101472
0.488594 0.103548 0.130602
0.560403 0.112856 0.165835
0.633448 0.129549 0.208194
0.703792 0.146487 0.266773
0.792081 0.195865 0.346517
0.870085 0.271 0.43978
0.919646 0.375647 0.536461
0.940841 0.490181 0.622232
0.952483 0.584039 0.6916
0.959915 0.663172 0.7505
0.963348 0.729397 0.797147
0.965225 0.781979 0.832914
0.965957 0.820661 0.860227
0.965957 0.820661 0.860227
0.965957 0.820661 0.860227
0.965957 0.820661 0.860227
0.965957 0.820661 0.860227
0.00383001 0.0985275 0.0231479
0.00383001 0.098085 0.0229343
0.00383001 0.0977951 0.022797
0.00614939 0.0996719 0.021149
0.0292973 0.10312 0.0201877
0.0583658 0.105226 0.0222782
0.0791485 0.107759 0.0260471
0.100206 0.110155 0.0303044
0.125551 0.112154 0.0360266
0.153903 0.113344 0.0391699
0.187747 0.113359 0.0405127
0.229892 0.111833 0.0424659
0.28043 0.11014 0.05066
0.335592 0.11075 0.06421
0.396719 0.114336 0.0823835
0.461585 0.121141 0.105562
0.529732 0.131258 0.136858
0.600565 0.141299 0.175937
0.670619 0.158099 0.219043
0.735302 0.17641 0.275242
0.794003 0.198154 0.347173
0.870085 0.271 0.43978
0.919646 0.375647 0.536461
0.940841 0.490181 0.622232
0.952483 0.584039 0.6916
0.959915 0.663172 0.7505
0.963348 0.729397 0.797147
0.965225 0.781979 0.832914
0.965957 0.820661 0.860227
0.965957 0.820661 0.860227
0.965957 0.820661 0.860227
0.965957 0.820661 0.860227
0.965957 0.820661 0.860227
0.00407416 0.125551 0.0363165
0.00407416 0.125261 0.0361639
0.00407416 0.124971 0.0360266
0.00608835 0.127291 0.0350805
0.0168002 0.132052 0.0347143
0.0411078 0.135042 0.0377508
0.0683909 0.137728 0.0417945
0.0970474 0.140658 0.0460212
0.131121 0.144274 0.0507668
0.166003 0.147692 0.053727
0.205631 0.150347 0.0548409
0.253422 0.151369 0.055375
0.310475 0.151095 0.0601968
0.375631 0.150759 0.0699321
0.441764 0.153262 0.086656
0.508827 0.158892 0.111192
0.576028 0.167407 0.144686
0.644465 0.180133 0.186694
0.708415 0.195071 0.234028
0.768673 0.213458 0.290532
0.823621 0.240406 0.357259
0.871321 0.27396 0.440269
0.919646 0.375647 0.536461
0.940841 0.490181 0.622232
0.952483 0.584039 0.6916
0.959915 0.663172 0.7505
0.963348 0.729397 0.797147
0.965225 0.781979 0.832914
0.965957 0.820661 0.860227
0.965957 0.820661 0.860227
0.965957 0.820661 0.860227
0.965957 0.820661 0.860227
0.965957 0.820661 0.860227
0.0053254 0.162173 0.0513619
0.00531014 0.161791 0.0512093
0.00529488 0.161608 0.0511482
0.00663767 0.164355 0.0503548
0.013611 0.170809 0.0497444
0.0332341 0.175769 0.0513466
0.0606394 0.178927 0.0545815
0.0910964 0.182193 0.0582132
0.130144 0.186389 0.062623
0.174655 0.191608 0.0671855
0.222751 0.196933 0.0710918
0.276036 0.200992 0.073991
0.340139 0.203586 0.0773632
0.412299 0.204318 0.0825208
0.485679 0.206226 0.0964675
0.557519 0.209323 0.120638
0.625681 0.216022 0.155306
0.689479 0.229465 0.199939
0.747036 0.246143 0.251804
0.802991 0.264408 0.311467
0.853635 0.2907 0.37908
0.893294 0.3308 0.456443
0.920073 0.379782 0.537331
0.940841 0.490181 0.622232
0.952483 0.584039 0.6916
0.959915 0.663172 0.7505
0.963348 0.729397 0.797147
0.965225 0.781979 0.832914
0.965957 0.820661 0.860227
0.965957 0.820661 0.860227
0.965957 0.820661 0.860227
0.965957 0.820661 0.860227
0.965957 0.820661 0.860227
0.00500496 0.211963 0.0650339
0.00502022 0.211719 0.0649882
0.00502022 0.21149 0.0649424
0.00563058 0.214359 0.0638285
0.0113222 0.222904 0.0618906
0.0263676 0.229633 0.0614176
0.0541695 0.234119 0.0635996
0.0866255 0.238163 0.0665141
0.128771 0.242832 0.0707103
0.178332 0.24892 0.0779278
0.234485 0.255406 0.0871748
0.297169 0.262821 0.0969253
0.368566 0.269017 0.103105
0.445472 0.272938 0.107271
0.524956 0.27538 0.118105
0.603021 0.277104 0.13814
0.672892 0.280949 0.172747
0.73257 0.292256 0.216678
0.787411 0.308736 0.271168
0.835859 0.331014 0.337926
0.880308 0.354971 0.409567
0.909972 0.395804 0.482963
0.929091 0.444389 0.552987
0.941009 0.493187 0.622782
0.952483 0.584039 0.6916
0.959915 0.663172 0.7505
0.963348 0.729397 0.797147
0.965225 0.781979 0.832914
0.965957 0.820661 0.860227
0.965957 0.820661 0.860227
0.965957 0.820661 0.860227
0.965957 0.820661 0.860227
0.965957 0.820661 0.860227
0.00422675 0.27866 0.0823835
0.00422675 0.27837 0.0822919
0.00421149 0.27808 0.0822003
0.00440986 0.280858 0.0814832
0.00779736 0.291173 0.0797436
0.0161288 0.299977 0.0786603
0.0388952 0.306538 0.0793927
0.0702068 0.312749 0.0813306
0.122515 0.317906 0.0871138
0.178241 0.324239 0.095552
0.239826 0.331319 0.107622
0.311467 0.339727 0.123827
0.393286 0.349386 0.139391
0.476127 0.356817 0.148348
0.55819 0.36231 0.156527
0.640314 0.364355 0.168719
0.711238 0.367178 0.198474
0.772824 0.37293 0.240513
0.824765 0.386084 0.297322
0.863981 0.409583 0.37026
0.894881 0.438911 0.446738
0.918013 0.472343 0.516091
0.933944 0.509789 0.57731
0.945006 0.549737 0.635645
0.952621 0.586526 0.692164
0.959915 0.663172 0.7505
0.963348 0.729397 0.797147
0.965225 0.781979 0.832914
0.965957 0.820661 0.860227
0.965957 0.820661 0.860227
0.965957 0.820661 0.860227
0.965957 0.820661 0.860227
0.965957 0.820661 0.860227
0.00466926 0.364126 0.115221
0.00466926 0.363806 0.115068
0.00466926 0.363485 0.114931
0.00492866 0.365225 0.114931
0.00756847 0.376486 0.115633
0.0131075 0.386374 0.116487
0.0253452 0.394553 0.117174
0.0442054 0.402792 0.118395
0.0964218 0.409796 0.124926
0.164019 0.416693 0.132998
0.240146 0.423682 0.143694
0.317174 0.430945 0.15906
0.405966 0.439246 0.180774
0.499931 0.450645 0.203174
0.585489 0.458686 0.216648
0.66601 0.46331 0.225681
0.73901 0.466957 0.246448
0.798535 0.471412 0.287999
0.845304 0.480751 0.345037
0.879484 0.499306 0.415412
0.903502 0.52192 0.48571
0.921324 0.547433 0.549554
0.936553 0.574212 0.606378
0.947768 0.604166 0.656382
0.954879 0.634638 0.703105
0.959915 0.664912 0.750744
0.963348 0.729397 0.797147
0.965225 0.781979 0.832914
0.965957 0.820661 0.860227
0.965957 0.820661 0.860227
0.965957 0.820661 0.860227
0.965957 0.820661 0.860227
0.965957 0.820661 0.860227
0.00546273 0.463127 0.16788
0.00546273 0.462806 0.167697
0.00546273 0.462501 0.167514
0.00555428 0.462943 0.167559
0.00813306 0.473365 0.16846
0.0144961 0.481941 0.170016
0.0269322 0.489357 0.171313
0.0447547 0.497246 0.172534
0.0820478 0.506752 0.174044
0.144472 0.514138 0.180636
0.229328 0.52047 0.191806
0.320455 0.527276 0.205264
0.409323 0.53341 0.224552
0.505821 0.541344 0.253758
0.600443 0.552453 0.289952
0.680629 0.559762 0.31426
0.750256 0.564385 0.332082
0.807385 0.568399 0.364721
0.852323 0.572992 0.414038
0.884794 0.58352 0.469932
0.908156 0.598337 0.529152
0.924422 0.616876 0.584512
0.936873 0.637293 0.635828
0.947707 0.657938 0.681163
0.955413 0.680888 0.721172
0.960571 0.706493 0.758984
0.963363 0.730846 0.797528
0.965225 0.781979 0.832914
0.965957 0.820661 0.860227
0.965957 0.820661 0.860227
0.965957 0.820661 0.860227
0.965957 0.820661 0.860227
0.965957 0.820661 0.860227
0.0093843 0.561227 0.231205
0.00936904 0.560983 0.230991
0.00933852 0.560723 0.230793
0.00932326 0.560479 0.230579
0.0121309 0.567697 0.232349
0.0178378 0.575128 0.234974
0.0261234 0.581476 0.237232
0.0392004 0.588785 0.239719
0.0793011 0.597238 0.241199
0.138552 0.605371 0.24712
0.221347 0.611948 0.259907
0.327535 0.616587 0.279286
0.42266 0.622721 0.299062
0.513542 0.627375 0.328191
0.599893 0.633646 0.370687
0.683986 0.642969 0.417685
0.750713 0.648798 0.445487
0.805417 0.652598 0.462699
0.85066 0.65565 0.490608
0.883879 0.660105 0.530861
0.908751 0.668147 0.574746
0.924743 0.679881 0.620066
0.936553 0.694896 0.664897
0.945922 0.710796 0.706004
0.954543 0.726223 0.742
0.960098 0.744244 0.774365
0.96379 0.763836 0.8038
0.965194 0.783215 0.833158
0.965957 0.820661 0.860227
0.965957 0.820661 0.860227
0.965957 0.820661 0.860227
0.965957 0.820661 0.860227
0.965957 0.820661 0.860227
0.0218967 0.649271 0.31873
0.0218967 0.649271 0.31873
0.0218357 0.649042 0.318441
0.0218357 0.649042 0.318441
0.0267338 0.65272 0.320317
0.0356603 0.657984 0.325216
0.046067 0.662425 0.329183
0.065095 0.668193 0.333043
0.0970626 0.67425 0.33959
0.151583 0.680858 0.347768
0.236988 0.687312 0.358236
0.34139 0.69189 0.376959
0.444572 0.695293 0.401694
0.532357 0.699214 0.427131
0.606287 0.702235 0.458381
0.679774 0.707057 0.49836
0.747463 0.71429 0.534569
0.801648 0.719112 0.556115
0.846281 0.722698 0.569787
0.879759 0.72636 0.592706
0.904936 0.730526 0.623468
0.922896 0.737728 0.658106
0.935531 0.746365 0.69453
0.944396 0.757473 0.731029
0.951293 0.769543 0.763867
0.958099 0.780667 0.791608
0.962219 0.794247 0.815885
0.964752 0.809033 0.838453
0.965942 0.821653 0.86041
0.965957 0.820661 0.860227
0.965957 0.820661 0.860227
0.965957 0.820661 0.860227
0.965957 0.820661 0.860227
0.063798 0.721614 0.433707
0.0636606 0.721431 0.433387
0.0636606 0.721431 0.433387
0.0636606 0.721431 0.433387
0.0707103 0.72253 0.435431
0.0881208 0.725643 0.441016
0.104311 0.728634 0.445701
0.136797 0.731792 0.451102
0.181537 0.735668 0.458351
0.238041 0.740017 0.466423
0.305882 0.745113 0.474693
0.383764 0.75079 0.483452
0.472023 0.754742 0.50016
0.5523 0.757473 0.520745
0.620996 0.760525 0.54107
0.681865 0.762249 0.565652
0.742123 0.765194 0.597025
0.796826 0.772259 0.627237
0.840482 0.776211 0.646143
0.873793 0.778958 0.657069
0.898939 0.782803 0.67454
0.918105 0.786542 0.699748
0.932052 0.791577 0.727672
0.942321 0.797604 0.755978
0.94905 0.806134 0.784253
0.955001 0.815 0.809186
0.960006 0.822889 0.829923
0.963424 0.832898 0.848341
0.965057 0.843076 0.864439
0.965942 0.821927 0.860456
0.965957 0.820661 0.860227
0.965957 0.820661 0.860227
0.965957 0.820661 0.860227
0.176715 0.776287 0.539544
0.176715 0.776287 0.539544
0.176379 0.77615 0.5393
0.176379 0.77615 0.5393
0.176379 0.77615 0.5393
0.200519 0.77821 0.543359
0.222843 0.77998 0.546807
0.251164 0.782147 0.550912
0.288243 0.784756 0.555947
0.333761 0.787747 0.561959
0.387015 0.791333 0.569421
0.445075 0.795636 0.576272
0.506661 0.800809 0.584009
0.575586 0.804135 0.598276
0.63917 0.806516 0.61474
0.694362 0.808927 0.631479
0.744335 0.8094 0.65156
0.792721 0.811978 0.678126
0.834562 0.817517 0.703212
0.867552 0.820722 0.718334
0.893614 0.822705 0.727596
0.912749 0.825727 0.741207
0.928023 0.828748 0.761685
0.938796 0.83183 0.783154
0.946807 0.836378 0.804257
0.952117 0.842451 0.825238
0.956527 0.849088 0.843839
0.960876 0.854963 0.859495
0.962829 0.861936 0.873198
0.96463 0.848844 0.866651
0.965942 0.822385 0.860533
0.965957 0.820661 0.860227
0.965957 0.820661 0.860227
0.311696 0.819806 0.626719
0.311696 0.819806 0.626719
0.311696 0.819806 0.626719
0.311696 0.819806 0.626719
0.311696 0.819806 0.626719
0.320668 0.820279 0.627619
0.342153 0.821653 0.630198
0.36701 0.823178 0.633295
0.397696 0.825101 0.637156
0.430869 0.827192 0.641932
0.468803 0.829557 0.647654
0.5131 0.832288 0.653925
0.561502 0.835416 0.659968
0.610147 0.83888 0.666926
0.661784 0.841169 0.678157
0.712444 0.843046 0.6916
0.756573 0.844709 0.705898
0.793164 0.845075 0.722377
0.831403 0.846082 0.74377
0.863066 0.850355 0.764981
0.888182 0.853376 0.776608
0.908766 0.855085 0.783948
0.923812 0.856977 0.79443
0.935561 0.859648 0.808957
0.943999 0.862623 0.824887
0.949905 0.865904 0.841184
0.95407 0.870878 0.856901
0.957259 0.876112 0.871336
0.960189 0.879896 0.882521
0.961593 0.871275 0.87808
0.963699 0.855528 0.869917
0.965927 0.822904 0.860624
0.965957 0.820661 0.860227
0.459297 0.852766 0.700084
0.459297 0.852766 0.700084
0.459297 0.852766 0.700084
0.459297 0.852766 0.700084
0.459297 0.852766 0.700084
0.45893 0.852689 0.699901
0.468681 0.853239 0.701122
0.485344 0.854185 0.703243
0.505425 0.855344 0.705974
0.528618 0.856748 0.709377
0.554391 0.858366 0.713603
0.5841 0.860395 0.718776
0.618769 0.862593 0.724392
0.657664 0.864897 0.729412
0.693645 0.867308 0.734966
0.733547 0.868803 0.744274
0.772473 0.870146 0.755489
0.803693 0.871351 0.767483
0.831083 0.87155 0.779767
0.859739 0.872953 0.796048
0.885161 0.876295 0.812696
0.904982 0.878904 0.821591
0.920531 0.880415 0.826169
0.932479 0.882124 0.833722
0.940505 0.884047 0.844816
0.947127 0.886259 0.856977
0.951659 0.889174 0.869673
0.954604 0.892775 0.881865
0.956954 0.896406 0.891737
0.958297 0.890593 0.888289
0.960021 0.880903 0.883055
0.962615 0.86363 0.874098
0.965911 0.823636 0.860746
0.581277 0.876936 0.75903
0.581277 0.876936 0.75903
0.581277 0.876936 0.75903
0.581277 0.876936 0.75903
0.581277 0.876936 0.75903
0.581277 0.876936 0.75903
0.581277 0.876936 0.75903
0.588251 0.877348 0.760067
0.599237 0.878035 0.76173
0.61384 0.878798 0.763836
0.63209 0.879805 0.766583
0.653773 0.880995 0.770077
0.678325 0.882368 0.77438
0.704585 0.884062 0.779248
0.731609 0.886046 0.78352
0.758099 0.888075 0.788251
0.787381 0.88954 0.79501
0.815412 0.890867 0.803006
0.838697 0.892073 0.811994
0.860517 0.892195 0.82237
0.883284 0.893202 0.835111
0.902678 0.896193 0.84712
0.917815 0.898146 0.854231
0.92958 0.899535 0.858198
0.938186 0.900999 0.86424
0.94461 0.902617 0.872877
0.948837 0.904952 0.881849
0.952285 0.906691 0.891524
0.954589 0.908934 0.900511
0.955093 0.905974 0.898405
0.955856 0.901076 0.894743
0.958099 0.891661 0.888884
0.961303 0.873137 0.879026
0.67744 0.895659 0.806561
0.67744 0.895659 0.806561
0.67744 0.895659 0.806561
0.67744 0.895659 0.806561
0.67744 0.895659 0.806561
0.67744 0.895659 0.806561
0.67744 0.895659 0.806561
0.67744 0.895659 0.806561
0.683314 0.895979 0.807309
0.691691 0.896574 0.808469
0.701625 0.897353 0.809979
0.714153 0.898344 0.811917
0.729503 0.899489 0.814282
0.748486 0.900893 0.817411
0.767605 0.902434 0.820935
0.785672 0.903853 0.82446
0.80499 0.905409 0.828107
0.828168 0.906477 0.83418
0.84921 0.907546 0.840574
0.866606 0.908385 0.847318
0.88333 0.908598 0.855116
0.900633 0.909361 0.864759
0.915846 0.91191 0.874784
0.927123 0.91342 0.880476
0.936004 0.91426 0.883375
0.942504 0.915297 0.887846
0.947082 0.916426 0.894331
0.950561 0.917891 0.901335
0.952941 0.919646 0.90779
0.953277 0.917647 0.906386
0.953719 0.914488 0.904311
0.954437 0.909834 0.901152
0.955718 0.901961 0.895399
0.744045 0.910552 0.840253
0.744045 0.910552 0.840253
0.744045 0.910552 0.840253
0.744045 0.910552 0.840253
0.744045 0.910552 0.840253
0.744045 0.910552 0.840253
0.744045 0.910552 0.840253
0.744045 0.910552 0.840253
0.743877 0.910521 0.840177
0.748257 0.910765 0.840909
0.755428 0.911208 0.8421
0.764477 0.911803 0.843626
0.774243 0.912535 0.845472
0.78558 0.913375 0.847684
0.798459 0.914397 0.850324
0.812833 0.91545 0.85333
0.827588 0.916701 0.856153
0.842405 0.918044 0.859037
0.859678 0.919142 0.863233
0.875029 0.920012 0.868437
0.888258 0.920562 0.874372
0.901534 0.920562 0.880507
0.914504 0.921141 0.888182
0.926314 0.922789 0.895705
0.934035 0.924208 0.900252
0.940429 0.925216 0.902342
0.94519 0.926284 0.90547
0.948867 0.927108 0.91014
0.950881 0.927947 0.915175
0.951202 0.926833 0.914031
0.951644 0.925246 0.912383
0.952255 0.922728 0.910185
0.953155 0.918624 0.907027
0.796963 0.922118 0.868559
0.796963 0.922118 0.868559
0.796963 0.922118 0.868559
0.796963 0.922118 0.868559
0.796963 0.922118 0.868559
0.796963 0.922118 0.868559
0.796963 0.922118 0.868559
0.796963 0.922118 0.868559
0.796963 0.922118 0.868559
0.796963 0.922118 0.868559
0.800031 0.922332 0.869108
0.805112 0.922683 0.869993
0.811185 0.923125 0.871
0.81854 0.923659 0.872328
0.827329 0.924315 0.874067
0.837812 0.925032 0.876249
0.849195 0.925841 0.878828
0.86009 0.926802 0.881163
0.871473 0.927901 0.883513
0.884382 0.92871 0.887068
0.895598 0.929366 0.891142
0.904921 0.929961 0.89546
0.914809 0.929915 0.900038
0.925277 0.930159 0.905501
0.933242 0.931517 0.911208
0.939422 0.932448 0.914824
0.943984 0.932921 0.916487
0.947127 0.933532 0.918853
0.948943 0.934142 0.921981
0.949126 0.933516 0.92137
0.949386 0.932631 0.920455
0.949813 0.931334 0.918975
0.950439 0.929442 0.916793
0.836728 0.930663 0.889815
0.836728 0.930663 0.889815
0.836728 0.930663 0.889815
0.836728 0.930663 0.889815
0.836728 0.930663 0.889815
0.836728 0.930663 0.889815
0.836728 0.930663 0.889815
0.836728 0.930663 0.889815
0.836637 0.930648 0.889754
0.836637 0.930648 0.889754
0.836637 0.930648 0.889754
0.839124 0.930816 0.890242
0.843168 0.931075 0.89102
0.848157 0.931441 0.891997
0.853422 0.931899 0.893156
0.85977 0.932418 0.894713
0.867567 0.933028 0.896666
0.87631 0.93373 0.898817
0.885451 0.934386 0.900404
0.893553 0.935119 0.902022
0.902144 0.935576 0.904601
0.91075 0.935943 0.907485
0.918257 0.936278 0.91078
0.925246 0.936202 0.914366
0.932479 0.936431 0.918807
0.93901 0.937453 0.922942
0.943069 0.938293 0.925307
0.945739 0.938811 0.926329
0.94754 0.939254 0.927764
0.947631 0.938903 0.927321
0.947784 0.938384 0.92668
0.947967 0.937667 0.92578
0.948257 0.93666 0.924498
0.867231 0.937026 0.906325
0.867231 0.937026 0.906325
0.867231 0.937026 0.906325
0.867231 0.937026 0.906325
0.867231 0.937026 0.906325
0.867231 0.937026 0.906325
0.867231 0.937026 0.906325
0.867231 0.937026 0.906325
0.867231 0.937026 0.906325
0.867231 0.937026 0.906325
0.867231 0.937026 0.906325
0.867231 0.937026 0.906325
0.869078 0.937118 0.906661
0.872023 0.937301 0.907271
0.875608 0.937575 0.908034
0.879942 0.937881 0.908934
0.885145 0.938186 0.910048
0.891234 0.938598 0.911604
0.89752 0.93904 0.913191
0.903655 0.939529 0.914611
0.909697 0.940063 0.915892
