Luts/Nikon/RED_FilmBiasBleachBypass_Rec2020_N-Log_to_Rec709_BT1886_VLog.cube
TITLE "Generated by Resolve"
LUT_3D_SIZE 9
0.0157168 0.0157168 0.0157168
0.0167697 0.0149996 0.0150759
0.053315 0.0107576 0.0149081
0.143359 0.0256962 0.04477
0.390921 0.0628519 0.117494
0.792081 0.195865 0.346517
0.952483 0.584039 0.6916
0.965957 0.820661 0.860227
0.965957 0.820661 0.860227
0.0137789 0.0244297 0.0151522
0.0274357 0.0256504 0.014847
0.0831159 0.0259556 0.0155032
0.169604 0.0352789 0.0426032
0.390921 0.0628519 0.117494
0.792081 0.195865 0.346517
0.952483 0.584039 0.6916
0.965957 0.820661 0.860227
0.965957 0.820661 0.860227
0.00383001 0.0985275 0.0231479
0.0292973 0.10312 0.0201877
0.125551 0.112154 0.0360266
0.28043 0.11014 0.05066
0.529732 0.131258 0.136858
0.794003 0.198154 0.347173
0.952483 0.584039 0.6916
0.965957 0.820661 0.860227
0.965957 0.820661 0.860227
0.00422675 0.27866 0.0823835
0.00779736 0.291173 0.0797436
0.122515 0.317906 0.0871138
0.393286 0.349386 0.139391
0.711238 0.367178 0.198474
0.894881 0.438911 0.446738
0.952621 0.586526 0.692164
0.965957 0.820661 0.860227
0.965957 0.820661 0.860227
0.0218967 0.649271 0.31873
0.0267338 0.65272 0.320317
0.0970626 0.67425 0.33959
0.444572 0.695293 0.401694
0.747463 0.71429 0.534569
0.904936 0.730526 0.623468
0.951293 0.769543 0.763867
0.965942 0.821653 0.86041
0.965957 0.820661 0.860227
0.459297 0.852766 0.700084
0.459297 0.852766 0.700084
0.505425 0.855344 0.705974
0.618769 0.862593 0.724392
0.772473 0.870146 0.755489
0.885161 0.876295 0.812696
0.940505 0.884047 0.844816
0.956954 0.896406 0.891737
0.965911 0.823636 0.860746
0.796963 0.922118 0.868559
0.796963 0.922118 0.868559
0.796963 0.922118 0.868559
0.811185 0.923125 0.871
0.849195 0.925841 0.878828
0.895598 0.929366 0.891142
0.933242 0.931517 0.911208
0.948943 0.934142 0.921981
0.950439 0.929442 0.916793
0.902968 0.944183 0.925551
0.902968 0.944183 0.925551
0.902968 0.944183 0.925551
0.902968 0.944183 0.925551
0.908766 0.944427 0.926665
0.921523 0.944854 0.930083
0.936126 0.94522 0.934203
0.945876 0.945342 0.94023
0.945891 0.945296 0.940154
0.902968 0.944183 0.925551
0.902968 0.944183 0.925551
0.902968 0.944183 0.925551
0.902968 0.944183 0.925551
0.902968 0.944183 0.925551
0.916869 0.944717 0.928801
0.935119 0.945205 0.933745
0.945754 0.945327 0.940154
0.945876 0.945342 0.94023
0.0150149 0.0150454 0.0152132
0.0167239 0.0150607 0.016434
0.0573129 0.0140078 0.0275578
0.14757 0.0281834 0.0623484
0.396231 0.0645914 0.130327
0.791836 0.195697 0.346288
0.952483 0.584039 0.6916
0.965957 0.820661 0.860227
0.965957 0.820661 0.860227
0.0143587 0.0209506 0.0192874
0.0213321 0.0212863 0.0213474
0.0764172 0.0260166 0.031754
0.162173 0.0352331 0.0612345
0.39501 0.0643626 0.128359
0.791836 0.195697 0.346288
0.952483 0.584039 0.6916
0.965957 0.820661 0.860227
0.965957 0.820661 0.860227
0.00434882 0.0958724 0.040589
0.0191196 0.100801 0.0399176
0.118364 0.110948 0.0542
0.272267 0.108583 0.0678111
0.520989 0.126665 0.1449
0.791836 0.195697 0.346288
0.952483 0.584039 0.6916
0.965957 0.820661 0.860227
0.965957 0.820661 0.860227
0.00419623 0.276631 0.0912947
0.00653086 0.286702 0.089601
0.112551 0.31548 0.0944839
0.387915 0.345708 0.14641
0.708415 0.361059 0.197757
0.894133 0.433204 0.443976
0.952483 0.584039 0.6916
0.965957 0.820661 0.860227
0.965957 0.820661 0.860227
0.0215 0.6477 0.316686
0.024506 0.649882 0.317342
0.0911727 0.672129 0.336263
0.440726 0.693706 0.398367
0.746929 0.712978 0.532677
0.904921 0.729335 0.622217
0.95137 0.768719 0.763424
0.965942 0.821164 0.860319
0.965957 0.820661 0.860227
0.458564 0.852628 0.699733
0.458183 0.852552 0.69955
0.502205 0.855055 0.705272
0.616999 0.862379 0.723857
0.771908 0.869947 0.754986
0.8851 0.876188 0.812528
0.94052 0.883955 0.844709
0.95697 0.896315 0.891676
0.965927 0.823163 0.860655
0.796963 0.922118 0.868559
0.796963 0.922118 0.868559
0.796826 0.922087 0.868482
0.810925 0.923095 0.870954
0.849058 0.925826 0.878798
0.895537 0.929366 0.891112
0.933227 0.931502 0.911162
0.948943 0.934142 0.921981
0.950454 0.929427 0.916762
0.902968 0.944183 0.925551
0.902968 0.944183 0.925551
0.902968 0.944183 0.925551
0.902968 0.944183 0.925551
0.908736 0.944427 0.92665
0.921508 0.944854 0.930068
0.936126 0.94522 0.934203
0.945876 0.945342 0.94023
0.945891 0.945296 0.940154
0.902968 0.944183 0.925551
0.902968 0.944183 0.925551
0.902968 0.944183 0.925551
0.902968 0.944183 0.925551
0.902968 0.944183 0.925551
0.916854 0.944717 0.928786
0.935119 0.945205 0.933745
0.945754 0.945327 0.940154
0.945876 0.945342 0.94023
0.0122835 0.0185092 0.034226
0.0191806 0.0215915 0.040238
0.0747234 0.023743 0.0693828
0.169848 0.0356298 0.107576
0.429129 0.0693828 0.187243
0.802014 0.210544 0.395514
0.952346 0.584878 0.692988
0.965957 0.820661 0.860227
0.965957 0.820661 0.860227
0.0129854 0.028809 0.0476387
0.0227817 0.030396 0.0518196
0.0811475 0.0292363 0.0754101
0.171695 0.0377203 0.107347
0.428016 0.0691997 0.185794
0.801465 0.209918 0.393896
0.952377 0.584726 0.692729
0.965957 0.820661 0.860227
0.965957 0.820661 0.860227
0.00399786 0.102571 0.0943008
0.012314 0.105379 0.0987411
0.111681 0.116884 0.116304
0.270649 0.118029 0.135012
0.527276 0.135637 0.205158
0.801114 0.209384 0.392279
0.952392 0.584237 0.692149
0.965957 0.820661 0.860227
0.965957 0.820661 0.860227
0.00433356 0.286427 0.161166
0.0053254 0.292912 0.162646
0.0827497 0.330938 0.173587
0.38085 0.358557 0.221027
0.703655 0.371786 0.274678
0.892256 0.436606 0.472648
0.952453 0.58381 0.691417
0.965957 0.820661 0.860227
0.965957 0.820661 0.860227
0.021973 0.651041 0.360204
0.0228122 0.651652 0.360189
0.0907912 0.674189 0.381094
0.428931 0.698375 0.434241
0.744121 0.714458 0.553109
0.90367 0.729641 0.630594
0.951431 0.767651 0.762783
0.965957 0.820661 0.860227
0.965957 0.820661 0.860227
0.45745 0.852399 0.699214
0.45745 0.852399 0.699214
0.497841 0.854658 0.70428
0.61474 0.862104 0.723125
0.771374 0.86981 0.754589
0.885054 0.876036 0.812299
0.940536 0.883787 0.844526
0.957 0.896208 0.8916
0.965927 0.82269 0.860578
0.796826 0.922087 0.868482
0.796826 0.922087 0.868482
0.796826 0.922087 0.868482
0.810498 0.923049 0.870832
0.848844 0.925795 0.878706
0.895491 0.929335 0.891066
0.933227 0.931487 0.911147
0.948959 0.934127 0.921965
0.950454 0.929412 0.916747
0.902968 0.944183 0.925551
0.902968 0.944183 0.925551
0.902968 0.944183 0.925551
0.902968 0.944183 0.925551
0.908705 0.944427 0.92665
0.921492 0.944854 0.930068
0.93611 0.94522 0.934203
0.945876 0.945342 0.94023
0.945891 0.945296 0.940154
0.902968 0.944183 0.925551
0.902968 0.944183 0.925551
0.902968 0.944183 0.925551
0.902968 0.944183 0.925551
0.902968 0.944183 0.925551
0.916823 0.944717 0.928786
0.935119 0.945205 0.933745
0.945754 0.945327 0.940154
0.945876 0.945342 0.94023
0.0228122 0.0539559 0.115953
0.0241245 0.054612 0.116838
0.0852369 0.0749065 0.144884
0.226734 0.0638895 0.209735
0.508309 0.0919051 0.316167
0.829175 0.249149 0.508675
0.94934 0.604822 0.725643
0.96582 0.821164 0.86096
0.965957 0.820661 0.860227
0.0226596 0.0535439 0.115297
0.0235904 0.0539559 0.115801
0.0846723 0.0744335 0.143923
0.225925 0.0634928 0.208606
0.5075 0.0915389 0.315007
0.828962 0.248814 0.507836
0.949371 0.604639 0.725353
0.96582 0.821134 0.860914
0.965957 0.820661 0.860227
0.00894179 0.11191 0.166857
0.00891127 0.110124 0.165667
0.089189 0.1234 0.20058
0.277684 0.12224 0.257359
0.54902 0.137392 0.336934
0.828534 0.24828 0.506706
0.949401 0.604425 0.725032
0.965835 0.821103 0.860868
0.965957 0.820661 0.860227
0.00448615 0.306432 0.283345
0.00445563 0.304967 0.282521
0.0654307 0.336141 0.320974
0.376257 0.37438 0.378408
0.697871 0.390173 0.419776
0.885206 0.457359 0.55523
0.949493 0.6038 0.724056
0.965866 0.820966 0.860685
0.965957 0.820661 0.860227
0.0292058 0.659724 0.478279
0.0289769 0.659312 0.477745
0.0860304 0.676249 0.497673
0.419806 0.706188 0.540337
0.737591 0.722713 0.61886
0.896834 0.734966 0.676829
0.950362 0.76878 0.775708
0.965957 0.820661 0.860227
0.965957 0.820661 0.860227
0.473167 0.852872 0.72372
0.473121 0.852872 0.723659
0.501839 0.854551 0.726726
0.618128 0.862135 0.742473
0.769558 0.871199 0.770718
0.884291 0.876692 0.819944
0.940093 0.88365 0.847379
0.957092 0.895857 0.891386
0.965942 0.821027 0.860288
0.796551 0.922026 0.868345
0.796429 0.921996 0.868269
0.796429 0.921996 0.868269
0.809308 0.922927 0.870527
0.848188 0.925689 0.878416
0.895293 0.929259 0.890867
0.933181 0.931441 0.91107
0.948974 0.934081 0.921935
0.950469 0.929351 0.916686
0.902968 0.944183 0.925551
0.902968 0.944183 0.925551
0.902968 0.944183 0.925551
0.902968 0.944183 0.925551
0.908614 0.944411 0.926619
0.921447 0.944854 0.930068
0.93611 0.94522 0.934203
0.945876 0.945342 0.94023
0.945891 0.945296 0.940154
0.902968 0.944183 0.925551
0.902968 0.944183 0.925551
0.902968 0.944183 0.925551
0.902968 0.944183 0.925551
0.902968 0.944183 0.925551
0.916762 0.944701 0.928771
0.935088 0.945205 0.933745
0.945754 0.945327 0.940154
0.945876 0.945342 0.94023
0.0384527 0.171084 0.366415
0.0384527 0.171084 0.366415
0.0684825 0.181857 0.38645
0.260044 0.230716 0.470588
0.620584 0.23093 0.585031
0.860273 0.382498 0.688624
0.942641 0.656016 0.790616
0.963027 0.831189 0.87451
0.965484 0.82237 0.862654
0.0383307 0.170764 0.36582
0.0382696 0.170611 0.365515
0.0677501 0.181292 0.385504
0.259388 0.230396 0.470069
0.620295 0.230442 0.584573
0.860273 0.38204 0.688273
0.942657 0.655924 0.790524
0.963027 0.831159 0.874479
0.965484 0.822324 0.862593
0.0381476 0.170291 0.364935
0.0380865 0.170138 0.36463
0.0669261 0.180545 0.384253
0.258503 0.229587 0.468849
0.619944 0.229679 0.583947
0.860136 0.381384 0.687831
0.942672 0.655772 0.790372
0.963043 0.831128 0.874434
0.965499 0.822293 0.862547
0.0272374 0.350301 0.499596
0.0272679 0.348959 0.498894
0.0498817 0.354757 0.515084
0.321157 0.402823 0.577752
0.678187 0.424323 0.65005
0.869169 0.492836 0.703944
0.942687 0.655131 0.789822
0.963058 0.831037 0.874327
0.96553 0.822187 0.862394
0.0772564 0.677211 0.653483
0.0767834 0.676905 0.65333
0.0962234 0.680568 0.658473
0.432303 0.706645 0.694606
0.732265 0.73077 0.73431
0.886305 0.745617 0.754147
0.945312 0.777554 0.810071
0.963134 0.830747 0.87393
0.965637 0.82182 0.86186
0.524559 0.855283 0.779919
0.524514 0.855283 0.779873
0.524208 0.855222 0.779751
0.629877 0.861662 0.792233
0.772549 0.873198 0.813352
0.88191 0.87892 0.843687
0.937621 0.884672 0.862913
0.956878 0.895979 0.895705
0.965957 0.820661 0.860227
0.802274 0.922225 0.876738
0.802136 0.922194 0.876677
0.802136 0.922194 0.876661
0.811353 0.922881 0.878233
0.849546 0.925719 0.885512
0.895674 0.929702 0.896437
0.933043 0.931533 0.913588
0.948852 0.934066 0.922789
0.95053 0.929183 0.916487
0.902968 0.944183 0.925551
0.902968 0.944183 0.925551
0.902968 0.944183 0.925551
0.902968 0.944183 0.925551
0.908278 0.944396 0.926543
0.921294 0.944854 0.930022
0.936065 0.94522 0.934173
0.945876 0.945342 0.94023
0.945891 0.945281 0.940139
0.902968 0.944183 0.925551
0.902968 0.944183 0.925551
0.902968 0.944183 0.925551
0.902968 0.944183 0.925551
0.902968 0.944183 0.925551
0.916533 0.944701 0.92871
0.935042 0.945205 0.933715
0.945754 0.945327 0.940139
0.945876 0.945342 0.94023
0.196201 0.50454 0.753185
0.195926 0.504265 0.752987
0.195926 0.504265 0.752987
0.325399 0.529656 0.76556
0.633204 0.605737 0.804715
0.85832 0.644236 0.839292
0.933623 0.750576 0.866194
0.957244 0.853986 0.900023
0.958526 0.848692 0.894957
0.195926 0.504265 0.752987
0.195926 0.504265 0.752987
0.195926 0.504265 0.752987
0.324392 0.529229 0.765332
0.632898 0.60528 0.804486
0.85832 0.644236 0.839292
0.933623 0.750484 0.866148
0.957244 0.853986 0.900023
0.958541 0.848661 0.894926
0.195636 0.503975 0.752773
0.195636 0.503975 0.752773
0.195636 0.503975 0.752773
0.323201 0.528786 0.765087
0.632547 0.605005 0.804334
0.858335 0.643992 0.839231
0.933608 0.750332 0.866072
0.957244 0.853971 0.900008
0.958541 0.848646 0.894911
0.194812 0.503136 0.752163
0.194812 0.503136 0.752163
0.194812 0.503136 0.752163
0.319615 0.527413 0.76437
0.631815 0.60441 0.804044
0.858289 0.64329 0.839002
0.933623 0.750195 0.86598
0.957259 0.85391 0.899947
0.958556 0.848569 0.894835
0.350057 0.706767 0.803464
0.349737 0.706462 0.803403
0.349081 0.706065 0.80322
0.450828 0.713329 0.811429
0.703578 0.748318 0.833127
0.866148 0.766918 0.854856
0.933272 0.795804 0.871015
0.957305 0.853742 0.899794
0.958618 0.848341 0.894621
0.617609 0.859236 0.850202
0.617456 0.859174 0.850172
0.617304 0.859113 0.850156
0.64509 0.860929 0.85272
0.781277 0.871839 0.867887
0.881926 0.881621 0.882872
0.93373 0.888518 0.889097
0.954498 0.899168 0.907729
0.958785 0.847608 0.893904
0.819196 0.922377 0.896605
0.819104 0.922347 0.896574
0.819104 0.922347 0.896574
0.819089 0.922347 0.896544
0.853574 0.92517 0.902159
0.898985 0.929747 0.910475
0.932799 0.932082 0.92163
0.94818 0.934462 0.927535
0.949386 0.929488 0.922789
0.905882 0.944106 0.928817
0.905882 0.944106 0.928817
0.905882 0.944106 0.928817
0.905882 0.944106 0.928817
0.909316 0.944228 0.929458
0.922057 0.944732 0.932586
0.9364 0.945205 0.936309
0.94583 0.945373 0.941039
0.945876 0.945266 0.940658
0.902968 0.944183 0.925551
0.902968 0.944183 0.925551
0.902968 0.944183 0.925551
0.902968 0.944183 0.925551
0.902968 0.944183 0.925551
0.915862 0.944686 0.928512
0.934874 0.945205 0.933654
0.945724 0.945327 0.940124
0.945876 0.945342 0.94023
0.665492 0.796643 0.89189
0.665492 0.796643 0.89189
0.665492 0.796643 0.89189
0.665492 0.796643 0.89189
0.728893 0.807965 0.895125
0.844572 0.837598 0.907973
0.925811 0.8551 0.91841
0.95079 0.89099 0.927459
0.951064 0.888975 0.926299
0.665492 0.796643 0.89189
0.665492 0.796643 0.89189
0.665492 0.796643 0.89189
0.665492 0.796643 0.89189
0.728801 0.80795 0.895125
0.844526 0.837583 0.907958
0.925811 0.8551 0.91841
0.95079 0.890974 0.927443
0.951064 0.888945 0.926284
0.665492 0.796643 0.89189
0.665492 0.796643 0.89189
0.665492 0.796643 0.89189
0.665278 0.796536 0.891844
0.728695 0.807919 0.895109
0.844526 0.837583 0.907958
0.925811 0.855024 0.918395
0.95079 0.890974 0.927443
0.951064 0.888945 0.926284
0.665278 0.796536 0.891844
0.665278 0.796536 0.891844
0.665278 0.796536 0.891844
0.665278 0.796536 0.891844
0.728252 0.807752 0.895064
0.844434 0.837491 0.907927
0.925811 0.855024 0.918395
0.95079 0.890944 0.927428
0.951064 0.888914 0.926268
0.664607 0.79617 0.891691
0.664607 0.79617 0.891691
0.664607 0.79617 0.891691
0.664607 0.79617 0.891691
0.726619 0.807202 0.894881
0.844175 0.837293 0.907835
0.925811 0.854795 0.918334
0.950805 0.890883 0.927398
0.95108 0.888838 0.926207
0.754696 0.871489 0.904723
0.754696 0.871489 0.904723
0.754665 0.871458 0.904723
0.754452 0.871321 0.904692
0.789059 0.874693 0.907744
0.874189 0.888136 0.915984
0.927337 0.896147 0.923491
0.949859 0.905928 0.929137
0.951125 0.888579 0.926055
0.851392 0.924437 0.921294
0.851347 0.924407 0.921279
0.851347 0.924407 0.921279
0.851301 0.924392 0.921263
0.85948 0.925231 0.922362
0.902022 0.92961 0.92842
0.933364 0.93315 0.933577
0.947143 0.935699 0.935195
0.948196 0.930861 0.932845
0.912627 0.943908 0.936355
0.912627 0.943908 0.936355
0.912627 0.943908 0.936355
0.912627 0.943908 0.936355
0.912627 0.943908 0.936339
0.923995 0.944427 0.938491
0.937728 0.945129 0.940658
0.945815 0.945495 0.943145
0.945891 0.945296 0.942809
0.910597 0.943954 0.934157
0.910597 0.943954 0.934157
0.910597 0.943954 0.934157
0.910597 0.943954 0.934157
0.910597 0.943954 0.934157
0.91809 0.944259 0.935714
0.936416 0.945098 0.939254
0.945617 0.945449 0.942458
0.94583 0.945434 0.942336
0.864561 0.904463 0.935561
0.864561 0.904463 0.935561
0.864561 0.904463 0.935561
0.864561 0.904463 0.935561
0.864561 0.904463 0.935561
0.883635 0.908751 0.936706
0.920958 0.919738 0.941131
0.946014 0.925933 0.943709
0.946548 0.925597 0.943709
0.864561 0.904463 0.935561
0.864561 0.904463 0.935561
0.864561 0.904463 0.935561
0.864561 0.904463 0.935561
0.864561 0.904463 0.935561
0.883619 0.908736 0.936706
0.920958 0.919738 0.941131
0.946014 0.925933 0.943709
0.946548 0.925597 0.943709
0.864561 0.904463 0.935561
0.864561 0.904463 0.935561
0.864561 0.904463 0.935561
0.864561 0.904463 0.935561
0.864561 0.904463 0.935561
0.883619 0.908736 0.936706
0.920943 0.919738 0.941115
0.946014 0.925933 0.943709
0.946548 0.925597 0.943709
0.864561 0.904463 0.935561
0.864561 0.904463 0.935561
0.864561 0.904463 0.935561
0.864561 0.904463 0.935561
0.864561 0.904463 0.935561
0.883589 0.908736 0.936706
0.920943 0.919738 0.941115
0.945998 0.925917 0.943709
0.946563 0.925566 0.943709
0.864485 0.904418 0.935546
0.864485 0.904418 0.935546
0.864485 0.904418 0.935546
0.864485 0.904418 0.935546
0.864485 0.904418 0.935546
0.883406 0.90866 0.93669
0.920913 0.919692 0.9411
0.945998 0.925902 0.943709
0.946563 0.925566 0.943709
0.86424 0.904265 0.9355
0.86424 0.904265 0.9355
0.86424 0.904265 0.9355
0.86424 0.904265 0.9355
0.86424 0.904265 0.9355
0.882948 0.908507 0.936645
0.920836 0.919631 0.94107
0.946014 0.925826 0.943679
0.946578 0.925505 0.943694
0.894575 0.929198 0.939498
0.894575 0.929198 0.939498
0.894575 0.929198 0.939498
0.89456 0.929198 0.939498
0.894499 0.929152 0.939483
0.90547 0.930419 0.940566
0.930816 0.93521 0.942794
0.945205 0.937682 0.944335
0.945815 0.934691 0.944106
0.923919 0.944381 0.943496
0.923919 0.944381 0.943496
0.923903 0.944366 0.943496
0.923903 0.944366 0.943496
0.923903 0.944366 0.943496
0.926619 0.944503 0.943725
0.938598 0.945159 0.94493
0.945739 0.945693 0.94583
0.945907 0.945449 0.945724
0.923415 0.944411 0.943175
0.923415 0.944411 0.943175
0.923415 0.944411 0.943175
0.923415 0.944411 0.943175
0.923415 0.944411 0.943175
0.9234 0.944411 0.943175
0.937774 0.945205 0.944625
0.945647 0.945815 0.945708
0.945968 0.94583 0.945739
0.865888 0.905226 0.935851
0.865888 0.905226 0.935851
0.865888 0.905226 0.935851
0.865888 0.905226 0.935851
0.865888 0.905226 0.935851
0.865888 0.905226 0.935851
0.906462 0.915633 0.938216
0.944335 0.925917 0.943481
0.946288 0.926665 0.943938
0.865888 0.905226 0.935851
0.865888 0.905226 0.935851
0.865888 0.905226 0.935851
0.865888 0.905226 0.935851
0.865888 0.905226 0.935851
0.865888 0.905226 0.935851
0.906462 0.915633 0.938216
0.944335 0.925917 0.943481
0.946288 0.926665 0.943938
0.865888 0.905226 0.935851
0.865888 0.905226 0.935851
0.865888 0.905226 0.935851
0.865888 0.905226 0.935851
0.865888 0.905226 0.935851
0.865888 0.905226 0.935851
0.906447 0.915633 0.938216
0.944335 0.925917 0.943481
0.946288 0.926665 0.943938
0.865888 0.905226 0.935851
0.865888 0.905226 0.935851
0.865888 0.905226 0.935851
0.865888 0.905226 0.935851
0.865888 0.905226 0.935851
0.865888 0.905226 0.935851
0.906447 0.915633 0.938216
0.944335 0.925917 0.943481
0.946288 0.926665 0.943938
0.865888 0.905226 0.935851
0.865888 0.905226 0.935851
0.865888 0.905226 0.935851
0.865888 0.905226 0.935851
0.865888 0.905226 0.935851
0.865888 0.905226 0.935851
0.906386 0.915618 0.938216
0.944335 0.925917 0.943481
0.946288 0.926665 0.943938
0.865888 0.905226 0.935851
0.865888 0.905226 0.935851
0.865888 0.905226 0.935851
0.865888 0.905226 0.935851
0.865888 0.905226 0.935851
0.865888 0.905226 0.935851
0.906249 0.915572 0.938201
0.94432 0.925917 0.943481
0.946288 0.926665 0.943938
0.865888 0.905226 0.935851
0.865888 0.905226 0.935851
0.865888 0.905226 0.935851
0.865888 0.905226 0.935851
0.865888 0.905226 0.935851
0.865888 0.905226 0.935851
0.905791 0.915419 0.938155
0.944289 0.925902 0.943481
0.946288 0.926665 0.943938
0.918822 0.94258 0.942962
0.918822 0.94258 0.942962
0.918822 0.94258 0.942962
0.918807 0.942565 0.942946
0.918791 0.942565 0.942946
0.918746 0.94255 0.942946
0.93051 0.943252 0.943969
0.9449 0.944518 0.94551
0.945693 0.944152 0.945525
0.92491 0.944549 0.943771
0.92491 0.944549 0.943771
0.92491 0.944549 0.943771
0.92491 0.944549 0.943771
0.92491 0.944549 0.943771
0.92491 0.944549 0.943771
0.932036 0.944884 0.944381
0.945083 0.94583 0.945922
0.945983 0.945907 0.946044
