Luts/Nikon/RED_FilmBiasBleachBypass_Rec2020_N-Log_to_Rec709_BT1886_VLog.cube
TITLE "Generated by Resolve"
LUT_3D_SIZE 5
0.0157168 0.0157168 0.0157168
0.053315 0.0107576 0.0149081
0.390921 0.0628519 0.117494
0.952483 0.584039 0.6916
0.965957 0.820661 0.860227
0.00383001 0.0985275 0.0231479
0.125551 0.112154 0.0360266
0.529732 0.131258 0.136858
0.952483 0.584039 0.6916
0.965957 0.820661 0.860227
0.0218967 0.649271 0.31873
0.0970626 0.67425 0.33959
0.747463 0.71429 0.534569
0.951293 0.769543 0.763867
0.965957 0.820661 0.860227
0.796963 0.922118 0.868559
0.796963 0.922118 0.868559
0.849195 0.925841 0.878828
0.933242 0.931517 0.911208
0.950439 0.929442 0.916793
0.902968 0.944183 0.925551
0.902968 0.944183 0.925551
0.902968 0.944183 0.925551
0.935119 0.945205 0.933745
0.945876 0.945342 0.94023
0.0122835 0.0185092 0.034226
0.0747234 0.023743 0.0693828
0.429129 0.0693828 0.187243
0.952346 0.584878 0.692988
0.965957 0.820661 0.860227
0.00399786 0.102571 0.0943008
0.111681 0.116884 0.116304
0.527276 0.135637 0.205158
0.952392 0.584237 0.692149
0.965957 0.820661 0.860227
0.021973 0.651041 0.360204
0.0907912 0.674189 0.381094
0.744121 0.714458 0.553109
0.951431 0.767651 0.762783
0.965957 0.820661 0.860227
0.796826 0.922087 0.868482
0.796826 0.922087 0.868482
0.848844 0.925795 0.878706
0.933227 0.931487 0.911147
0.950454 0.929412 0.916747
0.902968 0.944183 0.925551
0.902968 0.944183 0.925551
0.902968 0.944183 0.925551
0.935119 0.945205 0.933745
0.945876 0.945342 0.94023
0.0384527 0.171084 0.366415
0.0684825 0.181857 0.38645
0.620584 0.23093 0.585031
0.942641 0.656016 0.790616
0.965484 0.82237 0.862654
0.0381476 0.170291 0.364935
0.0669261 0.180545 0.384253
0.619944 0.229679 0.583947
0.942672 0.655772 0.790372
0.965499 0.822293 0.862547
0.0772564 0.677211 0.653483
0.0962234 0.680568 0.658473
0.732265 0.73077 0.73431
0.945312 0.777554 0.810071
0.965637 0.82182 0.86186
0.802274 0.922225 0.876738
0.802136 0.922194 0.876661
0.849546 0.925719 0.885512
0.933043 0.931533 0.913588
0.95053 0.929183 0.916487
0.902968 0.944183 0.925551
0.902968 0.944183 0.925551
0.902968 0.944183 0.925551
0.935042 0.945205 0.933715
0.945876 0.945342 0.94023
0.665492 0.796643 0.89189
0.665492 0.796643 0.89189
0.728893 0.807965 0.895125
0.925811 0.8551 0.91841
0.951064 0.888975 0.926299
0.665492 0.796643 0.89189
0.665492 0.796643 0.89189
0.728695 0.807919 0.895109
0.925811 0.855024 0.918395
0.951064 0.888945 0.926284
0.664607 0.79617 0.891691
0.664607 0.79617 0.891691
0.726619 0.807202 0.894881
0.925811 0.854795 0.918334
0.95108 0.888838 0.926207
0.851392 0.924437 0.921294
0.851347 0.924407 0.921279
0.85948 0.925231 0.922362
0.933364 0.93315 0.933577
0.948196 0.930861 0.932845
0.910597 0.943954 0.934157
0.910597 0.943954 0.934157
0.910597 0.943954 0.934157
0.936416 0.945098 0.939254
0.94583 0.945434 0.942336
0.865888 0.905226 0.935851
0.865888 0.905226 0.935851
0.865888 0.905226 0.935851
0.906462 0.915633 0.938216
0.946288 0.926665 0.943938
0.865888 0.905226 0.935851
0.865888 0.905226 0.935851
0.865888 0.905226 0.935851
0.906447 0.915633 0.938216
0.946288 0.926665 0.943938
0.865888 0.905226 0.935851
0.865888 0.905226 0.935851
0.865888 0.905226 0.935851
0.906386 0.915618 0.938216
0.946288 0.926665 0.943938
0.865888 0.905226 0.935851
0.865888 0.905226 0.935851
0.865888 0.905226 0.935851
0.905791 0.915419 0.938155
0.946288 0.926665 0.943938
0.92491 0.944549 0.943771
0.92491 0.944549 0.943771
0.92491 0.944549 0.943771
0.932036 0.944884 0.944381
0.945983 0.945907 0.946044
