Luts/Nikon/RED_Achromic_Rec2020_N-Log_to_Rec709_VLog.cube
TITLE "Generated by Resolve"
#LUMIXPHOTOSTYLE VLOG
LUT_3D_SIZE 9
0 0 0
0.0330358 0.0019379 0.00196841
0.152346 0.00729381 0.0128481
0.35819 0.0286412 0.0521096
0.639857 0.0706035 0.150454
0.860929 0.176806 0.348226
0.966888 0.42977 0.59472
0.999603 0.672923 0.773983
0.999603 0.672923 0.773983
0.00244144 0.035874 0.00248722
0.04094 0.0325322 0.00355535
0.189837 0.0204623 0.0143893
0.394202 0.0378119 0.0522927
0.639857 0.0706035 0.150454
0.860929 0.176806 0.348226
0.966888 0.42977 0.59472
0.999603 0.672923 0.773983
0.999603 0.672923 0.773983
0.00350958 0.16083 0.0065156
0.0112917 0.161776 0.00775158
0.196231 0.158404 0.0180819
0.471992 0.128542 0.0509194
0.705135 0.131502 0.149828
0.861677 0.178531 0.347982
0.966888 0.42977 0.59472
0.999603 0.672923 0.773983
0.999603 0.672923 0.773983
0.00369268 0.376654 0.0608225
0.00410468 0.382666 0.0591135
0.09897 0.388235 0.0645151
0.440192 0.379461 0.107851
0.748943 0.343069 0.162219
0.896742 0.349248 0.364843
0.967147 0.432197 0.594797
0.999603 0.672923 0.773983
0.999603 0.672923 0.773983
0.00708019 0.629679 0.236973
0.00802625 0.63122 0.23621
0.0301976 0.640528 0.236255
0.29807 0.645029 0.248783
0.683131 0.633326 0.340627
0.901274 0.605493 0.41561
0.97557 0.614847 0.618952
0.999664 0.674342 0.773953
0.999603 0.672923 0.773983
0.0453498 0.803113 0.496254
0.0453498 0.803113 0.496254
0.0673228 0.805432 0.497536
0.187991 0.811994 0.502998
0.557244 0.815824 0.516991
0.835935 0.8056 0.606104
0.967605 0.789746 0.66186
0.999527 0.794202 0.789471
0.999786 0.677211 0.773922
0.251545 0.905135 0.709041
0.251545 0.905135 0.709041
0.251545 0.905135 0.709041
0.323812 0.9066 0.710643
0.5234 0.910506 0.717327
0.748455 0.913191 0.729046
0.921004 0.90631 0.789014
0.994369 0.897917 0.818128
0.996033 0.880735 0.809583
0.589426 0.956573 0.838483
0.589426 0.956573 0.838483
0.589426 0.956573 0.838483
0.589426 0.956573 0.838483
0.637568 0.957534 0.840223
0.748318 0.959777 0.847044
0.8701 0.961303 0.855665
0.967346 0.957565 0.893324
0.967651 0.957214 0.892866
0.589426 0.956573 0.838483
0.589426 0.956573 0.838483
0.589426 0.956573 0.838483
0.589426 0.956573 0.838483
0.589426 0.956573 0.838483
0.708461 0.959152 0.844282
0.861357 0.961288 0.853773
0.965942 0.957595 0.892897
0.967346 0.957565 0.893324
0.000274662 0.000274662 0.00268559
0.0189364 0.00189212 0.0135042
0.142336 0.00688182 0.0354772
0.348791 0.0273594 0.0787366
0.637461 0.0704662 0.169787
0.860807 0.176699 0.348058
0.966888 0.42977 0.59472
0.999603 0.672923 0.773983
0.999603 0.672923 0.773983
0.00282292 0.0251621 0.0170138
0.0160372 0.0156405 0.0159152
0.16347 0.0178683 0.0305028
0.368597 0.0345922 0.0722515
0.637461 0.0703899 0.166949
0.860807 0.176699 0.348058
0.966888 0.42977 0.59472
0.999603 0.672923 0.773983
0.999603 0.672923 0.773983
0.00350958 0.155901 0.0357977
0.0049897 0.15996 0.0315709
0.17998 0.15761 0.0381018
0.457084 0.127367 0.0659648
0.698756 0.126268 0.15935
0.860807 0.176699 0.348058
0.966888 0.42977 0.59472
0.999603 0.672923 0.773983
0.999603 0.672923 0.773983
0.00367742 0.373678 0.0741588
0.0039826 0.378683 0.0713817
0.085481 0.386786 0.0736095
0.435157 0.376791 0.117418
0.748226 0.338308 0.162615
0.896376 0.345098 0.364126
0.966888 0.42977 0.59472
0.999603 0.672923 0.773983
0.999603 0.672923 0.773983
0.00701915 0.628656 0.235843
0.00761425 0.629587 0.235203
0.0284276 0.63917 0.23508
0.295293 0.643839 0.247227
0.682948 0.632151 0.33933
0.901274 0.604227 0.414755
0.975586 0.613886 0.618784
0.999634 0.673655 0.773968
0.999603 0.672923 0.773983
0.0451972 0.80293 0.495918
0.0451209 0.802838 0.49575
0.0658579 0.805112 0.497108
0.185306 0.811749 0.502571
0.556512 0.815564 0.516365
0.83592 0.805417 0.605844
0.967636 0.789563 0.661768
0.999512 0.794034 0.789441
0.999756 0.676478 0.773938
0.251545 0.905135 0.709041
0.251545 0.905135 0.709041
0.25127 0.905089 0.708919
0.322454 0.906569 0.710613
0.522713 0.910491 0.717296
0.74815 0.913191 0.729015
0.920958 0.906249 0.788907
0.994369 0.897917 0.818128
0.996033 0.880674 0.809567
0.589426 0.956573 0.838483
0.589426 0.956573 0.838483
0.589426 0.956573 0.838483
0.589426 0.956573 0.838483
0.637324 0.957534 0.840223
0.74818 0.959777 0.847044
0.8701 0.961303 0.855665
0.967346 0.957565 0.893324
0.967651 0.957214 0.892866
0.589426 0.956573 0.838483
0.589426 0.956573 0.838483
0.589426 0.956573 0.838483
0.589426 0.956573 0.838483
0.589426 0.956573 0.838483
0.708309 0.959136 0.844266
0.861265 0.961288 0.853758
0.965942 0.957595 0.892897
0.967346 0.957565 0.893324
0.00401312 0.00523384 0.079881
0.00827039 0.00950637 0.0844129
0.146304 0.00686656 0.130159
0.361059 0.0258946 0.175113
0.638911 0.07393 0.248157
0.858839 0.182376 0.391455
0.966796 0.429999 0.596078
0.999603 0.672923 0.773983
0.999603 0.672923 0.773983
0.00378424 0.0201419 0.0986343
0.0115969 0.0203708 0.101457
0.150744 0.0148775 0.134279
0.362341 0.0273289 0.172869
0.63856 0.0738384 0.246281
0.858732 0.182193 0.390036
0.966812 0.429953 0.595819
0.999603 0.672923 0.773983
0.999603 0.672923 0.773983
0.00352483 0.159487 0.14023
0.00389105 0.160479 0.145678
0.151934 0.161334 0.1617
0.428214 0.135698 0.169665
0.684611 0.13312 0.234836
0.858778 0.182055 0.388632
0.966812 0.429679 0.59527
0.999603 0.672923 0.773983
0.999603 0.672923 0.773983
0.00363165 0.374746 0.173892
0.00381476 0.378058 0.172519
0.0471199 0.395621 0.170535
0.414832 0.384863 0.208667
0.73431 0.344625 0.239597
0.893507 0.344503 0.394003
0.966857 0.429557 0.594568
0.999603 0.672923 0.773983
0.999603 0.672923 0.773983
0.0068513 0.62858 0.2804
0.00701915 0.628794 0.279942
0.026627 0.63888 0.279774
0.271733 0.646952 0.284688
0.677867 0.6336 0.369116
0.899611 0.603723 0.428077
0.97557 0.612665 0.618448
0.999603 0.672923 0.773983
0.999603 0.672923 0.773983
0.0449683 0.80267 0.495415
0.0449683 0.80267 0.495415
0.06392 0.804654 0.496483
0.182055 0.811414 0.501976
0.555611 0.815396 0.515892
0.835981 0.805142 0.605509
0.96762 0.789258 0.66154
0.999512 0.79379 0.789395
0.999725 0.675807 0.773938
0.25127 0.905089 0.708919
0.25127 0.905089 0.708919
0.25127 0.905089 0.708919
0.32047 0.906477 0.71046
0.521813 0.91043 0.717144
0.748043 0.913146 0.728878
0.921004 0.906203 0.78883
0.994369 0.897856 0.818082
0.996033 0.880613 0.809537
0.589426 0.956573 0.838483
0.589426 0.956573 0.838483
0.589426 0.956573 0.838483
0.589426 0.956573 0.838483
0.637003 0.957519 0.840208
0.748043 0.959777 0.847044
0.870024 0.961303 0.85565
0.967346 0.957565 0.893324
0.967651 0.957214 0.892866
0.589426 0.956573 0.838483
0.589426 0.956573 0.838483
0.589426 0.956573 0.838483
0.589426 0.956573 0.838483
0.589426 0.956573 0.838483
0.70808 0.959136 0.844251
0.861265 0.961288 0.853758
0.965942 0.957595 0.892897
0.967346 0.957565 0.893324
0.00921645 0.0426184 0.237232
0.00949111 0.0436103 0.237888
0.103731 0.0663767 0.263432
0.380438 0.040177 0.342229
0.65951 0.0861067 0.401755
0.857404 0.198627 0.49218
0.964401 0.43595 0.631174
0.999603 0.67306 0.775143
0.999603 0.672923 0.773983
0.00914015 0.0420233 0.236149
0.00929274 0.0426184 0.236362
0.10277 0.0656443 0.262196
0.38024 0.0393072 0.341207
0.65922 0.0859846 0.400717
0.85742 0.198489 0.491463
0.964416 0.435859 0.630854
0.999603 0.67306 0.775067
0.999603 0.672923 0.773983
0.00517281 0.150393 0.286519
0.0052491 0.147356 0.285847
0.0881819 0.154772 0.316762
0.397925 0.125765 0.361547
0.671702 0.119249 0.401022
0.857313 0.198199 0.490562
0.964446 0.435767 0.630503
0.999603 0.673045 0.77499
0.999603 0.672923 0.773983
0.00363165 0.375586 0.342016
0.00363165 0.374426 0.341558
0.0268101 0.386618 0.366201
0.388739 0.386435 0.391333
0.712917 0.350576 0.386587
0.883864 0.349538 0.477867
0.964508 0.435508 0.62945
0.999603 0.672999 0.774685
0.999603 0.672923 0.773983
0.00732433 0.627726 0.404852
0.00729381 0.627436 0.404562
0.0206149 0.635584 0.408682
0.234653 0.649851 0.413214
0.660182 0.637949 0.466117
0.890028 0.606226 0.501991
0.974868 0.61088 0.638025
0.999603 0.672923 0.773983
0.999603 0.672923 0.773983
0.0479438 0.802426 0.538079
0.0479286 0.802426 0.537972
0.0612192 0.803876 0.538994
0.175006 0.810697 0.543465
0.540612 0.816907 0.553246
0.832074 0.806165 0.628077
0.966735 0.7888 0.670283
0.999512 0.793088 0.789242
0.999634 0.673426 0.773968
0.250721 0.904982 0.708675
0.250446 0.904921 0.708553
0.250446 0.904921 0.708553
0.314656 0.906279 0.710094
0.519097 0.910231 0.716701
0.747372 0.912993 0.728496
0.920913 0.906096 0.788632
0.9944 0.897688 0.817975
0.996048 0.8804 0.809445
0.589426 0.956573 0.838483
0.589426 0.956573 0.838483
0.589426 0.956573 0.838483
0.589426 0.956573 0.838483
0.636027 0.957504 0.840177
0.747707 0.959777 0.847044
0.869963 0.961303 0.855634
0.967346 0.957565 0.893324
0.967681 0.957183 0.892821
0.589426 0.956573 0.838483
0.589426 0.956573 0.838483
0.589426 0.956573 0.838483
0.589426 0.956573 0.838483
0.589426 0.956573 0.838483
0.707469 0.959136 0.844221
0.861112 0.961288 0.853742
0.965896 0.957595 0.892882
0.967346 0.957565 0.893324
0.0280461 0.193286 0.512779
0.0280461 0.193286 0.512779
0.052018 0.200275 0.520195
0.277073 0.230777 0.553674
0.653742 0.183154 0.614801
0.857542 0.256123 0.648615
0.959396 0.464729 0.707713
0.999481 0.677119 0.797925
0.999588 0.673411 0.777798
0.0280156 0.193011 0.512398
0.0280003 0.192874 0.512215
0.0513924 0.199802 0.519738
0.276402 0.230564 0.553368
0.653651 0.182757 0.614557
0.857542 0.25594 0.64828
0.959411 0.464683 0.707607
0.999481 0.677104 0.797864
0.999588 0.673411 0.777722
0.0279698 0.192584 0.511849
0.0279545 0.192447 0.51165
0.0506752 0.199176 0.519097
0.2757 0.229938 0.552621
0.65362 0.182101 0.614191
0.857435 0.25565 0.647913
0.959426 0.464591 0.707408
0.999481 0.677089 0.797787
0.999588 0.673396 0.77763
0.0168917 0.368154 0.558328
0.0170443 0.36701 0.558145
0.0302739 0.366217 0.568261
0.286519 0.381643 0.592035
0.660395 0.351034 0.627558
0.861982 0.343557 0.646479
0.959411 0.464164 0.706737
0.999496 0.677058 0.797574
0.999588 0.673365 0.777417
0.00781262 0.626383 0.596033
0.0077821 0.626123 0.595987
0.0153201 0.627527 0.599191
0.202106 0.637507 0.620539
0.637293 0.635309 0.640787
0.872389 0.609964 0.628046
0.969238 0.612436 0.693858
0.999512 0.676921 0.796811
0.999603 0.673243 0.776562
0.0593729 0.801266 0.642588
0.0593729 0.801266 0.642512
0.0593118 0.801175 0.642374
0.15845 0.807324 0.649287
0.524804 0.816541 0.657511
0.818677 0.808957 0.695674
0.961273 0.789273 0.716335
0.999634 0.791989 0.8009
0.999603 0.672923 0.773983
0.261707 0.904448 0.738643
0.261418 0.904402 0.738521
0.261402 0.904402 0.738491
0.310216 0.905303 0.739742
0.515358 0.909697 0.74432
0.742397 0.91368 0.752712
0.91899 0.90634 0.801953
0.993851 0.897414 0.823743
0.996078 0.879805 0.809186
0.589426 0.956573 0.838483
0.589426 0.956573 0.838483
0.589426 0.956573 0.838483
0.589426 0.956573 0.838483
0.632731 0.957443 0.840055
0.746532 0.959747 0.847013
0.869627 0.961303 0.855543
0.967346 0.957565 0.893324
0.967758 0.957092 0.892714
0.589426 0.956573 0.838483
0.589426 0.956573 0.838483
0.589426 0.956573 0.838483
0.589426 0.956573 0.838483
0.589426 0.956573 0.838483
0.705379 0.959091 0.844068
0.8607 0.961288 0.853681
0.965835 0.957595 0.892866
0.967346 0.957565 0.893324
0.0964065 0.438651 0.744213
0.0962997 0.438468 0.744076
0.0962997 0.438468 0.744076
0.191577 0.449851 0.749508
0.526345 0.483223 0.774151
0.829129 0.44918 0.801999
0.951385 0.536904 0.816236
0.997681 0.694606 0.847288
0.998535 0.689647 0.837049
0.0962997 0.438468 0.744076
0.0962997 0.438468 0.744076
0.0962997 0.438468 0.744076
0.190845 0.449592 0.749371
0.526192 0.482872 0.773953
0.829129 0.44918 0.801999
0.951385 0.536828 0.816144
0.997681 0.694606 0.847288
0.99855 0.689632 0.837018
0.0962081 0.43827 0.743954
0.0962081 0.43827 0.743954
0.0962081 0.43827 0.743954
0.18996 0.449302 0.749218
0.525856 0.482689 0.7738
0.829175 0.448905 0.801923
0.951339 0.536645 0.816052
0.997681 0.694591 0.847242
0.99855 0.689616 0.836973
0.0959335 0.43769 0.743557
0.0959335 0.43769 0.743557
0.0959335 0.43769 0.743557
0.187289 0.448463 0.748775
0.525185 0.482292 0.773556
0.82919 0.448127 0.801694
0.951354 0.536507 0.815915
0.997696 0.69453 0.847135
0.99855 0.689555 0.836835
0.0722972 0.618891 0.763821
0.0722972 0.618585 0.763806
0.072221 0.618219 0.763684
0.154879 0.61915 0.771038
0.547448 0.632563 0.78613
0.826688 0.610483 0.80531
0.95201 0.608728 0.81323
0.997726 0.694347 0.846784
0.998596 0.689342 0.836408
0.0928206 0.798062 0.778637
0.0927291 0.797971 0.778622
0.0926528 0.797879 0.778622
0.125353 0.799298 0.781064
0.503822 0.806851 0.796155
0.805753 0.805417 0.808713
0.949615 0.791562 0.795743
0.998962 0.792416 0.835264
0.998703 0.688685 0.835019
0.308751 0.902998 0.806409
0.308537 0.902937 0.806378
0.308537 0.902937 0.806378
0.308461 0.902937 0.806317
0.507652 0.907134 0.81149
0.744488 0.912398 0.818601
0.912398 0.907378 0.842969
0.990509 0.897719 0.851041
0.993576 0.879408 0.839826
0.601083 0.956344 0.859159
0.601083 0.956344 0.859159
0.601083 0.956344 0.859159
0.601083 0.956344 0.859144
0.632807 0.957046 0.860044
0.746105 0.959426 0.864729
0.868544 0.96173 0.871839
0.966171 0.95787 0.902052
0.967178 0.957031 0.898207
0.589426 0.956573 0.838483
0.589426 0.956573 0.838483
0.589426 0.956573 0.838483
0.589426 0.956573 0.838483
0.589426 0.956573 0.838483
0.699062 0.958968 0.843641
0.859205 0.961303 0.853468
0.965576 0.957595 0.89279
0.967346 0.957565 0.893324
0.319814 0.670893 0.879759
0.319814 0.670893 0.879759
0.319814 0.670893 0.879759
0.319814 0.670893 0.879759
0.46157 0.680369 0.882521
0.728206 0.702266 0.897917
0.925383 0.688899 0.908736
0.990387 0.746258 0.912902
0.990921 0.742397 0.909758
0.319814 0.670893 0.879759
0.319814 0.670893 0.879759
0.319814 0.670893 0.879759
0.319814 0.670893 0.879759
0.461357 0.680354 0.882521
0.728115 0.702251 0.897902
0.925383 0.688899 0.908736
0.990387 0.746212 0.912856
0.990921 0.742351 0.909712
0.319814 0.670893 0.879759
0.319814 0.670893 0.879759
0.319814 0.670893 0.879759
0.319631 0.670771 0.879698
0.461143 0.680339 0.882521
0.728115 0.702251 0.897902
0.925414 0.688731 0.90869
0.990387 0.746212 0.912856
0.990921 0.742351 0.909712
0.319631 0.670771 0.879698
0.319631 0.670771 0.879698
0.319631 0.670771 0.879698
0.319631 0.670771 0.879698
0.460395 0.68014 0.882445
0.728008 0.702144 0.897841
0.925414 0.688731 0.90869
0.990402 0.746151 0.91281
0.990936 0.742306 0.909682
0.319066 0.670375 0.879499
0.319066 0.670375 0.879499
0.319066 0.670375 0.879499
0.319066 0.670375 0.879499
0.457527 0.67953 0.882231
0.72755 0.701885 0.897688
0.925444 0.688273 0.908568
0.990417 0.746044 0.912718
0.990951 0.742168 0.909545
0.31545 0.79321 0.885786
0.31545 0.79321 0.885786
0.31545 0.793149 0.885786
0.315435 0.79292 0.885786
0.448646 0.793942 0.889967
0.748928 0.803937 0.897932
0.920516 0.791943 0.907912
0.989441 0.791409 0.909697
0.991012 0.741756 0.909148
0.421759 0.900877 0.88922
0.421592 0.900832 0.88922
0.421592 0.900832 0.88922
0.421408 0.900786 0.88922
0.48275 0.901854 0.890944
0.736584 0.906126 0.900282
0.906691 0.905547 0.907942
0.983917 0.898894 0.897383
0.987762 0.87924 0.894072
0.638102 0.956054 0.901564
0.638102 0.956054 0.901564
0.638102 0.956054 0.901564
0.638102 0.956054 0.901564
0.638071 0.956054 0.901534
0.744747 0.95819 0.905898
0.873564 0.961212 0.911604
0.963409 0.958358 0.926741
0.965438 0.956649 0.923415
0.626734 0.956283 0.890471
0.626734 0.956283 0.890471
0.626734 0.956283 0.890471
0.626734 0.956283 0.890471
0.626703 0.956283 0.89044
0.697627 0.957717 0.892714
0.862165 0.961288 0.899611
0.96173 0.958434 0.918212
0.964599 0.958144 0.916609
0.603677 0.826841 0.949676
0.603677 0.826841 0.949676
0.603677 0.826841 0.949676
0.603677 0.826841 0.949676
0.603677 0.826841 0.949676
0.697398 0.832639 0.950973
0.857114 0.845899 0.959258
0.972076 0.842008 0.962646
0.974716 0.839353 0.962615
0.603677 0.826841 0.949676
0.603677 0.826841 0.949676
0.603677 0.826841 0.949676
0.603677 0.826841 0.949676
0.603677 0.826841 0.949676
0.697337 0.832639 0.950973
0.857114 0.845899 0.959258
0.972076 0.842008 0.962646
0.974716 0.839353 0.962615
0.603677 0.826841 0.949676
0.603677 0.826841 0.949676
0.603677 0.826841 0.949676
0.603677 0.826841 0.949676
0.603677 0.826841 0.949676
0.697292 0.832624 0.950973
0.857053 0.845884 0.959258
0.972076 0.842008 0.962646
0.974716 0.839353 0.962615
0.603677 0.826841 0.949676
0.603677 0.826841 0.949676
0.603677 0.826841 0.949676
0.603677 0.826841 0.949676
0.603677 0.826841 0.949676
0.697169 0.832624 0.950973
0.857053 0.845884 0.959258
0.97203 0.842023 0.962646
0.974746 0.839261 0.9626
0.60351 0.826749 0.949645
0.60351 0.826749 0.949645
0.60351 0.826749 0.949645
0.60351 0.826749 0.949645
0.60351 0.826749 0.949645
0.69659 0.832486 0.950927
0.856977 0.845808 0.959228
0.972045 0.841917 0.962615
0.974746 0.839261 0.9626
0.603037 0.82649 0.949538
0.603037 0.82649 0.949538
0.603037 0.82649 0.949538
0.603037 0.82649 0.949538
0.603037 0.82649 0.949538
0.694972 0.832212 0.950851
0.856718 0.84564 0.959136
0.972076 0.841627 0.962554
0.974807 0.838956 0.962539
0.623667 0.897902 0.950195
0.623667 0.897902 0.950195
0.623667 0.897902 0.950195
0.623667 0.897856 0.950195
0.62359 0.897719 0.950195
0.705394 0.89868 0.952377
0.873289 0.904295 0.956176
0.967361 0.898619 0.960861
0.971954 0.881895 0.961059
0.711681 0.955795 0.949371
0.711681 0.955795 0.949371
0.71162 0.955779 0.949371
0.71162 0.955779 0.949371
0.71162 0.955779 0.949371
0.739513 0.956313 0.950378
0.871077 0.958648 0.955764
0.958953 0.958175 0.95993
0.962249 0.95555 0.959152
0.708263 0.956329 0.946532
0.708263 0.956329 0.946532
0.708263 0.956329 0.946532
0.708263 0.956329 0.946532
0.708263 0.956329 0.946532
0.708217 0.956329 0.946502
0.860304 0.959457 0.952728
0.957275 0.959869 0.957702
0.961715 0.959625 0.95758
0.606256 0.828275 0.95024
0.606256 0.828275 0.95024
0.606256 0.828275 0.95024
0.606256 0.828275 0.95024
0.606256 0.828275 0.95024
0.606256 0.828275 0.95024
0.798047 0.844373 0.951873
0.963333 0.846464 0.961669
0.973739 0.843961 0.963531
0.606256 0.828275 0.95024
0.606256 0.828275 0.95024
0.606256 0.828275 0.95024
0.606256 0.828275 0.95024
0.606256 0.828275 0.95024
0.606256 0.828275 0.95024
0.798047 0.844373 0.951873
0.963333 0.846464 0.961669
0.973739 0.843961 0.963531
0.606256 0.828275 0.95024
0.606256 0.828275 0.95024
0.606256 0.828275 0.95024
0.606256 0.828275 0.95024
0.606256 0.828275 0.95024
0.606256 0.828275 0.95024
0.797971 0.844373 0.951873
0.963333 0.846464 0.961669
0.973739 0.843961 0.963531
0.606256 0.828275 0.95024
0.606256 0.828275 0.95024
0.606256 0.828275 0.95024
0.606256 0.828275 0.95024
0.606256 0.828275 0.95024
0.606256 0.828275 0.95024
0.797971 0.844373 0.951873
0.963333 0.846464 0.961669
0.973739 0.843961 0.963531
0.606256 0.828275 0.95024
0.606256 0.828275 0.95024
0.606256 0.828275 0.95024
0.606256 0.828275 0.95024
0.606256 0.828275 0.95024
0.606256 0.828275 0.95024
0.797742 0.844343 0.951873
0.963333 0.846464 0.961669
0.973739 0.843961 0.963531
0.606256 0.828275 0.95024
0.606256 0.828275 0.95024
0.606256 0.828275 0.95024
0.606256 0.828275 0.95024
0.606256 0.828275 0.95024
0.606256 0.828275 0.95024
0.797055 0.844266 0.951858
0.963241 0.846479 0.961654
0.973739 0.843961 0.963531
0.606256 0.828275 0.95024
0.606256 0.828275 0.95024
0.606256 0.828275 0.95024
0.606256 0.828275 0.95024
0.606256 0.828275 0.95024
0.606256 0.828275 0.95024
0.794842 0.844038 0.951812
0.963058 0.846525 0.961624
0.973739 0.843961 0.963531
0.69044 0.945617 0.950515
0.69044 0.945617 0.950515
0.69044 0.945617 0.950515
0.690379 0.945602 0.950515
0.690303 0.945571 0.9505
0.690105 0.94548 0.9505
0.805173 0.947265 0.954543
0.952758 0.948089 0.960403
0.963577 0.943801 0.961135
0.716869 0.95668 0.951049
0.716869 0.95668 0.951049
0.716869 0.95668 0.951049
0.716869 0.95668 0.951049
0.716869 0.95668 0.951049
0.716869 0.95668 0.951049
0.790906 0.958282 0.953933
0.948806 0.960235 0.961151
0.961212 0.960006 0.961822
