Luts/Arri/ARRI_LogC2Video_Classic709_VLog.cube
TITLE "Generated by Resolve"
LUT_3D_SIZE 9
0 0 0
0.0303349 0 0.000228885
0.161486 0 0.00170901
0.384085 0 0.009308
0.669673 0 0.0329442
0.941695 0 0.0733806
1 0 0.100877
1 0 0.109651
1 0 0.111055
0 0.0171206 0
0.0173495 0.0116121 6.10361e-05
0.15378 0.00389105 0.00115969
0.382712 0 0.00923171
0.668605 0 0.0328222
0.941466 0 0.0733501
1 0 0.100862
1 0 0.109651
1 0 0.111055
0 0.130663 0
0 0.125154 0
0.122164 0.115572 0
0.372213 0.0726787 0.000686656
0.668681 0 0.0319982
0.940978 0 0.0732586
1 0 0.100862
1 0 0.109651
1 0 0.111055
0 0.334386 0
0 0.332158 0
0 0.327916 0
0.316823 0.312123 0
0.651225 0.249653 0
0.94052 0 0.0666361
1 0 0.100832
1 0 0.109651
1 0 0.111055
0 0.605753 0
0 0.605509 0
0 0.605264 0
0 0.600214 0
0.572992 0.5823 0
0.904433 0.523598 0
1 0.112139 0.0636454
1 0 0.109636
1 0 0.111055
0 0.862638 0
0 0.863142 0
0 0.863401 0
0 0.864637 0
0.277165 0.858381 0
0.817182 0.840513 0
1 0.791821 0
1 0.470314 0
1 0 0.111055
0 0.999832 0.206104
0 0.999847 0.205982
0 0.999908 0.2065
0 1 0.208408
0 1 0.215488
0.643565 1 0.194903
0.970962 0.998215 0.0896468
1 0.995361 0
1 0.752865 0
0 1 0.601236
0 1 0.600931
0 1 0.600931
0 1 0.600626
0 1 0.599115
0 1 0.608911
0.903441 1 0.600061
1 1 0.538033
1 1 0
0 1 0.859602
0 1 0.859602
0 1 0.859602
0 1 0.859602
0 1 0.859312
0 1 0.858717
0 1 0.865095
0.987961 1 0.862089
1 1 0.821439
0 0 0.0135195
0.0300145 0 0.0124971
0.161959 0 0.0127565
0.384833 0 0.0166934
0.669932 0 0.0329747
0.941695 0 0.0733806
1 0 0.100877
1 0 0.109651
1 0 0.111055
0 0.0207523 0.0144656
0.0147402 0.0146029 0.0144961
0.15288 0.00680552 0.0153201
0.382864 0 0.0205997
0.669139 0 0.0328832
0.941466 0 0.0733501
1 0 0.100862
1 0 0.109651
1 0 0.111055
0 0.134752 0.00495918
0 0.129519 0.00500496
0.119814 0.120455 0.00596628
0.372107 0.0797894 0.0136721
0.668803 0 0.0350805
0.940978 0 0.0732586
1 0 0.100862
1 0 0.109651
1 0 0.111055
0 0.33698 0
0 0.334768 0
0 0.330327 0
0.315572 0.314656 0
0.651331 0.253788 0.000503548
0.940841 0 0.0655985
1 0 0.100832
1 0 0.109651
1 0 0.111055
0 0.605219 0
0 0.605249 0
0 0.60502 0
0 0.600015 0
0.571862 0.581994 0
0.90396 0.52459 0
1 0.122789 0.061799
1 0 0.109636
1 0 0.111055
0 0.861509 0
0 0.86154 0
0 0.862028 0
0 0.863218 0
0.273777 0.856794 0
0.816785 0.839551 0
1 0.791959 0
1 0.472648 0
1 0 0.111055
0 0.999802 0.268452
0 0.999832 0.268391
0 0.999908 0.269062
0 1 0.269978
0 1 0.273793
0.642252 1 0.262135
0.970397 0.998047 0.15201
1 0.994812 0
1 0.753643 0
0 1 0.608545
0 1 0.60827
0 1 0.60827
0 1 0.607691
0 1 0.606271
0 1 0.616053
0.903136 1 0.608087
1 1 0.548089
1 1 0
0 1 0.860639
0 1 0.860639
0 1 0.860639
0 1 0.860639
0 1 0.860349
0 1 0.859754
0 1 0.866285
0.987884 1 0.863401
1 1 0.823545
0 0 0.114916
0.0216983 0 0.114
0.159121 0 0.113466
0.384421 0 0.113741
0.6692 0 0.113359
0.941604 0 0.0992599
1 0 0.100877
1 0 0.109651
1 0 0.111055
0 0.00608835 0.11754
0.00360113 0.0034638 0.116899
0.14873 0.000167849 0.116976
0.381842 0 0.118166
0.668894 0 0.117739
0.941115 0 0.102342
1 0 0.100862
1 0 0.109651
1 0 0.111055
0 0.128832 0.113405
0 0.122927 0.112886
0.112505 0.112902 0.113146
0.370718 0.0687419 0.115816
0.668086 0 0.121752
0.940856 0 0.10631
1 0 0.100862
1 0 0.109651
1 0 0.111055
0 0.335805 0.0798352
0 0.333822 0.0794537
0 0.32958 0.0796521
0.31252 0.313802 0.0836347
0.650416 0.253468 0.0998856
0.94049 0 0.113527
1 0 0.100832
1 0 0.109651
1 0 0.111055
0 0.604242 0.00746166
0 0.603754 0.00729381
0 0.603265 0.00720226
0 0.59852 0.00733959
0.571038 0.581109 0.000961318
0.903502 0.524147 0
1 0.135882 0.0594949
1 0 0.109636
1 0 0.111055
0 0.859693 0.0276646
0 0.859709 0.0274052
0 0.860182 0.0271611
0 0.861128 0.0259709
0.269947 0.855207 0.0221561
0.815869 0.837873 0
1 0.790936 0
1 0.474983 0
1 0 0.111055
0 0.999756 0.308797
0 0.999817 0.309117
0 0.999878 0.30988
0 1 0.311254
0 1 0.317098
0.640665 1 0.307271
0.969802 0.997833 0.230793
1 0.993851 0
1 0.754162 0
0 1 0.61738
0 1 0.617105
0 1 0.617105
0 1 0.616541
0 1 0.615122
0 1 0.624887
0.902724 1 0.617838
1 1 0.560815
1 1 0
0 1 0.862119
0 1 0.862119
0 1 0.862119
0 1 0.861982
0 1 0.86183
0 1 0.861082
0 1 0.867765
0.987793 1 0.864729
1 1 0.825849
0 0 0.307073
0.000671397 0 0.307362
0.140047 0 0.306462
0.379141 0 0.305135
0.666194 0 0.300694
0.939803 0 0.283253
1 0 0.201282
1 0 0.109651
1 0 0.111055
0 0 0.308171
0 0 0.308354
0.122042 0 0.30811
0.374975 0 0.307912
0.666911 0 0.304814
0.939529 0 0.285435
1 0 0.203677
1 0 0.109651
1 0 0.111055
0 0.0666209 0.307973
0 0.0579385 0.307942
0.0691234 0.04477 0.3075
0.361913 0.00521859 0.307179
0.664637 0 0.306966
0.938293 0 0.287373
1 0 0.206912
1 0 0.109651
1 0 0.111055
0 0.324269 0.300008
0 0.321889 0.300542
0 0.317327 0.300694
0.300389 0.300801 0.301076
0.645533 0.235386 0.301976
0.938674 0 0.296834
1 0 0.216785
1 0 0.109651
1 0 0.111055
0 0.596201 0.27776
0 0.596185 0.27808
0 0.595621 0.278569
0.000137331 0.590814 0.277913
0.565942 0.573327 0.278202
0.901091 0.516533 0.27126
1 0.132342 0.233371
1 0 0.109636
1 0 0.111055
0 0.853513 0.274739
0 0.853513 0.274739
0 0.853956 0.274876
0 0.854612 0.275288
0.25539 0.848661 0.274266
0.813001 0.831724 0.264057
1 0.785061 0.176425
1 0.482841 0
1 0 0.111055
0 0.999649 0.404242
0 0.999802 0.405173
0 0.999847 0.405142
0 1 0.407294
0 1 0.412222
0.638071 1 0.407141
0.968063 0.997299 0.36939
1 0.989334 0.044892
1 0.756756 0
0 1 0.641337
0 1 0.641047
0 1 0.641047
0 1 0.640772
0 1 0.639628
0 1 0.649989
0.901549 1 0.643366
1 1 0.594522
1 1 0.0541848
0 1 0.866285
0 1 0.866285
0 1 0.866285
0 1 0.866285
0 1 0.86598
0 1 0.865385
0 1 0.871778
0.987503 1 0.869291
1 1 0.832944
0 0 0.564614
0 0 0.565454
0.038056 0 0.565423
0.357809 0 0.565301
0.659358 0 0.565759
0.933623 0 0.558099
1 0 0.533181
1 0 0.403204
1 0 0.111055
0 0 0.564446
0 0 0.564797
0.009308 0 0.565042
0.346853 0 0.565011
0.657374 0 0.565911
0.932403 0 0.557839
1 0 0.533898
1 0 0.404623
1 0 0.111055
0 0.00209049 0.563668
0 0.00125124 0.563806
7.62951e-05 0 0.564111
0.329992 0 0.564599
0.652155 0 0.565545
0.933776 0 0.560739
1 0 0.534844
1 0 0.406531
1 0 0.111055
0 0.278325 0.558938
0 0.275334 0.559533
0 0.269306 0.559289
0.250217 0.247532 0.560128
0.630304 0.158755 0.561471
0.930053 0 0.562387
1 0 0.537926
1 0 0.412009
1 0 0.111055
0 0.573632 0.547646
0 0.573053 0.547707
0 0.572656 0.548257
0 0.567422 0.54815
0.549447 0.549447 0.549462
0.891829 0.488304 0.549081
1 0.0374151 0.543023
1 0 0.428901
1 0 0.111055
0 0.837507 0.533227
0 0.837659 0.53402
0 0.838071 0.534493
0 0.838865 0.535714
0.206943 0.832395 0.536233
0.804395 0.814801 0.53547
1 0.76553 0.520394
1 0.461387 0.451911
1 0 0.111055
0 0.999802 0.566674
0 1 0.567193
0 1 0.567758
0 1 0.569619
0 1 0.575555
0.629435 0.997864 0.574243
0.962951 0.991684 0.560418
1 0.976181 0.483925
1 0.765301 0
0 1 0.706569
0 1 0.706569
0 1 0.706569
0 1 0.70631
0 1 0.705226
0 1 0.715908
0.898192 1 0.712184
1 1 0.678859
1 1 0.487419
0 1 0.879057
0 1 0.879057
0 1 0.879057
0 1 0.878904
0 1 0.878752
0 1 0.878157
0 1 0.884688
0.986648 1 0.882963
1 1 0.85481
0 0 0.810941
0 0 0.811292
0 0 0.811475
0.28043 0 0.811719
0.632456 0 0.812985
0.925399 0 0.814664
1 0 0.805127
1 0 0.778866
1 0 0.65069
0 0.000244144 0.810361
0 9.15541e-05 0.810254
0 0 0.810651
0.255818 0 0.810605
0.626322 0 0.812192
0.923796 0 0.814389
1 0 0.805356
1 0 0.779095
1 0 0.651164
0 0.00263981 0.808957
0 0.00248722 0.809049
0 0.00248722 0.809003
0.216205 0.00157168 0.809674
0.618585 0 0.811597
0.920836 0 0.813718
1 0 0.805814
1 0 0.779324
1 0 0.651637
0 0.259586 0.805066
0 0.256611 0.805844
0 0.251041 0.805539
0.0506905 0.23151 0.80621
0.591943 0.151003 0.807721
0.908736 0 0.810559
1 0 0.8065
1 0 0.780255
1 0 0.653269
0 0.546426 0.796933
0 0.545998 0.797192
0 0.545052 0.797681
0 0.539544 0.797955
0.510872 0.520104 0.799283
0.872068 0.459648 0.801923
1 0.0544442 0.804959
1 0 0.783246
1 0 0.65864
0 0.81059 0.78265
0 0.810788 0.782849
0 0.811154 0.78349
0 0.811582 0.784817
0.0874189 0.804913 0.786114
0.786786 0.786938 0.78703
1 0.735592 0.78613
1 0.415808 0.779889
1 0 0.675212
0 0.979995 0.778881
0 0.980117 0.779553
0 0.980163 0.779782
0 0.980514 0.782071
0 0.981491 0.787335
0.612894 0.974441 0.788556
0.952544 0.965286 0.785412
1 0.945861 0.765805
1 0.723659 0.687587
0 1 0.828107
0 1 0.827909
0 1 0.827909
0 1 0.827924
0 1 0.827527
0 1 0.83592
0.891081 1 0.837125
0.999817 1 0.825025
1 1 0.7617
0 1 0.909712
0 1 0.909712
0 1 0.90959
0 1 0.90959
0 1 0.909483
0 1 0.909133
0 1 0.914733
0.984497 1 0.915358
1 1 0.900633
0 0.310231 0.967926
0 0.305592 0.967941
0 0.30074 0.968154
0.0252842 0.282445 0.968627
0.562875 0.217517 0.969894
0.884718 0.00851453 0.973068
1 0 0.980926
1 0 0.977081
1 0 0.964797
0 0.349111 0.967437
0 0.346105 0.967514
0 0.340475 0.967498
0.0123903 0.324453 0.968048
0.556359 0.267384 0.969284
0.882246 0.0127871 0.972412
1 0 0.980453
1 0 0.977188
1 0 0.964797
0 0.380407 0.966766
0 0.3776 0.966705
0 0.374624 0.966918
0.000793469 0.364981 0.967376
0.548745 0.324392 0.968566
0.878416 0.104997 0.971557
1 0 0.979492
1 0 0.977188
1 0 0.964797
0 0.454963 0.964645
0 0.453132 0.964721
0 0.45095 0.964904
0 0.442267 0.965286
0.524605 0.416373 0.966461
0.86862 0.328862 0.96939
1 0 0.976532
1 0 0.977295
1 0 0.965011
0 0.602838 0.959121
0 0.602396 0.959304
0 0.601389 0.959396
0 0.597223 0.959777
0.446723 0.58294 0.960876
0.838712 0.541787 0.963409
1 0.369909 0.968704
1 0 0.9776
1 0 0.965331
0 0.810575 0.94667
0 0.811063 0.946883
0 0.811551 0.947112
0 0.811765 0.947555
0.0869612 0.805249 0.948669
0.762371 0.787655 0.950744
0.991852 0.744091 0.953979
1 0.507027 0.962966
1 0 0.966705
0 0.956664 0.934676
0 0.956741 0.934752
0 0.956985 0.934981
0 0.957519 0.935622
0 0.958938 0.937667
0.599634 0.950957 0.939773
0.941085 0.941115 0.941131
1 0.920058 0.940856
1 0.717922 0.944717
0 1 0.936065
0 1 0.936065
0 1 0.936065
0 1 0.936065
0 1 0.935973
0 1 0.940368
0.884153 0.999969 0.943679
0.995193 0.999146 0.942016
1 0.995605 0.934112
0 1 0.955306
0 1 0.955306
0 1 0.955306
0 1 0.95523
0 1 0.95523
0 1 0.955108
0 1 0.958648
0.981414 1 0.961868
1 1 0.957458
0 0.719814 1
0 0.719402 1
0 0.717922 1
0.00267033 0.71548 1
0.469612 0.706859 1
0.821714 0.682658 1
1 0.610971 1
1 0 1
1 0 1
0 0.724834 1
0 0.724437 1
0 0.723293 1
0.000839246 0.720882 1
0.464744 0.712627 1
0.820371 0.688502 1
0.999908 0.619058 1
1 0 1
1 0 1
0 0.730541 1
0 0.729595 1
0 0.729076 1
0 0.726513 1
0.459663 0.718746 1
0.818494 0.695384 1
0.999298 0.627802 1
1 0 1
1 0 1
0 0.74667 1
0 0.745724 1
0 0.744656 1
0 0.742412 1
0.441413 0.735485 1
0.812467 0.715679 1
0.997513 0.652628 1
1 0.107424 1
1 0 1
0 0.792981 1
0 0.792386 1
0 0.791669 1
0 0.789502 1
0.369131 0.782757 1
0.79237 0.766155 1
0.991897 0.720409 1
1 0.455192 1
1 0 1
0 0.875044 0.997559
0 0.875364 0.997559
0 0.875227 0.997604
0 0.873777 0.997833
0.0712902 0.869596 0.998596
0.742565 0.859998 0.999466
0.970001 0.839475 1
1 0.751064 1
1 0 1
0 0.95967 0.990448
0 0.959945 0.990509
0 0.960052 0.990509
0 0.961013 0.990616
0 0.961257 0.991104
0.612879 0.953765 0.993133
0.933455 0.944747 0.994919
1 0.929519 0.996307
1 0.825299 1
0 1 0.986389
0 1 0.986389
0 1 0.986389
0 1 0.986389
0 1 0.986374
0 1 0.987564
0.882841 0.994659 0.990845
0.991485 0.991485 0.991485
1 0.986526 0.991424
0 1 0.987167
0 1 0.987167
0 1 0.987167
0 1 0.987167
0 1 0.987167
0 1 0.987152
0 1 0.988571
0.979416 1 0.992355
1 1 0.991974
0 0.931517 1
0.0246738 0.931319 1
0.0635386 0.93109 1
0.169192 0.930266 1
0.500832 0.928069 1
0.788846 0.922652 1
0.957168 0.912505 1
1 0.885863 1
1 0.522484 1
0 0.932036 1
0.02121 0.931853 1
0.0593729 0.931609 1
0.163394 0.930785 1
0.49926 0.928588 1
0.788312 0.923323 1
0.956893 0.913054 1
1 0.886687 1
1 0.532174 1
0 0.932677 1
0.0171817 0.932479 1
0.0545205 0.93225 1
0.154925 0.931426 1
0.497032 0.929213 1
0.787762 0.924056 1
0.956542 0.913878 1
1 0.887785 1
1 0.545113 1
0 0.934462 1
0.00776684 0.934264 1
0.0429236 0.933928 1
0.137102 0.933196 1
0.490974 0.930983 1
0.785901 0.925917 1
0.95581 0.916457 1
1 0.891051 1
1 0.579873 1
0 0.940154 1
0 0.939864 1
0.00788891 0.939635 1
0.0872358 0.938872 1
0.468238 0.93666 1
0.779751 0.931533 1
0.953368 0.923583 1
1 0.900618 1
1 0.66804 1
0 0.957092 1
0 0.95668 1
0 0.956527 1
0.00166323 0.955612 1
0.384512 0.95349 1
0.760006 0.948196 1
0.945922 0.9411 1
1 0.925734 1
1 0.815976 1
0 0.984955 0.998352
0 0.985 0.998352
0 0.985077 0.998352
0 0.984344 0.998581
0 0.981537 0.999405
0.681682 0.976486 1
0.929747 0.97113 1
0.998398 0.965133 1
1 0.937072 1
0 1 0.996353
0 1 0.996353
0 1 0.996353
0 1 0.996353
0 1 0.996353
0 1 0.997314
0.892241 0.995712 0.999893
0.990036 0.992996 1
1 0.989776 1
0 1 0.995651
0 1 0.995651
0 1 0.995651
0 1 0.995651
0 1 0.995651
0 1 0.995651
0 1 0.996704
0.979706 1 0.999847
1 1 1
