Luts/Arri/ARRI_LogC2Video_Classic709_VLog.cube
TITLE "Generated by Resolve"
LUT_3D_SIZE 5
0 0 0
0.161486 0 0.00170901
0.669673 0 0.0329442
1 0 0.100877
1 0 0.111055
0 0.130663 0
0.122164 0.115572 0
0.668681 0 0.0319982
1 0 0.100862
1 0 0.111055
0 0.605753 0
0 0.605264 0
0.572992 0.5823 0
1 0.112139 0.0636454
1 0 0.111055
0 0.999832 0.206104
0 0.999908 0.2065
0 1 0.215488
0.970962 0.998215 0.0896468
1 0.752865 0
0 1 0.859602
0 1 0.859602
0 1 0.859312
0 1 0.865095
1 1 0.821439
0 0 0.114916
0.159121 0 0.113466
0.6692 0 0.113359
1 0 0.100877
1 0 0.111055
0 0.128832 0.113405
0.112505 0.112902 0.113146
0.668086 0 0.121752
1 0 0.100862
1 0 0.111055
0 0.604242 0.00746166
0 0.603265 0.00720226
0.571038 0.581109 0.000961318
1 0.135882 0.0594949
1 0 0.111055
0 0.999756 0.308797
0 0.999878 0.30988
0 1 0.317098
0.969802 0.997833 0.230793
1 0.754162 0
0 1 0.862119
0 1 0.862119
0 1 0.86183
0 1 0.867765
1 1 0.825849
0 0 0.564614
0.038056 0 0.565423
0.659358 0 0.565759
1 0 0.533181
1 0 0.111055
0 0.00209049 0.563668
7.62951e-05 0 0.564111
0.652155 0 0.565545
1 0 0.534844
1 0 0.111055
0 0.573632 0.547646
0 0.572656 0.548257
0.549447 0.549447 0.549462
1 0.0374151 0.543023
1 0 0.111055
0 0.999802 0.566674
0 1 0.567758
0 1 0.575555
0.962951 0.991684 0.560418
1 0.765301 0
0 1 0.879057
0 1 0.879057
0 1 0.878752
0 1 0.884688
1 1 0.85481
0 0.310231 0.967926
0 0.30074 0.968154
0.562875 0.217517 0.969894
1 0 0.980926
1 0 0.964797
0 0.380407 0.966766
0 0.374624 0.966918
0.548745 0.324392 0.968566
1 0 0.979492
1 0 0.964797
0 0.602838 0.959121
0 0.601389 0.959396
0.446723 0.58294 0.960876
1 0.369909 0.968704
1 0 0.965331
0 0.956664 0.934676
0 0.956985 0.934981
0 0.958938 0.937667
0.941085 0.941115 0.941131
1 0.717922 0.944717
0 1 0.955306
0 1 0.955306
0 1 0.95523
0 1 0.958648
1 1 0.957458
0 0.931517 1
0.0635386 0.93109 1
0.500832 0.928069 1
0.957168 0.912505 1
1 0.522484 1
0 0.932677 1
0.0545205 0.93225 1
0.497032 0.929213 1
0.956542 0.913878 1
1 0.545113 1
0 0.940154 1
0.00788891 0.939635 1
0.468238 0.93666 1
0.953368 0.923583 1
1 0.66804 1
0 0.984955 0.998352
0 0.985077 0.998352
0 0.981537 0.999405
0.929747 0.97113 1
1 0.937072 1
0 1 0.995651
0 1 0.995651
0 1 0.995651
0 1 0.996704
1 1 1
