Luts/Arri/ARRI_LogC2Video_Classic709_VLog.cube
TITLE "Generated by Resolve"
LUT_3D_SIZE 33
0 0 0
0 0 0
0 0 0
0.00578317 0 4.57771e-05
0.0303349 0 0.000228885
0.0595407 0 0.000442512
0.0912642 0 0.000732433
0.124468 0 0.00112917
0.161486 0 0.00170901
0.204105 0 0.00260929
0.255329 0 0.00399786
0.316396 0 0.00616464
0.384085 0 0.009308
0.455756 0 0.01355
0.527382 0 0.0188602
0.599557 0 0.025391
0.669673 0 0.0329442
0.739193 0 0.0417182
0.807736 0 0.0516823
0.875853 0 0.0625772
0.941695 0 0.0733806
0.988205 0 0.0829023
1 0 0.0904402
1 0 0.0963149
1 0 0.100877
1 0 0.104326
1 0 0.106813
1 0 0.108537
1 0 0.109651
1 0 0.110338
1 0 0.11075
1 0 0.110979
1 0 0.111055
0 0 0
0 0 0
0 0 0
0.00341802 0 3.0518e-05
0.0275731 0 0.000198367
0.0563516 0 0.000411994
0.0888991 0 0.000701915
0.122286 0 0.00109865
0.159854 0 0.00167849
0.202762 0 0.00256352
0.253941 0 0.00395209
0.315343 0 0.00611887
0.38381 0 0.00929274
0.455207 0 0.0135042
0.527382 0 0.0188602
0.598215 0 0.0252537
0.669398 0 0.0329137
0.738933 0 0.0416876
0.807736 0 0.0516823
0.875853 0 0.0625772
0.941695 0 0.0733806
0.988205 0 0.0829023
1 0 0.0904402
1 0 0.0962997
1 0 0.100877
1 0 0.104326
1 0 0.106813
1 0 0.108537
1 0 0.109651
1 0 0.110338
1 0 0.11075
1 0 0.110979
1 0 0.111055
0 0 0
0 0 0
0 0 0
0.00140383 0 1.5259e-05
0.0255283 0 0.000183108
0.0536507 0 0.000396735
0.0862593 0 0.000671397
0.120531 0 0.00106813
0.158236 0 0.00164797
0.201801 0 0.00254826
0.253697 0 0.00393683
0.314824 0 0.00608835
0.383261 0 0.00926223
0.454917 0 0.013489
0.527657 0 0.0188907
0.598215 0 0.0252537
0.66807 0 0.0327611
0.738674 0 0.0416419
0.807477 0 0.0516365
0.875593 0 0.0625467
0.941466 0 0.0733501
0.988205 0 0.0829023
1 0 0.0904402
1 0 0.0962997
1 0 0.100877
1 0 0.104326
1 0 0.106813
1 0 0.108537
1 0 0.109651
1 0 0.110323
1 0 0.11075
1 0 0.110979
1 0 0.111055
0 0 0
0 0 0
0 0 0
0 0 0
0.0227665 0 0.000167849
0.0503395 0 0.000366217
0.0834821 0 0.000640879
0.118059 0 0.00103761
0.156435 0 0.00161746
0.19968 0 0.00248722
0.251835 0 0.00387579
0.314305 0 0.00607309
0.383261 0 0.00926223
0.455207 0 0.0135042
0.527382 0 0.0188602
0.598474 0 0.0252842
0.66833 0 0.0327916
0.738399 0 0.0416114
0.807202 0 0.0515908
0.875593 0 0.0625467
0.941466 0 0.0733501
0.988144 0 0.0828717
1 0 0.0904402
1 0 0.0962997
1 0 0.100862
1 0 0.104326
1 0 0.106813
1 0 0.108537
1 0 0.109651
1 0 0.110323
1 0 0.11075
1 0 0.110979
1 0 0.111055
0 0.0171206 0
0 0.0158389 0
0 0.0145418 0
0 0.0131838 0
0.0173495 0.0116121 6.10361e-05
0.0444953 0.00994888 0.00015259
0.0781872 0.00819409 0.000320439
0.114366 0.00636301 0.000610361
0.15378 0.00389105 0.00115969
0.198108 0.00132753 0.00224308
0.250202 0 0.00383001
0.312734 0 0.0059968
0.382712 0 0.00923171
0.455207 0 0.0135042
0.527657 0 0.0188907
0.598215 0 0.0252537
0.668605 0 0.0328222
0.737606 0 0.0415045
0.807202 0 0.0515908
0.875334 0 0.062501
0.941466 0 0.0733501
0.988144 0 0.0828717
1 0 0.0904402
1 0 0.0962997
1 0 0.100862
1 0 0.104326
1 0 0.106813
1 0 0.108537
1 0 0.109651
1 0 0.110323
1 0 0.11075
1 0 0.110979
1 0 0.111055
0 0.0381018 0
0 0.0365148 0
0 0.0350195 0
0 0.0336004 0
0.0102846 0.0315099 0
0.0356756 0.0292363 0
0.0701305 0.0270085 0
0.108202 0.0237888 0
0.14905 0.0193332 1.5259e-05
0.194461 0.013077 0.000534066
0.247776 0.00637827 0.00222782
0.311315 0.000991836 0.00492866
0.381186 0 0.00881972
0.454368 0 0.0134585
0.527657 0 0.0188907
0.599298 0 0.0253605
0.668605 0 0.0328222
0.737606 0 0.0415045
0.806943 0 0.0515602
0.875334 0 0.062501
0.941222 0 0.0733043
0.988144 0 0.0828717
1 0 0.090425
1 0 0.0962997
1 0 0.100862
1 0 0.104326
1 0 0.106813
1 0 0.108537
1 0 0.109651
1 0 0.110323
1 0 0.11075
1 0 0.110979
1 0 0.111055
0 0.064271 0
0 0.0623636 0
0 0.0605631 0
0 0.0584268 0
0.00332647 0.0560616 0
0.0253452 0.0536812 0
0.0601663 0.0507973 0
0.101167 0.0471504 0
0.14374 0.0420996 0
0.190265 0.0347143 0
0.244266 0.0255894 0.000503548
0.308583 0.0128328 0.00296025
0.378958 0.00169375 0.00695811
0.453117 0 0.0122683
0.526558 0 0.0187991
0.599023 0 0.02533
0.669139 0 0.0328832
0.73814 0 0.0415808
0.805905 0 0.0513924
0.875074 0 0.0624552
0.941222 0 0.0733043
0.988144 0 0.0828717
1 0 0.090425
1 0 0.0962997
1 0 0.100862
1 0 0.104326
1 0 0.106813
1 0 0.108537
1 0 0.109651
1 0 0.110323
1 0 0.11075
1 0 0.110979
1 0 0.111055
0 0.0957046 0
0 0.0941939 0
0 0.0925765 0
0 0.0908217 0
0 0.0889601 0
0.0123598 0.0867781 0
0.0443427 0.084184 0
0.0891737 0.0808576 0
0.135393 0.0764782 0
0.183825 0.0694285 0
0.239445 0.0591897 0
0.30486 0.0441749 0.000701915
0.376852 0.0225528 0.00419623
0.451408 0.00202945 0.00982681
0.525414 0 0.0167086
0.598138 0 0.0249638
0.669139 0 0.0328832
0.73814 0 0.0415808
0.806424 0 0.0514687
0.875074 0 0.0624552
0.940978 0 0.0732586
0.988067 0 0.0828412
1 0 0.090425
1 0 0.0962844
1 0 0.100862
1 0 0.104326
1 0 0.106813
1 0 0.108537
1 0 0.109651
1 0 0.110323
1 0 0.11075
1 0 0.110979
1 0 0.111055
0 0.130663 0
0 0.129274 0
0 0.128038 0
0 0.126528 0
0 0.125154 0
0.00247196 0.123339 0
0.0218814 0.121553 0
0.0693065 0.118959 0
0.122164 0.115572 0
0.174243 0.110353 0
0.231998 0.102922 0
0.298985 0.0909133 0
0.372213 0.0726787 0.000686656
0.448569 0.0437018 0.00511177
0.522896 0.00918593 0.0127565
0.596307 0 0.0217441
0.668681 0 0.0319982
0.738933 0 0.0416876
0.807202 0 0.0515908
0.873777 0 0.0622416
0.940978 0 0.0732586
0.988067 0 0.0828412
1 0 0.090425
1 0 0.0962844
1 0 0.100862
1 0 0.104311
1 0 0.106813
1 0 0.108537
1 0 0.109651
1 0 0.110323
1 0 0.11075
1 0 0.110979
1 0 0.111055
0 0.169574 0
0 0.16849 0
0 0.167727 0
0 0.166644 0
0 0.165362 0
0 0.163745 0
0.00326543 0.162219 0
0.036759 0.16051 0
0.0991379 0.157763 0
0.159304 0.153658 0
0.2206 0.147768 0
0.290578 0.139391 0
0.366217 0.126268 0
0.443503 0.106584 0.000518807
0.52018 0.0749065 0.00538643
0.594186 0.0264439 0.0152895
0.666896 0 0.0271
0.738109 0 0.0399786
0.807996 0 0.0517128
0.874815 0 0.0624094
0.940749 0 0.073228
0.987991 0 0.0828107
1 0 0.0903944
1 0 0.0962844
1 0 0.100862
1 0 0.104311
1 0 0.106813
1 0 0.108537
1 0 0.109651
1 0 0.110323
1 0 0.11075
1 0 0.110979
1 0 0.111055
0 0.215381 0
0 0.214832 0
0 0.213916 0
0 0.213001 0
0 0.211917 0
0 0.210666 0
0 0.209552 0
0.00517281 0.207935 0
0.0555123 0.205753 0
0.132174 0.20235 0
0.202884 0.197528 0
0.277684 0.191043 0
0.356298 0.180728 0
0.436515 0.166201 0
0.514549 0.145617 0.000244144
0.590143 0.114153 0.00509651
0.663767 0.0603037 0.0170138
0.736187 0 0.0320897
0.807034 0 0.0488136
0.876371 0 0.0626688
0.940505 0 0.0731823
0.987915 0 0.0827802
1 0 0.0903944
1 0 0.0962539
1 0 0.100847
1 0 0.104311
1 0 0.106813
1 0 0.108537
1 0 0.109651
1 0 0.110323
1 0 0.11075
1 0 0.110979
1 0 0.111055
0 0.271412 0
0 0.270527 0
0 0.269642 0
0 0.268986 0
0 0.268315 0
0 0.26714 0
0 0.266133 0
0 0.264576 0
0.00799573 0.262623 0
0.0753796 0.260029 0
0.170153 0.256184 0
0.256474 0.25034 0
0.341131 0.242466 0
0.425071 0.230808 0
0.506142 0.214405 0
0.583902 0.192264 0.000122072
0.658946 0.159579 0.00361639
0.732219 0.105211 0.0171206
0.804608 0.0135805 0.0364233
0.874968 0 0.0581369
0.942184 0 0.0734569
0.98761 0 0.0826581
1 0 0.0903639
1 0 0.0962539
1 0 0.100847
1 0 0.104311
1 0 0.106798
1 0 0.108537
1 0 0.109651
1 0 0.110323
1 0 0.11075
1 0 0.110979
1 0 0.111055
0 0.334386 0
0 0.334386 0
0 0.333639 0
0 0.332906 0
0 0.332158 0
0 0.331411 0
0 0.330816 0
0 0.329442 0
0 0.327916 0
0.0102693 0.32575 0
0.0989395 0.322576 0
0.218387 0.318425 0
0.316823 0.312123 0
0.407568 0.302983 0
0.493156 0.291051 0
0.573632 0.273625 0
0.651225 0.249653 0
0.726696 0.215015 0.00111391
0.800046 0.159457 0.0137331
0.871855 0.0530709 0.0393072
0.94052 0 0.0666361
0.988144 0 0.0828717
1 0 0.0903487
1 0 0.0962387
1 0 0.100832
1 0 0.104295
1 0 0.106798
1 0 0.108537
1 0 0.109651
1 0 0.110323
1 0 0.11075
1 0 0.110979
1 0 0.111055
0 0.402396 0
0 0.401877 0
0 0.401343 0
0 0.401343 0
0 0.400824 0
0 0.400305 0
0 0.399481 0
0 0.398596 0
0 0.39762 0
0 0.395743 0
0.0181888 0.393118 0
0.13962 0.390433 0
0.276112 0.385672 0
0.381033 0.378714 0
0.473838 0.369238 0
0.558724 0.357122 0
0.639536 0.339757 0
0.717159 0.315496 0
0.792264 0.279408 0
0.865919 0.222919 0.00567636
0.936767 0.11487 0.0385748
0.987396 0 0.0728161
1 0 0.090425
1 0 0.0962234
1 0 0.100816
1 0 0.104295
1 0 0.106798
1 0 0.108522
1 0 0.109651
1 0 0.110323
1 0 0.11075
1 0 0.110979
1 0 0.111055
0 0.471214 0
0 0.470954 0
0 0.47042 0
0 0.470161 0
0 0.469902 0
0 0.469902 0
0 0.469627 0
0 0.469062 0
0 0.467628 0
0 0.466865 0
0 0.465171 0
0.0438544 0.462669 0
0.203662 0.458976 0
0.33962 0.454047 0
0.445609 0.447013 0
0.538415 0.438361 0
0.622827 0.42562 0
0.703212 0.408881 0
0.781018 0.384695 0
0.856565 0.348882 0
0.92929 0.293324 0.00155642
0.984039 0.192142 0.0297856
1 0 0.0753185
1 0 0.0962844
1 0 0.100801
1 0 0.104295
1 0 0.106798
1 0 0.108522
1 0 0.109651
1 0 0.110323
1 0 0.11075
1 0 0.110979
1 0 0.111055
0 0.539223 0
0 0.538964 0
0 0.538705 0
0 0.538445 0
0 0.538705 0
0 0.538445 0
0 0.538445 0
0 0.537926 0
0 0.537087 0
0 0.5364 0
0 0.535073 0
0 0.533318 0
0.0806897 0.530648 0
0.27454 0.527092 0
0.405493 0.521843 0
0.509529 0.5149 0
0.601373 0.506447 0
0.685481 0.494072 0
0.766049 0.477836 0
0.84361 0.454749 0
0.918288 0.420264 0
0.977813 0.366949 0
1 0.271946 0.00939956
1 0.0287633 0.073167
1 0 0.100816
1 0 0.10428
1 0 0.106783
1 0 0.108522
1 0 0.109636
1 0 0.110323
1 0 0.11075
1 0 0.110979
1 0 0.111055
0 0.605753 0
0 0.605753 0
0 0.605753 0
0 0.605768 0
0 0.605509 0
0 0.605249 0
0 0.605264 0
0 0.605005 0
0 0.605264 0
0 0.60444 0
0 0.603723 0
0 0.60209 0
0 0.600214 0
0.12958 0.597681 0
0.346365 0.59382 0
0.470481 0.588891 0
0.572992 0.5823 0
0.663478 0.573495 0
0.747784 0.561913 0
0.827771 0.545602 0
0.904433 0.523598 0
0.96936 0.490654 0
1 0.440604 0
1 0.351217 0.00187686
1 0.112139 0.0636454
1 0 0.10425
1 0 0.106783
1 0 0.108522
1 0 0.109636
1 0 0.110323
1 0 0.11075
1 0 0.110979
1 0 0.111055
0 0.671611 0
0 0.671366 0
0 0.671366 0
0 0.671382 0
0 0.671626 0
0 0.671641 0
0 0.671382 0
0 0.671382 0
0 0.671397 0
0 0.671397 0
0 0.670542 0
0 0.669795 0
0 0.668055 0
0.00244144 0.66627 0
0.24509 0.663371 0
0.416037 0.659464 0
0.534615 0.654566 0
0.635309 0.648371 0
0.72488 0.639582 0
0.809491 0.62826 0
0.888182 0.612879 0
0.956939 0.591577 0
0.997314 0.560403 0
1 0.512947 0
1 0.428824 0
1 0.218921 0.042771
1 0 0.106737
1 0 0.108507
1 0 0.109636
1 0 0.110323
1 0 0.11075
1 0 0.110979
1 0 0.111055
0 0.736034 0
0 0.736294 0
0 0.736538 0
0 0.736294 0
0 0.736294 0
0 0.736309 0
0 0.736309 0
0 0.736309 0
0 0.736568 0
0 0.736584 0
0 0.736339 0
0 0.735973 0
0 0.734905 0
0 0.733272 0
0.0203708 0.731365 0
0.330129 0.728405 0
0.482551 0.724498 0
0.598077 0.719402 0
0.696895 0.713329 0
0.78584 0.704952 0
0.869062 0.693736 0
0.940017 0.679057 0
0.98819 0.658488 0
1 0.628992 0
1 0.583719 0
1 0.503258 0
1 0.308583 0.0156405
1 0 0.108507
1 0 0.109636
1 0 0.110323
1 0 0.11075
1 0 0.110979
1 0 0.111055
0 0.800214 0
0 0.800214 0
0 0.800229 0
0 0.800229 0
0 0.800229 0
0 0.799985 0
0 0.800488 0
0 0.800244 0
0 0.800504 0
0 0.800504 0
0 0.801007 0
0 0.801022 0
0 0.800351 0
0 0.798917 0
0 0.79736 0
0.161303 0.795316 0
0.405982 0.792325 0
0.547738 0.788449 0
0.660243 0.783444 0
0.75729 0.777218 0
0.84538 0.769329 0
0.920897 0.758892 0
0.975998 0.7449 0
0.999969 0.72517 0
1 0.696742 0
1 0.652628 0
1 0.575311 0
1 0.392218 0
1 0 0.109636
1 0 0.110323
1 0 0.11075
1 0 0.110979
1 0 0.111055
0 0.862638 0
0 0.862638 0
0 0.862882 0
0 0.863127 0
0 0.863142 0
0 0.863142 0
0 0.863157 0
0 0.863157 0
0 0.863401 0
0 0.863661 0
0 0.863676 0
0 0.863935 0
0 0.864637 0
0 0.863737 0
0 0.862165 0
0.0018616 0.860471 0
0.277165 0.858381 0
0.476951 0.85536 0
0.611566 0.851499 0
0.721706 0.84654 0
0.817182 0.840513 0
0.897597 0.833005 0
0.95874 0.823346 0
0.995727 0.810178 0
1 0.791821 0
1 0.763989 0
1 0.720714 0
1 0.645289 0
1 0.470314 0
1 0 0.110323
1 0 0.11075
1 0 0.110979
1 0 0.111055
0 0.919753 0
0 0.920211 0
0 0.920211 0
0 0.920211 0
0 0.920226 0
0 0.920226 0
0 0.920226 0
0 0.920455 0
0 0.920684 0
0 0.920882 0
0 0.920897 0
0 0.921447 0
0 0.921645 0
0 0.922393 0
0 0.921538 0
0 0.920012 0
0.0490883 0.918578 0
0.371008 0.916289 0
0.547539 0.913451 0
0.676097 0.910063 0
0.783658 0.905425 0
0.871351 0.899748 0
0.936141 0.893492 0
0.981918 0.88484 0
1 0.873274 0
1 0.85684 0
1 0.829923 0
1 0.78764 0
1 0.714122 0
1 0.544564 0
1 0 0.110735
1 0 0.110979
1 0 0.111055
0 0.964935 0
0 0.964935 0
0 0.964935 0
0 0.965118 0
0 0.965118 0
0 0.965286 0
0 0.965469 0
0 0.965606 0
0 0.965484 0
0 0.965621 0
0 0.966018 0
0 0.966033 0
0 0.966308 0
0 0.966842 0
0 0.967391 0
0 0.96669 0
0 0.965286 0
0.145953 0.963699 0
0.463478 0.961791 0
0.621881 0.959319 0
0.744503 0.95642 0
0.84358 0.952636 0
0.913787 0.948318 0
0.964355 0.943786 0
0.995575 0.937331 0
1 0.928786 0
1 0.915969 0
1 0.892348 0
1 0.853773 0
1 0.781277 0
1 0.615869 0
1 0 0.110979
1 0 0.111055
0 0.998001 0.0734112
0 0.998001 0.0734112
0 0.998276 0.07393
0 0.998276 0.07393
0 0.998276 0.0735332
0 0.998276 0.0735332
0 0.998428 0.0733806
0 0.998428 0.0733806
0 0.998703 0.0734875
0 0.998703 0.0732738
0 0.998703 0.0730755
0 0.998718 0.0730602
0 0.998718 0.0726635
0 0.998734 0.0720531
0 0.998749 0.0717937
0 0.998779 0.0709239
0 0.998306 0.0715801
0 0.997238 0.0721294
0.302327 0.995972 0.0704814
0.554894 0.994644 0.0647135
0.699397 0.99324 0.0526131
0.811429 0.990814 0.030808
0.892058 0.988113 0
0.946105 0.985107 0
0.984497 0.982193 0
1 0.977951 0
1 0.972183 0
1 0.962936 0
1 0.944625 0
1 0.91339 0
1 0.847547 0
1 0.685481 0
1 0 0.111055
0 0.999832 0.206104
0 0.999832 0.206104
0 0.999847 0.205982
0 0.999847 0.205982
0 0.999847 0.205982
0 0.999847 0.205982
0 0.999893 0.206622
0 0.999908 0.207385
0 0.999908 0.2065
0 0.999924 0.206378
0 0.999969 0.207904
0 1 0.207675
0 1 0.208408
0 1 0.209873
0 1 0.211353
0 1 0.214298
0 1 0.215488
0 1 0.212589
0.00198367 1 0.209293
0.445899 1 0.20444
0.643565 1 0.194903
0.774212 1 0.182437
0.86659 0.999847 0.160769
0.928557 0.99913 0.127993
0.970962 0.998215 0.0896468
0.99678 0.997299 0.0239109
1 0.996338 0
1 0.995758 0
1 0.995361 0
1 0.985351 0
1 0.961212 0
1 0.908415 0
1 0.752865 0
0 1 0.340536
0 1 0.340536
0 1 0.340536
0 1 0.340063
0 1 0.340063
0 1 0.340063
0 1 0.340063
0 1 0.33959
0 1 0.33959
0 1 0.339132
0 1 0.33695
0 1 0.337804
0 1 0.33814
0 1 0.339849
0 1 0.340642
0 1 0.342687
0 1 0.344762
0 1 0.347631
0 1 0.346075
0.194476 1 0.343481
0.557458 1 0.340841
0.728222 1 0.334356
0.837873 1 0.324254
0.908705 1 0.308659
0.956817 1 0.284932
0.988205 1 0.234257
1 1 0.141497
1 1 0.0407721
1 1 0
1 1 0
1 0.998703 0
1 0.994934 0
1 0.957092 0
0 1 0.437476
0 1 0.437476
0 1 0.437476
0 1 0.437476
0 1 0.437476
0 1 0.43711
0 1 0.43711
0 1 0.43711
0 1 0.43711
0 1 0.436728
0 1 0.436728
0 1 0.436347
0 1 0.435996
0 1 0.435248
0 1 0.434501
0 1 0.434821
0 1 0.436927
0 1 0.440085
0 1 0.444678
0 1 0.443824
0.392844 1 0.441718
0.657557 1 0.43946
0.802869 1 0.43415
0.886748 1 0.425086
0.94136 1 0.411444
0.977996 1 0.391623
0.999008 1 0.358709
1 1 0.301595
1 1 0.16231
1 1 0
1 1 0
1 1 0
1 1 0
0 1 0.52285
0 1 0.52285
0 1 0.522515
0 1 0.522515
0 1 0.522515
0 1 0.522515
0 1 0.522515
0 1 0.522515
0 1 0.522515
