Luts/Cineon/Cineon_to_Fuji_3513DI_D65_VLog.cube
TITLE "Generated by Resolve"
#LUMIXPHOTOSTYLE VLOG
LUT_3D_SIZE 5
0.0285801 0.0230259 0.0308995
0.129397 0.0378729 0.0312352
0.473976 0 0
0.643992 0 0
0.662089 0 0
0 0.127733 0.0539101
0.0886702 0.123964 0.0489204
0.466667 0 0
0.643824 0 0
0.662089 0 0
0 0.371038 0
0 0.369451 0
0.658198 0.546563 0
0.642374 0 0
0.662089 0 0
0 0.476921 0
0 0.476875 0
0 0.476616 0
1 0.83769 0
1 0.808865 0
0 0.509758 0
0 0.509758 0
0 0.509758 0
0 0.509758 0
1 0.875975 0
0.0116579 0.000747692 0.133654
0.140917 0.0277867 0.130846
0.534844 0 0.110399
0.643961 0 0
0.662089 0 0
0 0.143725 0.165331
0.0720378 0.129625 0.138201
0.520958 0 0.0714733
0.643793 0 0
0.662089 0 0
0 0.369726 0
0 0.368048 0
0.654871 0.543725 0
0.642329 0 0
0.662089 0 0
0 0.476905 0
0 0.47686 0
0 0.4766 0
1 0.837598 0
1 0.808667 0
0 0.509758 0
0 0.509758 0
0 0.509758 0
0 0.509758 0
1 0.875975 0
0 0 0.428397
0 0 0.430533
0.566049 0 0.487266
0.732341 0 0.504967
0.729702 0 0.348394
0 0 0.426841
0 0 0.426581
0.557855 0 0.484825
0.731731 0 0.502083
0.729305 0 0.337575
0 0.547951 0.698634
0 0.545937 0.697185
0.648798 0.67924 0.690929
0.727718 0 0.47921
0.721935 0 0.225345
0 0.476692 0
0 0.476646 0
0 0.476387 0
1 0.837079 0
1 0.807157 0
0 0.509758 0
0 0.509758 0
0 0.509758 0
0 0.509758 0
1 0.875975 0
0 0 0.530907
0 0 0.530892
0.449821 0 0.615091
0.75433 0 0.671611
0.769207 0 0.678203
0 0 0.530877
0 0 0.530877
0.427146 0 0.6121
0.754147 0 0.671504
0.769192 0 0.678126
0 0 0.636484
0 0 0.62208
0 0 0.556054
0.752834 0 0.670771
0.769192 0 0.677806
0 0.647242 0.866438
0 0.647227 0.866423
0 0.647166 0.866346
0.975006 0.980819 0.981399
0.996399 0.962051 0.979141
0 0.664408 0.878584
0 0.664408 0.878569
0 0.664408 0.878523
0 0.664347 0.878141
1 0.997009 0.983474
0 0 0.543328
0 0 0.543328
0 0 0.543328
0.754299 0 0.688121
0.77615 0 0.698573
0 0 0.543328
0 0 0.543328
0 0 0.543328
0.754025 0 0.688045
0.77615 0 0.698573
0 0 0.543328
0 0 0.543328
0 0 0.543328
0.752163 0 0.687572
0.77615 0 0.698573
0 0.645548 0.869856
0 0.645533 0.869841
0 0.64535 0.86978
0.950195 0.964446 0.987976
0.966751 0.781735 0.959655
0 0.665095 0.885557
0 0.665095 0.885557
0 0.665095 0.885557
0 0.665095 0.885557
0.999985 1 0.999969
