Luts/Cineon/Cineon_to_Kodak_2383_D65_VLog.cube
TITLE "Generated by Resolve"
LUT_3D_SIZE 5
0.0265965 0.027924 0.0330968
0.145266 0.0504921 0.0316625
0.522866 0 0
0.683238 0 0
0.699031 0 0
0 0.0975357 0.0586709
0.104509 0.1084 0.0535439
0.514748 0 0
0.683101 0 0
0.699031 0 0
0 0.358862 0.0133059
0 0.357107 0.0157931
0.751934 0.626947 0
0.681865 0 0
0.699031 0 0
0 0.474434 0
0 0.474388 0
0 0.474083 0
1 0.899046 0
1 0.876875 0
0 0.509224 0
0 0.509224 0
0 0.509224 0
0 0.509224 0
1 0.91339 0
0.00869764 0.0291295 0.101854
0.143648 0.0500038 0.113405
0.541924 0 0.0944839
0.683207 0 0
0.699031 0 0
0 0.103914 0.132326
0.0876936 0.109331 0.126467
0.530419 0 0.0525826
0.68307 0 0
0.699031 0 0
0 0.357412 0.0153506
0 0.355566 0.0179751
0.748119 0.623346 0
0.681834 0 0
0.699031 0 0
0 0.474403 0
0 0.474372 0
0 0.474067 0
1 0.899001 0
1 0.876707 0
0 0.509224 0
0 0.509224 0
0 0.509224 0
0 0.509224 0
1 0.91339 0
0 0 0.37644
0.0208743 0 0.392157
0.576028 0 0.469123
0.74023 0 0.467948
0.735225 0 0.293095
0 0 0.374533
0 0 0.374212
0.566964 0 0.465919
0.739712 0 0.464942
0.734279 0 0.281865
0 0.472343 0.609888
0 0.469902 0.608621
0.676814 0.67425 0.662928
0.736065 0 0.441489
0.723674 0 0.163867
0 0.474174 0
0 0.474128 0
0 0.473838 0
1 0.898634 0
1 0.875471 0
0 0.509224 0
0 0.509224 0
0 0.509224 0
0 0.509224 0
1 0.91339 0
0 0 0.528847
0 0 0.528801
0.476753 0 0.633722
0.776776 0 0.68452
0.792096 0 0.689357
0 0 0.528771
0 0 0.52874
0.45124 0 0.629541
0.776547 0 0.684337
0.79205 0 0.689219
0 0 0.608484
0 0 0.595956
0 0 0.557122
0.774716 0 0.682979
0.79176 0 0.688548
0 0.618463 0.85655
0 0.618433 0.856504
0 0.618158 0.856306
0.975616 0.98056 0.97409
0.999268 0.957015 0.96614
0 0.649882 0.861112
0 0.649882 0.861082
0 0.649912 0.860975
0 0.650111 0.860105
1 0.995071 0.953017
0 0 0.585916
0 0 0.585916
0 0 0.585916
0.803922 0 0.747005
0.821469 0 0.757397
0 0 0.585916
0 0 0.585916
0 0 0.585916
0.803693 0 0.746929
0.821469 0 0.757397
0 0 0.585916
0 0 0.585916
0 0 0.585916
0.802228 0 0.746456
0.821469 0 0.757397
0 0.613397 0.86659
0 0.613291 0.866545
0 0.612558 0.866178
0.950622 0.959472 0.990692
0.974853 0.772198 0.960678
0 0.657374 0.890806
0 0.657374 0.890806
0 0.657374 0.890806
0 0.657374 0.890806
1 1 0.999969
