Luts/Cineon/Cineon_to_Kodak_2383_D65_VLog.cube
TITLE "Generated by Resolve"
LUT_3D_SIZE 33
0.0265965 0.027924 0.0330968
0.0265965 0.027924 0.0330968
0.0289158 0.0294499 0.0354314
0.0402075 0.0330663 0.0370642
0.0606394 0.0361181 0.0370031
0.0777142 0.0410163 0.0371252
0.0911269 0.04477 0.0362554
0.11313 0.0479438 0.0348363
0.145266 0.0504921 0.0316625
0.177157 0.0531014 0.0259251
0.213352 0.0539712 0.0052491
0.261158 0.0541695 0
0.317784 0.0505226 0
0.37467 0.0411994 0
0.426291 0.0128786 0
0.475715 0.000198367 0
0.522866 0 0
0.561593 0 0
0.591913 0 0
0.616892 0 0
0.637354 0 0
0.653468 0 0
0.665751 0 0
0.675456 0 0
0.683238 0 0
0.688853 0 0
0.693111 0 0
0.697032 0 0
0.699031 0 0
0.699031 0 0
0.699031 0 0
0.699031 0 0
0.699031 0 0
0.0265965 0.027924 0.0330968
0.0265965 0.027924 0.0330968
0.0265965 0.027924 0.0330968
0.0377356 0.0317235 0.0367895
0.0514382 0.0349432 0.0370031
0.071931 0.0392767 0.0372015
0.0855573 0.043473 0.0366064
0.106523 0.0470588 0.0352941
0.138537 0.049958 0.0323644
0.172122 0.052781 0.0275731
0.208133 0.0538796 0.00601205
0.256703 0.0543526 0
0.314183 0.0509346 0
0.372259 0.0417639 0
0.424643 0.0142214 0
0.474556 0.000228885 0
0.521935 0 0
0.561166 0 0
0.591638 0 0
0.616739 0 0
0.637232 0 0
0.653361 0 0
0.665705 0 0
0.675456 0 0
0.683238 0 0
0.688823 0 0
0.693111 0 0
0.697032 0 0
0.699031 0 0
0.699031 0 0
0.699031 0 0
0.699031 0 0
0.699031 0 0
0.0265965 0.027924 0.0330968
0.0265965 0.027924 0.0330968
0.0265965 0.027924 0.0330968
0.0318303 0.0303044 0.0363012
0.0434882 0.0337377 0.0370336
0.0651713 0.0373083 0.0370794
0.080827 0.0419928 0.0369116
0.0999313 0.0460822 0.0357061
0.131395 0.0493935 0.033051
0.167071 0.0523537 0.028336
0.204013 0.0537728 0.00857557
0.25185 0.054551 0
0.310567 0.0513313 0
0.36965 0.042359 0
0.42298 0.0155795 0
0.473228 0.000259403 0
0.521141 0 0
0.560632 0 0
0.591363 0 0
0.616587 0 0
0.637095 0 0
0.6533 0 0
0.665675 0 0
0.675425 0 0
0.683207 0 0
0.688823 0 0
0.693111 0 0
0.697032 0 0
0.699031 0 0
0.699031 0 0
0.699031 0 0
0.699031 0 0
0.699031 0 0
0.0247196 0.0348058 0.0366522
0.0254673 0.0333867 0.0360876
0.0262608 0.0318608 0.035462
0.0275731 0.0319371 0.0362097
0.0385138 0.0346227 0.0379644
0.0575113 0.036408 0.0373388
0.0756542 0.0403601 0.0372473
0.0926833 0.0449989 0.0361486
0.123857 0.0487984 0.0337835
0.161654 0.0518959 0.0291752
0.199817 0.053666 0.0112917
0.24744 0.0545968 0.000335698
0.306767 0.0517739 0
0.367041 0.0429694 0
0.421164 0.0170596 0
0.471901 0.000289921 0
0.520211 0 0
0.560204 0 0
0.591104 0 0
0.616358 0 0
0.637034 0 0
0.653208 0 0
0.665629 0 0
0.67538 0 0
0.683177 0 0
0.688807 0 0
0.693095 0 0
0.697002 0 0
0.699031 0 0
0.699031 0 0
0.699031 0 0
0.699031 0 0
0.699031 0 0
0.0192569 0.0442969 0.0411383
0.0194247 0.0435035 0.0406043
0.0196078 0.042649 0.0400244
0.019791 0.0417334 0.0394141
0.0347143 0.043595 0.0414282
0.0489815 0.0462196 0.0416571
0.0756695 0.0493935 0.0407263
0.0935378 0.0527352 0.0392309
0.123232 0.0545357 0.036286
0.162188 0.05449 0.0301366
0.195499 0.0535592 0.0140841
0.243366 0.0545205 0.000915541
0.302953 0.0522011 0
0.364431 0.0435798 0
0.419516 0.0184176 0
0.470573 0.000335698 0
0.519265 0 0
0.559777 0 0
0.590738 0 0
0.616205 0 0
0.636912 0 0
0.653147 0 0
0.665583 0 0
0.675349 0 0
0.683177 0 0
0.688807 0 0
0.693095 0 0
0.697002 0 0
0.699031 0 0
0.699031 0 0
0.699031 0 0
0.699031 0 0
0.699031 0 0
0.00764477 0.0556039 0.0452277
0.00950637 0.0535897 0.0446326
0.0114748 0.0514687 0.044007
0.0129244 0.0500801 0.0435035
0.0244297 0.0504158 0.044831
0.0426337 0.0537575 0.0457465
0.0706493 0.057145 0.044831
0.093904 0.0615244 0.043473
0.123659 0.0653544 0.0398718
0.169818 0.0666667 0.0331273
0.21149 0.0640421 0.014847
0.251408 0.0582437 0.000747692
0.299153 0.0526284 0
0.361822 0.0441749 0
0.417685 0.0198978 0
0.469413 0.000366217 0
0.518334 0 0
0.559243 0 0
0.590463 0 0
0.615976 0 0
0.636774 0 0
0.653101 0 0
0.665553 0 0
0.675319 0 0
0.683146 0 0
0.688777 0 0
0.69308 0 0
0.697002 0 0
0.699031 0 0
0.699031 0 0
0.699031 0 0
0.699031 0 0
0.699031 0 0
0 0.0691234 0.0497139
0 0.0675669 0.0491035
0 0.0659495 0.0484779
0 0.0643015 0.047837
0.00132753 0.0626993 0.0474098
0.03299 0.0651408 0.0488136
0.0572824 0.0684977 0.0487831
0.0905928 0.0726635 0.0470436
0.121798 0.0761883 0.0440223
0.171954 0.0774701 0.0370031
0.220584 0.0773938 0.0207675
0.269261 0.0751202 0.000900282
0.318196 0.0610513 0
0.35903 0.044831 0
0.416037 0.0212558 0
0.468086 0.000396735 0
0.517403 0 0
0.558816 0 0
0.590188 0 0
0.615824 0 0
0.636652 0 0
0.652995 0 0
0.665507 0 0
0.675288 0 0
0.683131 0 0
0.688762 0 0
0.69308 0 0
0.696986 0 0
0.699031 0 0
0.699031 0 0
0.699031 0 0
0.699031 0 0
0.699031 0 0
0 0.0817426 0.0543832
0 0.0806134 0.0540017
0 0.0794232 0.0535897
0 0.078233 0.053193
0 0.076997 0.0527657
0.000701915 0.0773938 0.0530098
0.0305943 0.0815595 0.0527657
0.080354 0.0872206 0.0513924
0.115053 0.0936599 0.0481575
0.169314 0.0969863 0.0402533
0.225422 0.0971389 0.0253147
0.280491 0.0923171 0.00138857
0.339742 0.0832074 0
0.3897 0.0633097 0
0.413718 0.0231479 0
0.466423 0.000442512 0
0.516304 0 0
0.558175 0 0
0.589837 0 0
0.615579 0 0
0.636515 0 0
0.652888 0 0
0.665461 0 0
0.675242 0 0
0.683131 0 0
0.688762 0 0
0.693065 0 0
0.696986 0 0
0.699031 0 0
0.699031 0 0
0.699031 0 0
0.699031 0 0
0.699031 0 0
0 0.0975357 0.0586709
0 0.0961624 0.0583658
0 0.0947738 0.0580758
0 0.0933852 0.0577859
0 0.0919356 0.0574655
0 0.090486 0.0571603
0 0.0927901 0.0573739
0.0511635 0.0992142 0.0565042
0.104509 0.1084 0.0535439
0.160952 0.11603 0.0462196
0.226932 0.120165 0.029572
0.289342 0.122332 0.00163272
0.356512 0.117098 0
0.41976 0.0969253 0
0.458488 0.0659953 0
0.464103 0.000503548 0
0.514748 0 0
0.557427 0 0
0.589288 0 0
0.615274 0 0
0.636332 0 0
0.652781 0 0
0.665385 0 0
0.675212 0 0
0.683101 0 0
0.688746 0 0
0.693065 0 0
0.696971 0 0
0.699031 0 0
0.699031 0 0
0.699031 0 0
0.699031 0 0
0.699031 0 0
0 0.121309 0.0623636
0 0.119936 0.062211
0 0.118563 0.0620584
0 0.117098 0.0618906
0 0.115633 0.0617227
0 0.114153 0.0615549
0 0.112917 0.0615244
0.000488289 0.118364 0.0615396
0.0800031 0.127718 0.0579232
0.141375 0.138918 0.0517586
0.221485 0.146059 0.0297856
0.293065 0.150683 0.00129702
0.368826 0.149798 0
0.443397 0.143648 0
0.498238 0.121706 0
0.523171 0.0654154 0
0.512551 0 0
0.556161 0 0
0.588663 0 0
0.614816 0 0
0.636011 0 0
0.652628 0 0
0.665248 0 0
0.675135 0 0
0.68304 0 0
0.688716 0 0
0.693049 0 0
0.696971 0 0
0.699031 0 0
0.699031 0 0
0.699031 0 0
0.699031 0 0
0.699031 0 0
0 0.149935 0.0655375
0 0.148821 0.0654154
0 0.147692 0.0652934
0 0.146578 0.0651713
0 0.145464 0.0650492
0 0.144244 0.0649119
0 0.14313 0.0648051
0 0.142809 0.0649882
0.00170901 0.154238 0.063508
0.10193 0.170306 0.0537118
0.200732 0.183474 0.0298466
0.290486 0.194369 0.00195315
0.375769 0.198657 0
0.46099 0.19176 0
0.530648 0.176699 0
0.571649 0.147372 0
0.586892 0.0744488 0
0.554299 0 0
0.587762 0 0
0.614206 0 0
0.635691 0 0
0.65243 0 0
0.665125 0 0
0.675074 0 0
0.682979 0 0
0.68867 0 0
0.693019 0 0
0.696956 0 0
0.699031 0 0
0.699031 0 0
0.699031 0 0
0.699031 0 0
0.699031 0 0
0 0.180026 0.0691539
0 0.179202 0.0690471
0 0.178256 0.068925
0 0.177417 0.0688334
0 0.176593 0.0687266
0 0.175647 0.0686046
0 0.174823 0.0684977
0 0.173678 0.0683604
0 0.174502 0.0686809
0.00508125 0.194476 0.0598154
0.147005 0.218402 0.0281224
0.272969 0.239109 0
0.373968 0.253346 0
0.472084 0.256535 0
0.555825 0.249058 0
0.610483 0.225086 0
0.64358 0.179202 0
0.646708 0.105867 0
0.586496 0 0
0.613428 0 0
0.635172 0 0
0.65211 0 0
0.664958 0 0
0.674937 0 0
0.682918 0 0
0.688624 0 0
0.692988 0 0
0.69691 0 0
0.699031 0 0
0.699031 0 0
0.699031 0 0
0.699031 0 0
0.699031 0 0
0 0.213428 0.0690471
0 0.212741 0.0690623
0 0.212055 0.0690776
0 0.211246 0.0691081
0 0.210559 0.0691234
0 0.209857 0.0691386
0 0.209064 0.0691691
0 0.208255 0.0691844
0 0.206989 0.0692149
0 0.209628 0.0696574
0.0123903 0.243183 0.040589
0.2224 0.278309 1.5259e-05
0.356039 0.304829 0
0.471733 0.31754 0
0.572915 0.319112 0
0.64268 0.308614 0
0.688533 0.280919 0
0.711482 0.228565 0
0.699825 0.139864 0
0.61236 0 0
0.634531 0 0
0.651698 0 0
0.664714 0 0
0.6748 0 0
0.682795 0 0
0.688563 0 0
0.692958 0 0
0.69688 0 0
0.699031 0 0
0.699031 0 0
0.699031 0 0
0.699031 0 0
0.699031 0 0
0 0.252186 0.0664683
0 0.251637 0.0665599
0 0.250965 0.0666819
0 0.250294 0.066804
0 0.24976 0.0668956
0 0.249088 0.0670176
0 0.248402 0.0671397
0 0.247608 0.0672313
0 0.246571 0.0672923
0 0.245136 0.0673686
0 0.251392 0.0664988
0.0467994 0.306477 0.000869764
0.305119 0.353368 0
0.450858 0.380835 0
0.576104 0.392035 0
0.664851 0.389334 0
0.724178 0.372869 0
0.761715 0.339712 0
0.772122 0.286824 0
0.747478 0.182696 0
0.639963 0 0
0.651133 0 0
0.664378 0 0
0.674586 0 0
0.682658 0 0
0.688502 0 0
0.692897 0 0
0.696834 0 0
0.699031 0 0
0.699031 0 0
0.699031 0 0
0.699031 0 0
0.699031 0 0
0 0.291798 0.058732
0 0.291432 0.0588235
0 0.290929 0.0589456
0 0.290562 0.0590524
0 0.290059 0.0591745
0 0.289693 0.059266
0 0.289189 0.0593881
0 0.288701 0.0595102
0 0.287953 0.0596933
0 0.286961 0.0599527
0 0.285588 0.0602884
0 0.298726 0.0551156
0.128344 0.382879 0
0.39527 0.438361 0
0.556069 0.465599 0
0.67332 0.475608 0
0.748775 0.469169 0
0.799298 0.447181 0
0.825513 0.408591 0
0.826108 0.348272 0
0.793851 0.245686 0
0.684871 0 0
0.66392 0 0
0.674281 0 0
0.682475 0 0
0.688396 0 0
0.692821 0 0
0.696788 0 0
0.699031 0 0
0.699031 0 0
0.699031 0 0
0.699031 0 0
0.699031 0 0
0 0.327184 0.0457465
0 0.32697 0.0458686
0 0.32665 0.0460517
0 0.326329 0.0462348
0 0.326116 0.0463569
0 0.325795 0.04654
0 0.32546 0.0467231
0 0.325139 0.0469062
0 0.324712 0.0471504
0 0.324071 0.0475166
0 0.323201 0.0480049
0 0.322026 0.0486915
0 0.346853 0.0126192
0.253239 0.462165 0
0.497108 0.522728 0
0.661524 0.550912 0
0.760067 0.558068 0
0.826551 0.549905 0
0.865171 0.528099 0
0.880064 0.487114 0
0.874708 0.420966 0
0.84097 0.315251 0
0.726818 0.00654612 0
0.673899 0 0
0.682216 0 0
0.688228 0 0
0.692714 0 0
0.696681 0 0
0.699031 0 0
0.699031 0 0
0.699031 0 0
0.699031 0 0
0.699031 0 0
0 0.358862 0.0133059
0 0.358648 0.0135958
0 0.35845 0.0138857
0 0.358236 0.0141756
0 0.358038 0.0144656
0 0.357824 0.0147555
0 0.357626 0.0150607
0 0.357412 0.0153506
0 0.357107 0.0157931
0 0.356588 0.0165103
0 0.355978 0.0173953
0 0.355154 0.0185702
0 0.354009 0.0201724
0 0.398856 0
0.357321 0.541405 0
0.606088 0.601205 0
0.751934 0.626947 0
0.838148 0.631357 0
0.891936 0.623407 0
0.919158 0.602991 0
0.927947 0.565209 0
0.920073 0.503914 0
0.886717 0.394522 0
0.779919 0.152132 0
0.681865 0 0
0.688045 0 0
0.692592 0 0
0.696574 0 0
0.699031 0 0
0.699031 0 0
0.699031 0 0
0.699031 0 0
0.699031 0 0
0 0.389349 0
0 0.389258 0
0 0.389151 0
0 0.388952 0
0 0.388846 0
0 0.388647 0
0 0.38854 0
0 0.388342 0
0 0.388037 0
0 0.387732 0
0 0.387335 0
0 0.386633 0
0 0.385824 0
0 0.38471 0
0 0.457343 0
0.46183 0.620233 0
0.708812 0.67805 0
0.830167 0.697978 0
0.904433 0.700557 0
0.943023 0.690547 0
0.962341 0.669566 0
0.968917 0.637995 0
0.961364 0.588129 0
0.930266 0.488792 0
0.842069 0.277058 0
0.687755 0 0
0.692409 0 0
0.696422 0 0
0.699031 0 0
0.699031 0 0
0.699031 0 0
0.699031 0 0
0.699031 0 0
0 0.414984 0
0 0.414908 0
0 0.414832 0
0 0.41474 0
0 0.414664 0
0 0.414572 0
0 0.414496 0
0 0.414328 0
0 0.41416 0
0 0.413993 0
0 0.413657 0
0 0.413336 0
0 0.412833 0
0 0.412177 0
0 0.41117 0
0 0.520195 0
0.573373 0.692409 0
0.792554 0.745205 0
0.898512 0.761028 0
0.955917 0.762875 0
0.98381 0.753536 0
0.9953 0.733974 0
0.998795 0.707057 0
0.995315 0.664836 0
0.972457 0.588037 0
0.906798 0.410239 0
0.69218 0 0
0.696239 0 0
0.699031 0 0
0.699031 0 0
0.699031 0 0
0.699031 0 0
0.699031 0 0
0 0.432532 0
0 0.432502 0
0 0.432502 0
0 0.432456 0
0 0.43241 0
0 0.432364 0
0 0.432319 0
0 0.432273 0
0 0.432227 0
0 0.432135 0
0 0.431998 0
0 0.431861 0
0 0.431632 0
0 0.431357 0
0 0.430991 0
0 0.430365 0
0.00875868 0.581888 0
0.683391 0.753872 0
0.866072 0.797177 0
0.952834 0.810193 0
0.992523 0.810315 0
1 0.799908 0
1 0.783795 0
1 0.762844 0
1 0.728939 0
0.999771 0.67422 0
0.965805 0.557595 0
0.812818 0.196811 0
0.699031 0 0
0.699031 0 0
0.699031 0 0
0.699031 0 0
0.699031 0 0
0 0.445121 0
0 0.445121 0
0 0.445075 0
0 0.445075 0
0 0.445045 0
0 0.444999 0
0 0.444999 0
0 0.444968 0
0 0.444938 0
0 0.444862 0
0 0.444831 0
0 0.444724 0
0 0.444602 0
0 0.444434 0
0 0.444205 0
0 0.443885 0
0 0.443488 0
0.187274 0.643992 0
0.776104 0.802853 0
0.927749 0.836179 0
0.99089 0.845533 0
1 0.838834 0
1 0.830289 0
1 0.820508 0
1 0.806485 0
1 0.78439 0
1 0.7458 0
0.999939 0.677363 0
0.950729 0.510292 0
0.699031 0 0
0.699031 0 0
0.699031 0 0
0.699031 0 0
0 0.455009 0
0 0.455009 0
0 0.455009 0
0 0.454978 0
0 0.454978 0
0 0.454948 0
0 0.454948 0
0 0.454917 0
0 0.454887 0
0 0.454856 0
0 0.454826 0
0 0.454765 0
0 0.454673 0
0 0.454582 0
0 0.454414 0
0 0.454231 0
0 0.453941 0
0 0.453605 0
0.391745 0.708965 0
0.853666 0.840635 0
0.974899 0.866361 0
1 0.866087 0
1 0.859693 0
1 0.854093 0
1 0.847944 0
1 0.838254 0
1 0.825498 0
1 0.803876 0
1 0.765743 0
1 0.693584 0
0.961349 0.538735 0
0.70753 0 0
0.699031 0 0
0 0.46305 0
0 0.463035 0
0 0.463035 0
0 0.463035 0
0 0.463004 0
0 0.463004 0
0 0.462974 0
0 0.462974 0
0 0.462959 0
0 0.462959 0
0 0.462928 0
0 0.462882 0
0 0.462821 0
0 0.462745 0
0 0.462669 0
0 0.462547 0
0 0.462379 0
0 0.462181 0
0 0.461875 0
0.551736 0.768765 0
0.919905 0.869825 0
0.998459 0.885756 0
1 0.880644 0
1 0.876524 0
1 0.872358 0
1 0.867811 0
1 0.86186 0
1 0.853727 0
1 0.841978 0
1 0.824079 0
1 0.796139 0
1 0.749523 0
1 0.679271 0
0 0.469093 0
0 0.469093 0
0 0.469062 0
0 0.469062 0
0 0.469062 0
0 0.469062 0
0 0.469047 0
0 0.469047 0
0 0.469032 0
0 0.469032 0
0 0.469017 0
0 0.468986 0
0 0.468956 0
0 0.46891 0
0 0.468864 0
0 0.468788 0
0 0.468696 0
0 0.468559 0
0 0.468376 0
0 0.468147 0
0.70515 0.821881 0
0.971817 0.891966 0
1 0.894621 0
1 0.89131 0
1 0.888609 0
1 0.885954 0
1 0.883253 0
1 0.879973 0
1 0.874525 0
1 0.867842 0
1 0.85893 0
1 0.84863 0
1 0.834836 0
0 0.474434 0
0 0.474434 0
0 0.474434 0
0 0.474403 0
0 0.474403 0
0 0.474403 0
0 0.474403 0
0 0.474388 0
0 0.474388 0
0 0.474388 0
0 0.474372 0
0 0.474342 0
0 0.474327 0
0 0.474281 0
0 0.474235 0
0 0.474174 0
0 0.474083 0
0 0.473991 0
0 0.473838 0
0 0.47364 0
0 0.473396 0
0.824659 0.862623 0
0.997787 0.904265 0
1 0.900938 0
1 0.899046 0
1 0.897276 0
1 0.895582 0
1 0.893843 0
1 0.891814 0
1 0.888914 0
1 0.885405 0
1 0.881727 0
1 0.876875 0
0 0.480522 0
0 0.480522 0
0 0.480522 0
0 0.480522 0
0 0.480522 0
0 0.480522 0
0 0.480507 0
0 0.480507 0
0 0.480507 0
0 0.480476 0
0 0.480476 0
0 0.480446 0
0 0.480415 0
0 0.480385 0
0 0.480339 0
0 0.480278 0
0 0.480201 0
0 0.480079 0
0 0.479942 0
0 0.479728 0
0 0.479469 0
0 0.479149 0
0.919127 0.89102 0
1 0.908064 0
1 0.905547 0
1 0.904173 0
1 0.903105 0
1 0.902235 0
1 0.901289 0
1 0.90016 0
1 0.898741 0
1 0.896757 0
1 0.894835 0
0 0.487434 0
0 0.487434 0
0 0.487434 0
0 0.487434 0
0 0.487434 0
0 0.487434 0
0 0.487434 0
0 0.487404 0
0 0.487404 0
0 0.487404 0
0 0.487358 0
0 0.487358 0
0 0.487327 0
0 0.487297 0
0 0.487266 0
0 0.487205 0
0 0.487098 0
0 0.487007 0
0 0.48687 0
0 0.486686 0
0 0.486458 0
0 0.486122 0
0 0.48571 0
0.985412 0.910811 0
1 0.910613 0
1 0.909056 0
1 0.908019 0
1 0.907317 0
1 0.906737 0
1 0.906096 0
1 0.905364 0
1 0.904646 0
1 0.903761 0
0 0.494392 0
0 0.494392 0
0 0.494392 0
0 0.494392 0
0 0.494392 0
0 0.494392 0
0 0.494392 0
0 0.494392 0
0 0.494347 0
