Luts/Cineon/Cineon_to_Kodak_2383_D65_VLog.cube
TITLE "Generated by Resolve"
LUT_3D_SIZE 9
0.0265965 0.027924 0.0330968
0.0606394 0.0361181 0.0370031
0.145266 0.0504921 0.0316625
0.317784 0.0505226 0
0.522866 0 0
0.637354 0 0
0.683238 0 0
0.699031 0 0
0.699031 0 0
0.0192569 0.0442969 0.0411383
0.0347143 0.043595 0.0414282
0.123232 0.0545357 0.036286
0.302953 0.0522011 0
0.519265 0 0
0.636912 0 0
0.683177 0 0
0.699031 0 0
0.699031 0 0
0 0.0975357 0.0586709
0 0.0919356 0.0574655
0.104509 0.1084 0.0535439
0.356512 0.117098 0
0.514748 0 0
0.636332 0 0
0.683101 0 0
0.699031 0 0
0.699031 0 0
0 0.213428 0.0690471
0 0.210559 0.0691234
0 0.206989 0.0692149
0.356039 0.304829 0
0.688533 0.280919 0
0.634531 0 0
0.682795 0 0
0.699031 0 0
0.699031 0 0
0 0.358862 0.0133059
0 0.358038 0.0144656
0 0.357107 0.0157931
0 0.354009 0.0201724
0.751934 0.626947 0
0.927947 0.565209 0
0.681865 0 0
0.699031 0 0
0.699031 0 0
0 0.445121 0
0 0.445045 0
0 0.444938 0
0 0.444602 0
0 0.443488 0
0.99089 0.845533 0
1 0.806485 0
0.950729 0.510292 0
0.699031 0 0
0 0.474434 0
0 0.474403 0
0 0.474388 0
0 0.474327 0
0 0.474083 0
0 0.473396 0
1 0.899046 0
1 0.891814 0
1 0.876875 0
0 0.500832 0
0 0.500832 0
0 0.500832 0
0 0.500771 0
0 0.500633 0
0 0.50016 0
0.909224 0.895369 0
1 0.911498 0
1 0.910674 0
0 0.509224 0
0 0.509224 0
0 0.509224 0
0 0.509224 0
0 0.509224 0
0 0.509224 0
0 0.509224 0
1 0.915068 0
1 0.91339 0
0.0249027 0.0299077 0.0465858
0.0555276 0.0374456 0.0513924
0.147036 0.0518807 0.0489357
0.322057 0.0301061 0.00234989
0.522393 0 0
0.637293 0 0
0.683238 0 0
0.699031 0 0
0.699031 0 0
0.0189212 0.0433967 0.0485542
0.0301061 0.0385595 0.0469215
0.116655 0.0514687 0.043946
0.304952 0.0466316 1.5259e-05
0.518654 0 0
0.636835 0 0
0.683146 0 0
0.699031 0 0
0.699031 0 0
0 0.0950027 0.0613107
0 0.0891432 0.0592813
0.0998245 0.103777 0.0546426
0.347936 0.108354 0
0.514122 0 0
0.636194 0 0
0.68307 0 0
0.699031 0 0
0.699031 0 0
0 0.211124 0.0691081
0 0.208255 0.0691844
0 0.204578 0.0692912
0.350195 0.299611 0
0.684657 0.274479 0
0.634394 0 0
0.682795 0 0
0.699031 0 0
0.699031 0 0
0 0.358236 0.0141756
0 0.357412 0.0153506
0 0.35639 0.0168154
0 0.353292 0.0211948
0.750225 0.625467 0
0.926925 0.562783 0
0.681865 0 0
0.699031 0 0
0.699031 0 0
0 0.445045 0
0 0.444968 0
0 0.444862 0
0 0.444541 0
0 0.443412 0
0.990662 0.845228 0
1 0.806149 0
0.949325 0.506508 0
0.699031 0 0
0 0.474403 0
0 0.474388 0
0 0.474372 0
0 0.474296 0
0 0.474083 0
0 0.473365 0
1 0.899031 0
1 0.891783 0
1 0.876814 0
0 0.500832 0
0 0.500832 0
0 0.500801 0
0 0.500771 0
0 0.500603 0
0 0.50013 0
0.908446 0.895171 0
1 0.911498 0
1 0.910674 0
0 0.509224 0
0 0.509224 0
0 0.509224 0
0 0.509224 0
0 0.509224 0
0 0.509224 0
0 0.509224 0
1 0.915068 0
1 0.91339 0
0.00869764 0.0291295 0.101854
0.0433051 0.0347295 0.107332
0.143648 0.0500038 0.113405
0.327367 0.0158389 0.109422
0.541924 0 0.0944839
0.650416 0 0
0.683207 0 0
0.699031 0 0
0.699031 0 0
0.00134279 0.0383459 0.103899
0.0148928 0.0334325 0.099855
0.111192 0.048127 0.106493
0.311315 0.0229648 0.102113
0.53698 0 0.076585
0.647471 0 0
0.683146 0 0
0.699031 0 0
0.699031 0 0
0 0.103914 0.132326
0 0.0983291 0.128252
0.0876936 0.109331 0.126467
0.350027 0.094789 0.108736
0.530419 0 0.0525826
0.64271 0 0
0.68307 0 0
0.699031 0 0
0.699031 0 0
0 0.232502 0.126452
0 0.228901 0.124117
0 0.22446 0.121187
0.348898 0.307469 0.0313726
0.69337 0.272038 0
0.634333 0 0
0.682765 0 0
0.699031 0 0
0.699031 0 0
0 0.357412 0.0153506
0 0.356588 0.0165103
0 0.355566 0.0179751
0 0.352468 0.0223697
0.748119 0.623346 0
0.925689 0.559625 0
0.681834 0 0
0.699031 0 0
0.699031 0 0
0 0.444968 0
0 0.444862 0
0 0.444755 0
0 0.444434 0
0 0.443305 0
0.990463 0.845029 0
1 0.805707 0
0.94754 0.501839 0
0.699031 0 0
0 0.474403 0
0 0.474388 0
0 0.474372 0
0 0.474281 0
0 0.474067 0
0 0.473365 0
1 0.899001 0
1 0.891722 0
1 0.876707 0
0 0.500832 0
0 0.500801 0
0 0.500801 0
0 0.50074 0
0 0.500603 0
0 0.50013 0
0.907668 0.894972 0
1 0.911498 0
1 0.910674 0
0 0.509224 0
0 0.509224 0
0 0.509224 0
0 0.509224 0
0 0.509224 0
0 0.509224 0
0 0.509224 0
1 0.915068 0
1 0.91339 0
0 0 0.231006
0.000518807 0 0.233356
0.128939 0 0.256138
0.336553 0 0.2757
0.560815 0 0.287785
0.674571 0 0.269825
0.708156 0 0.154437
0.699031 0 0
0.699031 0 0
0 0 0.227909
0 0 0.227405
0.0942855 0 0.247288
0.319707 0 0.270466
0.556649 0 0.28333
0.673533 0 0.264546
0.707118 0 0.144549
0.699031 0 0
0.699031 0 0
0 0.0667124 0.27509
0 0.0516823 0.26807
0.0221714 0.0776379 0.276661
0.323613 0.0234379 0.280674
0.551278 0 0.277638
0.672145 0 0.257771
0.70576 0 0.131533
0.699031 0 0
0.699031 0 0
0 0.260227 0.343374
0 0.256016 0.340871
0 0.250645 0.337758
0.308583 0.326223 0.357794
0.679408 0.24921 0.328527
0.66807 0 0.235233
0.701427 0 0.0865797
0.699031 0 0
0.699031 0 0
0 0.431144 0.317174
0 0.429938 0.315419
0 0.428504 0.313634
0 0.423987 0.307652
0.723781 0.642924 0.244465
0.913008 0.553796 0.054551
0.681804 0 0
0.699031 0 0
0.699031 0 0
0 0.444724 0
0 0.444602 0
0 0.444495 0
0 0.444175 0
0 0.443046 0
0.989715 0.844114 0
1 0.804349 0
0.942107 0.487709 0
0.699031 0 0
0 0.474342 0
0 0.474327 0
0 0.474296 0
0 0.474235 0
0 0.474006 0
0 0.473304 0
1 0.898909 0
1 0.891615 0
1 0.876417 0
0 0.500801 0
0 0.500771 0
0 0.500771 0
0 0.50071 0
0 0.500572 0
0 0.500099 0
0.904753 0.89424 0
1 0.911498 0
1 0.910658 0
0 0.509224 0
0 0.509224 0
0 0.509224 0
0 0.509224 0
0 0.509224 0
0 0.509224 0
0 0.509224 0
1 0.915084 0
1 0.91339 0
0 0 0.37644
0 0 0.376226
0.0208743 0 0.392157
0.323796 0 0.43975
0.576028 0 0.469123
0.698314 0 0.478752
0.74023 0 0.467948
0.748302 0 0.419318
0.735225 0 0.293095
0 0 0.375601
0 0 0.375387
0 0 0.38616
0.304448 0 0.4365
0.571984 0 0.467689
0.697673 0 0.477501
0.739986 0 0.466575
0.748089 0 0.417197
0.734813 0 0.288273
0 0 0.374533
0 0 0.374426
0 0 0.374212
0.280186 0 0.431922
0.566964 0 0.465919
0.696941 0 0.475975
0.739712 0 0.464942
0.747845 0 0.414466
0.734279 0 0.281865
0 0.213016 0.524712
0 0.206195 0.521218
0 0.196887 0.516518
0.193805 0.266438 0.55581
0.631678 0.0840314 0.536095
0.694621 0 0.471489
0.738872 0 0.459892
0.747051 0 0.406119
0.732509 0 0.26125
0 0.472343 0.609888
0 0.471244 0.609354
0 0.469902 0.608621
0 0.465705 0.606241
0.676814 0.67425 0.662928
0.897154 0.57023 0.634348
0.736065 0 0.441489
0.743862 0 0.37499
0.723674 0 0.163867
0 0.562234 0.581292
0 0.562051 0.580697
0 0.561807 0.580194
0 0.561151 0.578439
0 0.559274 0.57258
0.931243 0.884428 0.587121
0.999603 0.848081 0.50486
0.916014 0.438895 0.211734
0.699031 0 0
0 0.474174 0
0 0.474159 0
0 0.474128 0
0 0.474052 0
0 0.473838 0
0 0.473121 0
1 0.898634 0
1 0.891234 0
1 0.875471 0
0 0.500664 0
0 0.500664 0
0 0.500633 0
0 0.500603 0
0 0.500435 0
0 0.499962 0
0.895415 0.891905 0
1 0.911467 0
1 0.910628 0
0 0.509224 0
0 0.509224 0
0 0.509224 0
0 0.509224 0
0 0.509224 0
0 0.509224 0
0 0.509224 0
1 0.915084 0
1 0.91339 0
0 0 0.478553
0 0 0.478492
0 0 0.478492
0.190082 0 0.529732
0.567361 0 0.589502
0.713649 0 0.610803
0.760678 0 0.619104
0.773373 0 0.617166
0.772061 0 0.607019
0 0 0.47837
0 0 0.47837
0 0 0.478309
0.15172 0 0.522393
0.562722 0 0.588663
0.71313 0 0.610513
0.760586 0 0.618936
0.773358 0 0.617014
0.77203 0 0.60676
0 0 0.478172
0 0 0.478172
0 0 0.478111
0.0697185 0 0.51133
0.556741 0 0.587869
0.712489 0 0.610208
0.760464 0 0.618616
0.773312 0 0.616678
0.772 0 0.606409
0 0 0.477607
0 0 0.477546
0 0 0.477546
0 0 0.477409
0.537163 0 0.585229
0.710552 0 0.609262
0.760113 0 0.617777
0.773175 0 0.615793
0.771862 0 0.605295
0 0.440436 0.744839
0 0.438621 0.74406
0 0.436118 0.743084
0 0.428016 0.739757
0.57258 0.59733 0.821881
0.852399 0.407034 0.787457
0.758968 0 0.615106
0.772763 0 0.612894
0.77145 0 0.601785
0 0.586114 0.788617
0 0.585946 0.788464
0 0.585809 0.788403
0 0.585275 0.787991
0 0.583688 0.78677
0.90042 0.908553 0.885313
0.982361 0.869062 0.873442
0.834165 0.114107 0.693523
0.770062 0 0.58996
0 0.612512 0.781781
0 0.612467 0.781643
0 0.612436 0.781521
0 0.612345 0.781247
0 0.611994 0.780194
0 0.610941 0.776898
0.986389 0.972061 0.8589
1 0.965103 0.829007
1 0.945968 0.781521
0 0.6065 0.600504
0 0.606409 0.599985
0 0.606332 0.59939
0 0.606073 0.597543
0 0.605127 0.591257
0 0.601663 0.569711
0.790936 0.89752 0.483452
1 0.911406 0
1 0.910506 0
0 0.509224 0
0 0.509224 0
0 0.509224 0
0 0.509224 0
0 0.509224 0
0 0.509224 0
0 0.509224 0
1 0.915129 0
1 0.91339 0
0 0 0.528847
0 0 0.528847
0 0 0.528801
0 0 0.528801
0.476753 0 0.633722
0.722286 0 0.67097
0.776776 0 0.68452
0.792782 0 0.691035
0.792096 0 0.689357
0 0 0.528801
0 0 0.528801
0 0 0.528771
0 0 0.528771
0.465599 0 0.631891
0.72163 0 0.670863
0.776669 0 0.684428
0.792767 0 0.69099
0.792081 0 0.689311
0 0 0.528771
0 0 0.528771
0 0 0.52874
0 0 0.52874
0.45124 0 0.629541
0.720821 0 0.670741
0.776547 0 0.684337
0.792752 0 0.690944
0.79205 0 0.689219
0 0 0.528618
0 0 0.528618
0 0 0.528618
0 0 0.528618
0.397818 0 0.620768
0.718364 0 0.670375
0.776135 0 0.684031
0.792676 0 0.690761
0.791989 0 0.689082
0 0 0.608484
0 0 0.603037
0 0 0.595956
0 0 0.562936
0 0 0.557122
0.709758 0 0.669078
0.774716 0 0.682979
0.792477 0 0.690257
0.79176 0 0.688548
0 0.577279 0.839475
0 0.577066 0.839384
0 0.576852 0.839323
0 0.576135 0.839109
0 0.573693 0.838346
0.85774 0.876387 0.954406
0.966018 0.781521 0.942275
0.791669 0 0.688609
0.791104 0 0.686915
0 0.618463 0.85655
0 0.618448 0.856535
0 0.618433 0.856504
0 0.618357 0.856458
0 0.618158 0.856306
0 0.617243 0.85565
0.975616 0.98056 0.97409
0.999329 0.976776 0.971588
0.999268 0.957015 0.96614
0 0.642054 0.864942
0 0.642054 0.864927
0 0.642023 0.864897
0 0.641993 0.864866
0 0.641825 0.864744
0 0.641352 0.864347
0.518135 0.916671 0.945357
0.997818 0.995438 0.972015
1 0.994339 0.968414
0 0.649882 0.861112
0 0.649882 0.861082
0 0.649882 0.861082
0 0.649897 0.861067
0 0.649912 0.860975
0 0.649958 0.860761
0 0.650111 0.860105
0.986633 0.994339 0.958099
1 0.995071 0.953017
0 0 0.56791
0 0 0.56791
0 0 0.56791
0 0 0.56791
0 0 0.567849
0.720256 0 0.712993
0.79617 0 0.728237
0.810697 0 0.735241
0.8103 0 0.734386
0 0 0.56791
0 0 0.56791
0 0 0.56791
0 0 0.567849
0 0 0.567849
0.719173 0 0.71281
0.796109 0 0.728206
0.810666 0 0.735195
0.8103 0 0.734386
0 0 0.567849
0 0 0.567849
0 0 0.567849
0 0 0.567849
0 0 0.567803
0.717769 0 0.712627
0.796017 0 0.728176
0.810666 0 0.735195
0.810269 0 0.734325
0 0 0.567803
0 0 0.567803
0 0 0.567803
0 0 0.567803
0 0 0.567758
0.713512 0 0.712016
0.795712 0 0.727977
0.81062 0 0.735073
0.810254 0 0.734279
0 0 0.567544
0 0 0.567544
0 0 0.567544
0 0 0.567544
0 0 0.567498
0.69572 0 0.709285
0.794781 0 0.727459
0.810468 0 0.734844
0.810132 0 0.734005
0 0.499916 0.827848
0 0.498756 0.827497
0 0.497322 0.827039
0 0.492821 0.82562
0 0.477592 0.820157
0.684672 0.640955 0.913634
0.790738 0 0.725307
0.809491 0 0.733684
0.809781 0 0.733257
0 0.618677 0.867216
0 0.618662 0.867201
0 0.618631 0.867185
0 0.618555 0.86714
0 0.618296 0.867002
0 0.617517 0.866575
0.965866 0.974502 0.990387
0.99678 0.965576 0.98909
0.995254 0.926436 0.983246
0 0.641627 0.879896
0 0.641581 0.879881
0 0.641581 0.879881
0 0.641505 0.879835
0 0.641291 0.879728
0 0.640665 0.879393
0 0.638956 0.878477
0.995148 0.996689 0.995102
1 0.996216 0.994247
0 0.653986 0.885939
0 0.653986 0.885939
0 0.653986 0.885924
0 0.653986 0.885924
0 0.653971 0.885908
0 0.653971 0.885878
0 0.653956 0.885771
0.978851 0.996765 0.994904
1 0.999664 0.995148
0 0 0.585916
0 0 0.585916
0 0 0.585916
0 0 0.585916
0 0 0.585916
0.657572 0 0.723217
0.803922 0 0.747005
0.82118 0 0.757183
0.821469 0 0.757397
0 0 0.585916
0 0 0.585916
0 0 0.585916
0 0 0.585916
0 0 0.585916
0.653849 0 0.722759
0.803815 0 0.746975
0.82118 0 0.757183
0.821469 0 0.757397
0 0 0.585916
0 0 0.585916
0 0 0.585916
0 0 0.585916
0 0 0.585916
0.649165 0 0.722194
0.803693 0 0.746929
0.821164 0 0.757168
0.821469 0 0.757397
0 0 0.585916
0 0 0.585916
0 0 0.585916
0 0 0.585916
0 0 0.585916
0.633951 0 0.720333
0.803342 0 0.746822
0.821118 0 0.757137
0.821469 0 0.757397
0 0 0.585916
0 0 0.585916
0 0 0.585916
0 0 0.585916
0 0 0.585916
0.568185 0 0.710506
0.802228 0 0.746456
0.820981 0 0.757031
0.821469 0 0.757397
0 0 0.585916
0 0 0.585916
0 0 0.585916
0 0 0.585916
0 0 0.585916
0 0 0.585916
0.798337 0 0.745205
0.820523 0 0.756695
0.821469 0 0.757397
0 0.613397 0.86659
0 0.613367 0.866575
0 0.613291 0.866545
0 0.613138 0.866468
0 0.612558 0.866178
0 0.610727 0.865278
0.950622 0.959472 0.990692
0.993515 0.937392 0.988769
0.974853 0.772198 0.960678
0 0.641962 0.881819
0 0.641962 0.881819
0 0.641932 0.881804
0 0.641886 0.881773
0 0.641672 0.881651
0 0.641032 0.881285
0 0.639384 0.880446
0.993103 0.995804 0.998505
0.999374 0.995056 0.997589
0 0.657374 0.890806
0 0.657374 0.890806
0 0.657374 0.890806
0 0.657374 0.890806
0 0.657374 0.890806
0 0.657374 0.890806
0 0.657374 0.890806
0.970748 0.995819 0.998657
1 1 0.999969
