Luts/Cineon/Cineon_to_Fuji_3513DI_D65_VLog.cube
TITLE "Generated by Resolve"
#LUMIXPHOTOSTYLE VLOG
LUT_3D_SIZE 9
0.0285801 0.0230259 0.0308995
0.0421759 0.0290684 0.0329137
0.129397 0.0378729 0.0312352
0.2925 0 0
0.473976 0 0
0.5897 0 0
0.643992 0 0
0.662089 0 0
0.662089 0 0
0.0263981 0.0537881 0.0415808
0.0291905 0.0449683 0.0410468
0.105608 0.0461585 0.0381476
0.279774 0 0
0.470741 0 0
0.589197 0 0
0.643931 0 0
0.662089 0 0
0.662089 0 0
0 0.127733 0.0539101
0 0.121508 0.0535744
0.0886702 0.123964 0.0489204
0.336736 0.12668 0
0.466667 0 0
0.588556 0 0
0.643824 0 0
0.662089 0 0
0.662089 0 0
0 0.237705 0.0349889
0 0.235126 0.0361639
0 0.231922 0.0375982
0.334981 0.302007 0
0.626078 0.281437 0
0.586557 0 0
0.643473 0 0
0.662089 0 0
0.662089 0 0
0 0.371038 0
0 0.370291 0
0 0.369451 0
0 0.366659 0
0.658198 0.546563 0
0.846143 0.498665 0
0.642374 0 0
0.662089 0 0
0.662089 0 0
0 0.448707 0
0 0.448631 0
0 0.448524 0
0 0.448188 0
0 0.447028 0
0.907851 0.742092 0
0.989273 0.72462 0
0.895491 0.460594 0
0.662089 0 0
0 0.476921 0
0 0.476905 0
0 0.476875 0
0 0.476829 0
0 0.476616 0
0 0.47599 0
1 0.83769 0
1 0.828641 0
1 0.808865 0
0 0.501747 0
0 0.501747 0
0 0.501747 0
0 0.501686 0
0 0.501549 0
0 0.501091 0
0.868223 0.842527 0
1 0.865095 0
1 0.862806 0
0 0.509758 0
0 0.509758 0
0 0.509758 0
0 0.509758 0
0 0.509758 0
0 0.509758 0
0 0.509758 0
1 0.875273 0
1 0.875975 0
0.0287022 0.0219883 0.0428168
0.0358282 0.0274357 0.0419165
0.136553 0.0391546 0.0408026
0.311162 0 0.000381476
0.473564 0 0
0.589624 0 0
0.643992 0 0
0.662089 0 0
0.662089 0 0
0.024094 0.0496376 0.0390173
0.0296483 0.0371405 0.0370642
0.101213 0.0425879 0.0346838
0.289677 0 0
0.470176 0 0
0.589136 0 0
0.6439 0 0
0.662089 0 0
0.662089 0 0
0 0.125246 0.0527199
0 0.118135 0.0527504
0.0845197 0.118074 0.0487221
0.328481 0.11603 0
0.466102 0 0
0.588418 0 0
0.643793 0 0
0.662089 0 0
0.662089 0 0
0 0.235645 0.035935
0 0.233066 0.0370947
0 0.229755 0.0385901
0.330007 0.297826 0
0.62327 0.276249 0
0.586419 0 0
0.643473 0 0
0.662089 0 0
0.662089 0 0
0 0.370474 0
0 0.369726 0
0 0.368795 0
0 0.366003 0
0.656703 0.545403 0
0.845273 0.496803 0
0.642374 0 0
0.662089 0 0
0.662089 0 0
0 0.448631 0
0 0.448554 0
0 0.448447 0
0 0.448112 0
0 0.446952 0
0.9075 0.741711 0
0.98909 0.724224 0
0.894224 0.457603 0
0.662089 0 0
0 0.476905 0
0 0.476875 0
0 0.47686 0
0 0.476799 0
0 0.476616 0
0 0.475975 0
1 0.837644 0
1 0.828595 0
1 0.808804 0
0 0.501747 0
0 0.501747 0
0 0.501717 0
0 0.501686 0
0 0.501518 0
0 0.50106 0
0.867475 0.842359 0
1 0.865064 0
1 0.862806 0
0 0.509758 0
0 0.509758 0
0 0.509758 0
0 0.509758 0
0 0.509758 0
0 0.509758 0
0 0.509758 0
1 0.875273 0
1 0.875975 0
0.0116579 0.000747692 0.133654
0.0110323 0.00424201 0.123552
0.140917 0.0277867 0.130846
0.338811 0 0.127474
0.534844 0 0.110399
0.628717 0 0
0.643961 0 0
0.662089 0 0
0.662089 0 0
0.00779736 0.0350652 0.126986
0.0123293 0.016846 0.118761
0.102541 0.0319524 0.121798
0.323339 0 0.117739
0.528893 0 0.0939345
0.619913 0 0
0.6439 0 0
0.662089 0 0
0.662089 0 0
0 0.143725 0.165331
0 0.134997 0.160067
0.0720378 0.129625 0.138201
0.362219 0.101472 0.108064
0.520958 0 0.0714733
0.606424 0 0
0.643793 0 0
0.662089 0 0
0.662089 0 0
0 0.279469 0.132097
0 0.275349 0.128191
0 0.270253 0.123247
0.36318 0.329061 0.00607309
0.67126 0.290333 0
0.586343 0 0
0.643442 0 0
0.662089 0 0
0.662089 0 0
0 0.369726 0
0 0.368978 0
0 0.368048 0
0 0.365255 0
0.654871 0.543725 0
0.844266 0.494408 0
0.642329 0 0
0.662089 0 0
0.662089 0 0
0 0.448554 0
0 0.448447 0
0 0.448341 0
0 0.448005 0
0 0.446845 0
0.907179 0.741451 0
0.988891 0.723705 0
0.892714 0.453925 0
0.662089 0 0
0 0.476905 0
0 0.476875 0
0 0.47686 0
0 0.476783 0
0 0.4766 0
0 0.475975 0
1 0.837598 0
1 0.828519 0
1 0.808667 0
0 0.501747 0
0 0.501717 0
0 0.501717 0
0 0.501656 0
0 0.501518 0
0 0.50106 0
0.866667 0.842145 0
1 0.865064 0
1 0.862806 0
0 0.509758 0
0 0.509758 0
0 0.509758 0
0 0.509758 0
0 0.509758 0
0 0.509758 0
0 0.509758 0
1 0.875273 0
1 0.875975 0
0 0 0.290074
0 0 0.273747
0.125704 0 0.292744
0.351781 0 0.305425
0.556344 0 0.30959
0.669917 0 0.299214
0.70605 0 0.201511
0.662089 0 0
0.662089 0 0
0 0 0.286809
0 0 0.28629
0.0804761 0 0.283436
0.336553 0 0.300557
0.552621 0 0.305501
0.669108 0 0.29395
0.705074 0 0.191516
0.662089 0 0
0.662089 0 0
0 0.0968795 0.346487
0 0.0743877 0.337163
0.00402838 0.0766766 0.316579
0.339467 0.00015259 0.299718
0.547723 0 0.300038
0.668009 0 0.28719
0.703822 0 0.178363
0.662089 0 0
0.662089 0 0
0 0.328542 0.420874
0 0.323934 0.418143
0 0.318029 0.414725
0.325948 0.358923 0.388647
0.673716 0.273136 0.337896
0.664607 0 0.265049
0.698451 0 0.131518
0.662089 0 0
0.662089 0 0
0 0.49926 0.404532
0 0.498054 0.40238
0 0.496651 0.400137
0 0.492226 0.392706
0.702098 0.638102 0.28983
0.892744 0.539712 0.114778
0.642298 0 0
0.662089 0 0
0.662089 0 0
0 0.448295 0
0 0.448188 0
0 0.448081 0
0 0.447745 0
0 0.446586 0
0.905974 0.740291 0
0.988251 0.722148 0
0.888197 0.442756 0
0.662089 0 0
0 0.476844 0
0 0.476829 0
0 0.476799 0
0 0.476753 0
0 0.476539 0
0 0.475914 0
1 0.837476 0
1 0.828382 0
1 0.808316 0
0 0.501717 0
0 0.501686 0
0 0.501686 0
0 0.50161 0
0 0.501488 0
0 0.50103 0
0.863767 0.841459 0
1 0.865049 0
1 0.86276 0
0 0.509758 0
0 0.509758 0
0 0.509758 0
0 0.509758 0
0 0.509758 0
0 0.509758 0
0 0.509758 0
1 0.875288 0
1 0.875975 0
0 0 0.428397
0 0 0.428229
0 0 0.430533
0.33373 0 0.465751
0.566049 0 0.487266
0.688243 0 0.501152
0.732341 0 0.504967
0.740368 0 0.468345
0.729702 0 0.348394
0 0 0.42771
0 0 0.427543
0 0 0.421729
0.315953 0 0.463264
0.562387 0 0.486168
0.687587 0 0.49984
0.732052 0 0.503655
0.7402 0 0.466377
0.729534 0 0.343755
0 0 0.426841
0 0 0.426764
0 0 0.426581
0.292027 0 0.459754
0.557855 0 0.484825
0.686839 0 0.498268
0.731731 0 0.502083
0.739986 0 0.463828
0.729305 0 0.337575
0 0.286213 0.607523
0 0.279362 0.604593
0 0.270161 0.600626
0.189776 0.302098 0.599069
0.621302 0.10602 0.55082
0.684428 0 0.493614
0.730755 0 0.497261
0.73933 0 0.456077
0.728481 0 0.317662
0 0.547951 0.698634
0 0.547066 0.698039
0 0.545937 0.697185
0 0.542473 0.694682
0.648798 0.67924 0.690929
0.876081 0.575051 0.654948
0.727718 0 0.47921
0.736431 0 0.426917
0.721935 0 0.225345
0 0.617227 0.694438
0 0.617105 0.693919
0 0.616938 0.693446
0 0.61651 0.69189
0 0.614771 0.686
0.909941 0.872404 0.655299
0.988067 0.838346 0.590005
0.901579 0.43389 0.273014
0.662089 0 0
0 0.476692 0
0 0.476677 0
0 0.476646 0
0 0.47657 0
0 0.476387 0
0 0.475746 0
1 0.837079 0
1 0.827878 0
1 0.807157 0
0 0.501579 0
0 0.501579 0
0 0.501549 0
0 0.501518 0
0 0.50135 0
0 0.500908 0
0.854444 0.839231 0
1 0.864927 0
1 0.862654 0
0 0.509758 0
0 0.509758 0
0 0.509758 0
0 0.509758 0
0 0.509758 0
0 0.509758 0
0 0.509758 0
1 0.875288 0
1 0.875975 0
0 0 0.504448
0 0 0.504402
0 0 0.504402
0.187015 0 0.542321
0.551598 0 0.589242
0.699229 0 0.61236
0.749203 0 0.629221
0.763394 0 0.635904
0.761929 0 0.628504
0 0 0.504326
0 0 0.504326
0 0 0.50428
0.138521 0 0.535866
0.547082 0 0.58851
0.69868 0 0.612039
0.749111 0 0.629068
0.763363 0 0.635782
0.761913 0 0.628305
0 0 0.504204
0 0 0.504204
0 0 0.504158
0.0341802 0 0.526513
0.541329 0 0.58761
0.697993 0 0.611688
0.749004 0 0.628794
0.763302 0 0.635554
0.761868 0 0.628061
0 0 0.503838
0 0 0.503792
0 0 0.503792
0 0 0.503716
0.522576 0 0.584665
0.695918 0 0.610651
0.748684 0 0.628092
0.763134 0 0.634928
0.761761 0 0.627222
0 0.522164 0.796353
0 0.52047 0.795682
0 0.518029 0.794797
0 0.51014 0.791867
0.549859 0.616724 0.822522
0.836027 0.427939 0.787243
0.747662 0 0.625818
0.762585 0 0.632868
0.76141 0 0.624613
0 0.631754 0.836805
0 0.631678 0.836744
0 0.631617 0.836698
0 0.631388 0.836484
0 0.630701 0.835859
0.884794 0.908705 0.908537
0.976013 0.877379 0.907835
0.828626 0.12163 0.718273
0.760235 0 0.615793
0 0.646464 0.840406
0 0.646448 0.84033
0 0.646433 0.840238
0 0.646387 0.84007
0 0.64622 0.839399
0 0.645701 0.837247
0.981384 0.971099 0.913069
0.999863 0.968231 0.902907
1 0.949798 0.867247
0 0.644099 0.723857
0 0.644022 0.72343
0 0.643977 0.722942
0 0.643824 0.721431
0 0.643198 0.716228
0 0.639689 0.697108
0.770153 0.889372 0.596872
1 0.864652 0
1 0.862257 0
0 0.509758 0
0 0.509758 0
0 0.509758 0
0 0.509758 0
0 0.509758 0
0 0.509758 0
0 0.509758 0
1 0.875303 0
1 0.875975 0
0 0 0.530907
0 0 0.530907
0 0 0.530892
0 0 0.530892
0.449821 0 0.615091
0.694835 0 0.65481
0.75433 0 0.671611
0.769207 0 0.678981
0.769207 0 0.678203
0 0 0.530892
0 0 0.530892
0 0 0.530877
0 0 0.530877
0.439918 0 0.613779
0.694102 0 0.654658
0.754238 0 0.67155
0.769207 0 0.678965
0.769207 0 0.678172
0 0 0.530877
0 0 0.530877
0 0 0.530877
0 0 0.530877
0.427146 0 0.6121
0.693202 0 0.654475
0.754147 0 0.671504
0.769207 0 0.678935
0.769192 0 0.678126
0 0 0.530831
0 0 0.530831
0 0 0.530831
0 0 0.530831
0.380758 0 0.606165
0.69044 0 0.653925
0.753841 0 0.671336
0.769207 0 0.678859
0.769192 0 0.678065
0 0 0.636484
0 0 0.630915
0 0 0.62208
0 0 0.572274
0 0 0.556054
0.680751 0 0.651987
0.752834 0 0.670771
0.769207 0 0.678614
0.769192 0 0.677806
0 0.629084 0.860243
0 0.62887 0.860166
0 0.628672 0.860121
0 0.628 0.859922
0 0.625696 0.859236
0.841932 0.88452 0.951461
0.960616 0.802945 0.946624
0.769085 0 0.677806
0.769192 0 0.677043
0 0.647242 0.866438
0 0.647242 0.866438
0 0.647227 0.866423
0 0.647211 0.866407
0 0.647166 0.866346
0 0.647059 0.866239
0.975006 0.980819 0.981399
0.997436 0.979416 0.983703
0.996399 0.962051 0.979141
0 0.65948 0.876799
0 0.65948 0.876783
0 0.659464 0.876768
0 0.659434 0.876738
0 0.659342 0.876631
0 0.659052 0.87628
0.526314 0.907485 0.940276
0.996521 0.994705 0.986954
0.999969 0.994659 0.986664
0 0.664408 0.878584
0 0.664408 0.878569
0 0.664408 0.878569
0 0.664408 0.878553
0 0.664408 0.878523
0 0.664393 0.878431
0 0.664347 0.878141
0.98555 0.994217 0.98143
1 0.997009 0.983474
0 0 0.540276
0 0 0.540276
0 0 0.540276
0 0 0.540276
0 0 0.540261
0.668437 0 0.66537
0.756298 0 0.684886
0.774456 0 0.694362
0.774411 0 0.694224
0 0 0.540276
0 0 0.540276
0 0 0.540276
0 0 0.540261
0 0 0.540261
0.667323 0 0.665248
0.756207 0 0.684855
0.774456 0 0.694362
0.774411 0 0.694224
0 0 0.540261
0 0 0.540261
0 0 0.540261
0 0 0.540261
0 0 0.540261
0.665827 0 0.665095
0.7561 0 0.684825
0.774456 0 0.694362
0.774411 0 0.694209
0 0 0.540261
0 0 0.540261
0 0 0.540261
0 0 0.540261
0 0 0.540246
0.661357 0 0.664622
0.755779 0 0.684688
0.774456 0 0.694347
0.774395 0 0.694209
0 0 0.540215
0 0 0.540215
0 0 0.540215
0 0 0.540215
0 0 0.540215
0.642222 0 0.661067
0.754711 0 0.684291
0.774365 0 0.69427
0.77438 0 0.694163
0 0.572412 0.850584
0 0.571618 0.850416
0 0.570611 0.850202
0 0.567529 0.849546
0 0.555718 0.845914
0.650523 0.643565 0.894682
0.750515 0 0.682979
0.773526 0 0.69369
0.774334 0 0.694041
0 0.647196 0.869978
0 0.647196 0.869978
0 0.647196 0.869978
0 0.647181 0.869978
0 0.647135 0.869947
0 0.646983 0.869886
0.966064 0.977142 0.989517
0.995239 0.971298 0.991852
0.991882 0.936248 0.986053
0 0.659129 0.880262
0 0.659113 0.880247
0 0.659113 0.880247
0 0.659083 0.880217
0 0.658991 0.880156
0 0.658732 0.879942
0 0.658015 0.879347
0.995407 0.996002 0.996414
0.999557 0.996033 0.99678
0 0.66508 0.884855
0 0.66508 0.884855
0 0.66508 0.884855
0 0.66508 0.884855
0 0.66508 0.884855
0 0.66508 0.884855
0 0.66508 0.88484
0.980697 0.996063 0.995239
1 0.999756 0.998245
0 0 0.543328
0 0 0.543328
0 0 0.543328
0 0 0.543328
0 0 0.543328
0.591272 0 0.656413
0.754299 0 0.688121
0.775723 0 0.698222
0.77615 0 0.698573
0 0 0.543328
0 0 0.543328
0 0 0.543328
0 0 0.543328
0 0 0.543328
0.587381 0 0.65565
0.754162 0 0.688075
0.775708 0 0.698207
0.77615 0 0.698573
0 0 0.543328
0 0 0.543328
0 0 0.543328
0 0 0.543328
0 0 0.543328
0.582467 0 0.654673
0.754025 0 0.688045
0.775692 0 0.698207
0.77615 0 0.698573
0 0 0.543328
0 0 0.543328
0 0 0.543328
0 0 0.543328
0 0 0.543328
0.566583 0 0.65153
0.753567 0 0.687938
0.775616 0 0.698146
0.77615 0 0.698573
0 0 0.543328
0 0 0.543328
0 0 0.543328
0 0 0.543328
0 0 0.543328
0.502998 0 0.640467
0.752163 0 0.687572
0.775402 0 0.697978
0.77615 0 0.698573
0 0 0.543328
0 0 0.543328
0 0 0.543328
0 0 0.543328
0 0 0.543328
0 0 0.543328
0.74728 0 0.686336
0.774701 0 0.697429
0.77615 0 0.698573
0 0.645548 0.869856
0 0.645548 0.869856
0 0.645533 0.869841
0 0.645487 0.869841
0 0.64535 0.86978
0 0.644923 0.869642
0.950195 0.964446 0.987976
0.991669 0.947494 0.990158
0.966751 0.781735 0.959655
0 0.657435 0.879499
0 0.657435 0.879499
0 0.65742 0.879484
0 0.657404 0.879469
0 0.657298 0.879393
0 0.657008 0.879164
0 0.656214 0.878538
0.994186 0.995499 0.997833
0.999527 0.995666 0.998611
0 0.665095 0.885557
0 0.665095 0.885557
0 0.665095 0.885557
0 0.665095 0.885557
0 0.665095 0.885557
0 0.665095 0.885557
0 0.665095 0.885557
0.974777 0.995575 0.996506
0.999985 1 0.999969
