Luts/Cineon/Cineon_to_Fuji_3513DI_D65_VLog.cube
TITLE "Generated by Resolve"
#LUMIXPHOTOSTYLE VLOG
LUT_3D_SIZE 33
0.0285801 0.0230259 0.0308995
0.0285801 0.0230259 0.0308995
0.0278019 0.0246433 0.0318303
0.0225681 0.0270695 0.0328374
0.0421759 0.0290684 0.0329137
0.0584268 0.0322881 0.0331426
0.0702831 0.0359503 0.0337682
0.0943008 0.0385748 0.0333104
0.129397 0.0378729 0.0312352
0.16527 0.0370031 0.0277409
0.20235 0.0330205 0.0146487
0.244282 0.0193942 0
0.2925 0 0
0.34165 0 0
0.387533 0 0
0.431647 0 0
0.473976 0 0
0.510231 0 0
0.540627 0 0
0.567208 0 0
0.5897 0 0
0.607996 0 0
0.622782 0 0
0.63473 0 0
0.643992 0 0
0.650477 0 0
0.655344 0 0
0.6598 0 0
0.662089 0 0
0.662089 0 0
0.662089 0 0
0.662089 0 0
0.662089 0 0
0.0285801 0.0230259 0.0308995
0.0285801 0.0230259 0.0308995
0.0285801 0.0230259 0.0308995
0.0276188 0.0264591 0.0326238
0.0298009 0.0282292 0.0329595
0.053193 0.0309758 0.0329747
0.0649424 0.0347143 0.0336309
0.0870985 0.0379187 0.0334783
0.122042 0.0380255 0.0316777
0.159731 0.0372473 0.028687
0.197726 0.0341497 0.0167391
0.240497 0.0216526 0
0.289403 0 0
0.339544 0 0
0.386038 0 0
0.43061 0 0
0.473136 0 0
0.509804 0 0
0.540337 0 0
0.567041 0 0
0.589563 0 0
0.607889 0 0
0.622736 0 0
0.63473 0 0
0.643992 0 0
0.650446 0 0
0.655344 0 0
0.6598 0 0
0.662089 0 0
0.662089 0 0
0.662089 0 0
0.662089 0 0
0.662089 0 0
0.0285801 0.0230259 0.0308995
0.0285801 0.0230259 0.0308995
0.0285801 0.0230259 0.0308995
0.0284581 0.0255589 0.0322271
0.0222934 0.027451 0.0329137
0.0467842 0.0298009 0.0329442
0.0610056 0.0332494 0.033341
0.0798962 0.0370794 0.0336004
0.114229 0.0381781 0.0321355
0.154025 0.0373541 0.02916
0.193439 0.0345464 0.0182193
0.236393 0.0241093 0
0.28632 0 0
0.33727 0 0
0.384543 0 0
0.429435 0 0
0.472435 0 0
0.509285 0 0
0.540063 0 0
0.566873 0 0
0.58941 0 0
0.607828 0 0
0.622675 0 0
0.634684 0 0
0.643961 0 0
0.650446 0 0
0.655344 0 0
0.6598 0 0
0.662089 0 0
0.662089 0 0
0.662089 0 0
0.662089 0 0
0.662089 0 0
0.0290379 0.0360723 0.0370031
0.0291752 0.0335699 0.0362097
0.0292821 0.0309453 0.0353399
0.0283055 0.0298009 0.0348669
0.025391 0.029633 0.03505
0.0382544 0.0295567 0.0336767
0.0567025 0.0316472 0.0330053
0.0719768 0.0361486 0.0337377
0.106004 0.0383459 0.0326238
0.147906 0.0374914 0.0296788
0.189029 0.0349279 0.0196994
0.232563 0.0256962 0.000915541
0.28304 0 0
0.334997 0 0
0.382895 0 0
0.428244 0 0
0.471595 0 0
0.508858 0 0
0.539773 0 0
0.566629 0 0
0.589349 0 0
0.607706 0 0
0.622629 0 0
0.634653 0 0
0.643931 0 0
0.650416 0 0
0.655314 0 0
0.659785 0 0
0.662089 0 0
0.662089 0 0
0.662089 0 0
0.662089 0 0
0.662089 0 0
0.0263981 0.0537881 0.0415808
0.0266575 0.0522011 0.0410925
0.0269169 0.0505074 0.0405737
0.0272068 0.0486915 0.0400244
0.0291905 0.0449683 0.0410468
0.0312505 0.043595 0.0414282
0.0588846 0.0440375 0.0407263
0.0755779 0.0462501 0.0406806
0.105608 0.0461585 0.0381476
0.147372 0.0434882 0.0323949
0.184497 0.0353246 0.0212406
0.228946 0.026566 0.00256352
0.279774 0 0
0.332723 0 0
0.381399 0 0
0.42707 0 0
0.470741 0 0
0.508446 0 0
0.539391 0 0
0.566461 0 0
0.589197 0 0
0.607645 0 0
0.622583 0 0
0.634607 0 0
0.643931 0 0
0.650416 0 0
0.655314 0 0
0.659785 0 0
0.662089 0 0
0.662089 0 0
0.662089 0 0
0.662089 0 0
0.662089 0 0
0.00830091 0.0704662 0.045182
0.0103456 0.0678264 0.04477
0.0124819 0.0650645 0.0443275
0.0147555 0.0630198 0.0438849
0.0222934 0.0586862 0.0439307
0.0265202 0.0569772 0.0452735
0.0543374 0.0582132 0.045716
0.0782788 0.0621042 0.0441749
0.108095 0.0655833 0.0426795
0.155093 0.0645762 0.0363775
0.197818 0.0571603 0.0224765
0.235645 0.0399634 0.00395209
0.276524 9.15541e-05 0
0.330449 0 0
0.379767 0 0
0.426032 0 0
0.469902 0 0
0.507912 0 0
0.539117 0 0
0.566201 0 0
0.589059 0 0
0.607584 0 0
0.622522 0 0
0.634562 0 0
0.6439 0 0
0.650401 0 0
0.655299 0 0
0.659785 0 0
0.662089 0 0
0.662089 0 0
0.662089 0 0
0.662089 0 0
0.662089 0 0
0 0.0888685 0.0484321
0 0.0865949 0.0479744
0 0.0842603 0.0475166
0 0.0818341 0.0470283
0.00134279 0.0791943 0.0466926
0.0120241 0.0733501 0.0475319
0.0347906 0.0738842 0.0485542
0.0760052 0.0775616 0.0473335
0.108019 0.0815595 0.044358
0.159197 0.0821546 0.038529
0.209216 0.0796521 0.0238499
0.253483 0.0713817 0.00337224
0.2934 0.0437629 0
0.328008 0 0
0.378271 0 0
0.424857 0 0
0.469062 0 0
0.507485 0 0
0.538827 0 0
0.566033 0 0
0.588922 0 0
0.607462 0 0
0.622477 0 0
0.634516 0 0
0.643854 0 0
0.65037 0 0
0.655299 0 0
0.659754 0 0
0.662089 0 0
0.662089 0 0
0.662089 0 0
0.662089 0 0
0.662089 0 0
0 0.107454 0.0517739
0 0.105745 0.0515145
0 0.103975 0.0512551
0 0.10219 0.0509804
0 0.100343 0.0507057
0.00030518 0.0929274 0.0509346
0.00154116 0.0929732 0.052079
0.059266 0.0969406 0.0500649
0.100954 0.103319 0.0460212
0.157488 0.106325 0.0382544
0.215961 0.105058 0.0228733
0.268376 0.0981003 0.00183108
0.317052 0.0845502 0
0.354467 0.0464332 0
0.376181 0 0
0.423377 0 0
0.468071 0 0
0.506859 0 0
0.53846 0 0
0.565789 0 0
0.588769 0 0
0.60734 0 0
0.622431 0 0
0.63447 0 0
0.643854 0 0
0.65037 0 0
0.655283 0 0
0.659754 0 0
0.662089 0 0
0.662089 0 0
0.662089 0 0
0.662089 0 0
0.662089 0 0
0 0.127733 0.0539101
0 0.126192 0.0538338
0 0.124666 0.0537423
0 0.123125 0.0536507
0 0.121508 0.0535744
0 0.11989 0.0534829
0 0.111437 0.054902
0.0190433 0.115343 0.0539864
0.0886702 0.123964 0.0489204
0.148608 0.131426 0.038468
0.217487 0.134936 0.0127565
0.279362 0.13579 0.000167849
0.336736 0.12668 0
0.386252 0.101884 0
0.414801 0.0558175 0
0.421317 0 0
0.466667 0 0
0.506127 0 0
0.537881 0 0
0.565454 0 0
0.588556 0 0
0.607217 0 0
0.622324 0 0
0.63444 0 0
0.643824 0 0
0.650355 0 0
0.655283 0 0
0.659739 0 0
0.662089 0 0
0.662089 0 0
0.662089 0 0
0.662089 0 0
0.662089 0 0
0 0.152163 0.0543374
0 0.150835 0.0543679
0 0.149508 0.0543832
0 0.148089 0.0543984
0 0.14667 0.0544289
0 0.145251 0.0544442
0 0.142641 0.0548104
0 0.136233 0.0574807
0.0502785 0.144503 0.0518959
0.128588 0.156405 0.0390326
0.210986 0.164675 0.0107576
0.284215 0.171176 0
0.350683 0.169192 0
0.411048 0.158801 0
0.454948 0.130159 0
0.473548 0.0625467 0
0.464698 0 0
0.504921 0 0
0.537224 0 0
0.56495 0 0
0.588205 0 0
0.60705 0 0
0.622171 0 0
0.634348 0 0
0.643748 0 0
0.650324 0 0
0.655253 0 0
0.659739 0 0
0.662089 0 0
0.662089 0 0
0.662089 0 0
0.662089 0 0
0.662089 0 0
0 0.17937 0.0524758
0 0.178317 0.0525826
0 0.177264 0.0527047
0 0.176211 0.0528115
0 0.175174 0.0529183
0 0.174029 0.0530404
0 0.172976 0.0531472
0 0.16907 0.0543679
6.10361e-05 0.167437 0.0551766
0.0813916 0.182391 0.0358587
0.188861 0.197513 0.00138857
0.279957 0.210208 0
0.357534 0.214939 0
0.428473 0.209461 0
0.486427 0.194507 0
0.52256 0.162173 0
0.532967 0.0805219 0
0.503197 0 0
0.536278 0 0
0.564279 0 0
0.587839 0 0
0.606806 0 0
0.622019 0 0
0.634256 0 0
0.643687 0 0
0.650278 0 0
0.655238 0 0
0.659709 0 0
0.662089 0 0
0.662089 0 0
0.662089 0 0
0.662089 0 0
0.662089 0 0
0 0.207507 0.047425
0 0.206729 0.0475929
0 0.205859 0.047776
0 0.205081 0.0479286
0 0.204303 0.0480964
0 0.203433 0.0482795
0 0.202655 0.0484474
0 0.201572 0.0486763
0 0.195605 0.0517433
0.000518807 0.201785 0.0406806
0.135775 0.227054 0.000167849
0.260182 0.247623 0
0.353491 0.260075 0
0.435492 0.262608 0
0.505745 0.255955 0
0.557305 0.23624 0
0.591455 0.197101 0
0.59176 0.116426 0
0.534951 0 0
0.563439 0 0
0.587274 0 0
0.606439 0 0
0.62182 0 0
0.634089 0 0
0.64361 0 0
0.650217 0 0
0.655192 0 0
0.659678 0 0
0.662089 0 0
0.662089 0 0
0.662089 0 0
0.662089 0 0
0.662089 0 0
0 0.237705 0.0349889
0 0.237095 0.0352789
0 0.236469 0.0355535
0 0.235752 0.035874
0 0.235126 0.0361639
0 0.234501 0.0364385
0 0.233783 0.036759
0 0.233066 0.0370947
0 0.231922 0.0375982
0 0.223514 0.0440223
0.00614939 0.244648 0.00280766
0.209354 0.279881 0
0.334981 0.302007 0
0.432029 0.312108 0
0.513832 0.312535 0
0.576959 0.303716 0
0.626078 0.281437 0
0.656535 0.239704 0
0.64892 0.156863 0
0.562264 0 0
0.586557 0 0
0.605966 0 0
0.621515 0 0
0.633921 0 0
0.643473 0 0
0.650141 0 0
0.655161 0 0
0.659632 0 0
0.662089 0 0
0.662089 0 0
0.662089 0 0
0.662089 0 0
0.662089 0 0
0 0.271763 0.00422675
0 0.27126 0.00430304
0 0.270634 0.0043946
0 0.270008 0.00448615
0 0.269505 0.00456245
0 0.268879 0.004654
0 0.268254 0.00474556
0 0.267536 0.00515755
0 0.266621 0.00607309
0 0.26537 0.00735485
0 0.255451 0.0239567
0.0418555 0.299901 0
0.287938 0.340154 0
0.414435 0.361715 0
0.5131 0.369207 0
0.587869 0.366491 0
0.646311 0.353536 0
0.68957 0.328237 0
0.712367 0.286473 0
0.702358 0.201083 0
0.592004 0 0
0.60531 0 0
0.621103 0 0
0.633661 0 0
0.643305 0 0
0.650065 0 0
0.6551 0 0
0.659586 0 0
0.662089 0 0
0.662089 0 0
0.662089 0 0
0.662089 0 0
0.662089 0 0
0 0.308812 0
0 0.308461 0
0 0.307988 0
0 0.307637 0
0 0.307164 0
0 0.306813 0
0 0.306355 0
0 0.305882 0
0 0.30518 0
0 0.30425 0
0 0.302953 0
0 0.293507 0
0.137011 0.3617 0
0.370016 0.406577 0
0.498146 0.425513 0
0.59176 0.430594 0
0.660319 0.424628 0
0.712627 0.408179 0
0.746273 0.380529 0
0.761486 0.335454 0
0.750332 0.252888 0
0.640635 0 0
0.620554 0 0
0.63328 0 0
0.643091 0 0
0.649943 0 0
0.655009 0 0
0.659525 0 0
0.662089 0 0
0.662089 0 0
0.662089 0 0
0.662089 0 0
0.662089 0 0
0 0.342016 0
0 0.341817 0
0 0.341512 0
0 0.341207 0
0 0.341009 0
0 0.340719 0
0 0.340414 0
0 0.340108 0
0 0.339712 0
0 0.339101 0
0 0.338308 0
0 0.337194 0
0 0.333242 0
0.249577 0.426291 0
0.455283 0.472053 0
0.581918 0.488563 0
0.666133 0.490822 0
0.729488 0.482795 0
0.772198 0.466606 0
0.798154 0.438727 0
0.807157 0.391745 0
0.792752 0.309957 0
0.689647 0.0158541 0
0.632807 0 0
0.642786 0 0
0.64976 0 0
0.654887 0 0
0.659419 0 0
0.662089 0 0
0.662089 0 0
0.662089 0 0
0.662089 0 0
0.662089 0 0
0 0.371038 0
0 0.37084 0
0 0.370657 0
0 0.370474 0
0 0.370291 0
0 0.370108 0
0 0.369909 0
0 0.369726 0
0 0.369451 0
0 0.368978 0
0 0.368429 0
0 0.367681 0
0 0.366659 0
0 0.374685 0
0.344549 0.491875 0
0.541527 0.532616 0
0.658198 0.546563 0
0.736675 0.546517 0
0.790799 0.53904 0
0.825574 0.524575 0
0.846143 0.498665 0
0.849821 0.45449 0
0.831739 0.373465 0
0.750851 0.170275 0
0.642374 0 0
0.649546 0 0
0.654749 0 0
0.659281 0 0
0.662089 0 0
0.662089 0 0
0.662089 0 0
0.662089 0 0
0.662089 0 0
0 0.397406 0
0 0.397314 0
0 0.397238 0
0 0.39707 0
0 0.396979 0
0 0.396811 0
0 0.396719 0
0 0.396551 0
0 0.396292 0
0 0.396033 0
0 0.395697 0
0 0.395087 0
0 0.394415 0
0 0.393469 0
0 0.423957 0
0.434592 0.555642 0
0.624887 0.591882 0
0.730907 0.602808 0
0.801709 0.602274 0
0.84567 0.595148 0
0.874327 0.580987 0
0.888991 0.557733 0
0.88896 0.519081 0
0.869657 0.445304 0
0.80972 0.279576 0
0.64921 0 0
0.654536 0 0
0.659113 0 0
0.662089 0 0
0.662089 0 0
0.662089 0 0
0.662089 0 0
0.662089 0 0
0 0.419669 0
0 0.419593 0
0 0.419516 0
0 0.41944 0
0 0.419379 0
0 0.419303 0
0 0.419226 0
0 0.419089 0
0 0.418936 0
0 0.418799 0
0 0.418509 0
0 0.418219 0
0 0.417777 0
0 0.417197 0
0 0.416327 0
0 0.481743 0
0.524392 0.613413 0
0.700465 0.646418 0
0.799374 0.655604 0
0.859037 0.656352 0
0.895293 0.650355 0
0.917662 0.637522 0
0.926955 0.617044 0
0.924468 0.581857 0
0.907485 0.520546 0
0.857618 0.385229 0
0.654276 0 0
0.6589 0 0
0.662089 0 0
0.662089 0 0
0.662089 0 0
0.662089 0 0
0.662089 0 0
0 0.436072 0
0 0.436027 0
0 0.436027 0
0 0.435981 0
0 0.435935 0
0 0.435889 0
0 0.435843 0
0 0.435813 0
0 0.435767 0
0 0.435676 0
0 0.435538 0
0 0.435401 0
0 0.435172 0
0 0.434897 0
0 0.434546 0
0 0.433936 0
0.0350652 0.541238 0
0.613687 0.664729 0
0.772396 0.693049 0
0.858686 0.701885 0
0.907378 0.702876 0
0.937438 0.69929 0
0.954406 0.690593 0
0.960693 0.67483 0
0.957946 0.645426 0
0.943633 0.594675 0
0.906493 0.497795 0
0.789593 0.211688 0
0.662089 0 0
0.662089 0 0
0.662089 0 0
0.662089 0 0
0.662089 0 0
0 0.448707 0
0 0.448707 0
0 0.448676 0
0 0.448676 0
0 0.448631 0
0 0.4486 0
0 0.4486 0
0 0.448554 0
0 0.448524 0
0 0.448447 0
0 0.448417 0
0 0.448295 0
0 0.448188 0
0 0.448005 0
0 0.447776 0
0 0.44744 0
0 0.447028 0
0.246174 0.599084 0
0.695354 0.71017 0
0.837476 0.734005 0
0.907851 0.742092 0
0.94818 0.743282 0
0.971969 0.741634 0
0.984573 0.73611 0
0.989273 0.72462 0
0.988006 0.704234 0
0.977188 0.667475 0
0.953201 0.601175 0
0.895491 0.460594 0
0.662089 0 0
0.662089 0 0
0.662089 0 0
0.662089 0 0
0 0.458808 0
0 0.458808 0
0 0.458808 0
0 0.458778 0
0 0.458778 0
0 0.458747 0
0 0.458747 0
0 0.458717 0
0 0.458686 0
0 0.458656 0
0 0.458625 0
0 0.458564 0
0 0.458473 0
0 0.458381 0
0 0.458213 0
0 0.45803 0
0 0.45774 0
0 0.457404 0
0.399039 0.656443 0
0.770871 0.749493 0
0.892119 0.770321 0
0.950103 0.777234 0
0.982177 0.779553 0
0.99704 0.778241 0
1 0.772305 0
0.999924 0.761776 0
0.999939 0.748104 0
0.999207 0.727245 0
0.992844 0.691188 0
0.963149 0.618799 0
0.905028 0.483101 0
0.672068 0 0
0.662089 0 0
0 0.466621 0
0 0.466606 0
0 0.466606 0
0 0.466606 0
0 0.466575 0
0 0.466575 0
0 0.46656 0
0 0.46656 0
0 0.466529 0
0 0.466529 0
0 0.466514 0
0 0.466468 0
0 0.466407 0
0 0.466346 0
0 0.46627 0
0 0.466163 0
0 0.465995 0
0 0.465797 0
0 0.465522 0
0.528939 0.70811 0
0.840177 0.782223 0
0.938247 0.800076 0
0.985641 0.806928 0
0.999359 0.806668 0
1 0.802579 0
1 0.79736 0
1 0.790173 0
1 0.780285 0
1 0.766979 0
1 0.747753 0
0.9991 0.720668 0
0.986389 0.674998 0
0.957168 0.604349 0
0 0.472145 0
0 0.472145 0
0 0.472129 0
0 0.472129 0
0 0.472129 0
0 0.472129 0
0 0.472099 0
0 0.472099 0
0 0.472084 0
0 0.472084 0
0 0.472068 0
0 0.472053 0
0 0.472023 0
0 0.471977 0
0 0.471946 0
0 0.47187 0
0 0.471794 0
0 0.471672 0
0 0.471504 0
0 0.47129 0
0.651804 0.752728 0
0.898024 0.808881 0
0.976547 0.823285 0
0.999573 0.826169 0
1 0.82356 0
1 0.820554 0
1 0.816999 0
1 0.812589 0
1 0.805966 0
1 0.797803 0
1 0.786877 0
1 0.77438 0
1 0.759121 0
0 0.476921 0
0 0.476921 0
0 0.476921 0
0 0.476905 0
0 0.476905 0
0 0.476905 0
0 0.476905 0
0 0.476875 0
0 0.476875 0
0 0.476875 0
0 0.47686 0
0 0.476844 0
0 0.476829 0
0 0.476783 0
0 0.476753 0
0 0.476692 0
0 0.476616 0
0 0.476524 0
0 0.476387 0
0 0.476219 0
0 0.47599 0
0.758877 0.790036 0
0.945983 0.830549 0
0.999405 0.839872 0
1 0.83769 0
1 0.835889 0
1 0.833722 0
1 0.831357 0
1 0.828641 0
1 0.82472 0
1 0.819928 0
1 0.814923 0
1 0.808865 0
0 0.482521 0
0 0.482521 0
0 0.482521 0
0 0.482521 0
0 0.482521 0
0 0.482521 0
0 0.48249 0
0 0.48249 0
0 0.48249 0
0 0.48246 0
0 0.48246 0
0 0.482444 0
0 0.482414 0
0 0.482383 0
0 0.482338 0
0 0.482277 0
0 0.4822 0
0 0.482109 0
0 0.481971 0
0 0.481773 0
0 0.481529 0
0 0.481224 0
0.854551 0.820737 0
0.986572 0.848554 0
1 0.848707 0
1 0.847395 0
1 0.845823 0
1 0.844175 0
1 0.842313 0
1 0.840192 0
1 0.837781 0
1 0.835157 0
1 0.832624 0
0 0.488991 0
0 0.488991 0
0 0.488991 0
0 0.488991 0
0 0.488991 0
0 0.488991 0
0 0.488991 0
0 0.48896 0
0 0.48896 0
0 0.48896 0
0 0.48893 0
0 0.48893 0
0 0.488899 0
0 0.488869 0
0 0.488838 0
0 0.488777 0
0 0.488685 0
0 0.488594 0
0 0.488472 0
0 0.488289 0
0 0.488075 0
0 0.48777 0
0 0.487358 0
0.930022 0.845457 0
1 0.858259 0
1 0.856107 0
1 0.854871 0
1 0.853712 0
1 0.852552 0
1 0.851255 0
1 0.849805 0
1 0.848356 0
1 0.846738 0
0 0.495598 0
0 0.495598 0
0 0.495598 0
0 0.495598 0
0 0.495598 0
0 0.495598 0
0 0.495598 0
0 0.495598 0
0 0.495567 0
