Luts/RED/REC709_MEDIUM_CONTRAST_Soft_VLog.cube
TITLE "Generated by Resolve"
LUT_3D_SIZE 5
0 0 0
0.164645 0.00483711 0.0059205
0.710994 0.0574502 0.0848402
0.985916 0.257069 0.501579
1 0.763607 0.867674
0.00350958 0.156985 0.00350958
0.146395 0.144976 0.00357061
0.715404 0.087068 0.0827344
0.987716 0.286854 0.514153
1 0.766171 0.868269
0.0037995 0.663249 0.0486763
0.00572213 0.661143 0.0476692
0.614328 0.62501 0.0877699
0.983963 0.551095 0.522179
1 0.778897 0.868955
0.0595865 0.92668 0.616724
0.0724346 0.926497 0.61648
0.271641 0.924483 0.615824
0.900938 0.906767 0.672023
1 0.879316 0.859922
0.714244 0.994247 0.909163
0.716503 0.994247 0.909224
0.73341 0.994141 0.909133
0.83975 0.993027 0.908721
0.984527 0.986847 0.923217
0.00350958 0.00350958 0.110094
0.163287 0.00381476 0.113832
0.709636 0.051194 0.142931
0.98558 0.249744 0.523888
1 0.762768 0.868177
0.00350958 0.148882 0.129366
0.137499 0.138521 0.138384
0.714611 0.0809033 0.161959
0.987457 0.281575 0.535424
1 0.76556 0.868925
0.00375372 0.658534 0.134691
0.0053254 0.655619 0.136477
0.61146 0.620844 0.189471
0.983276 0.548119 0.542641
1 0.778149 0.869551
0.0591135 0.926345 0.627512
0.071931 0.926131 0.627329
0.27158 0.924041 0.626856
0.900816 0.906355 0.67921
1 0.879088 0.860822
0.714214 0.994263 0.909438
0.716472 0.994247 0.909422
0.733364 0.994141 0.909407
0.839734 0.993011 0.90901
0.984512 0.986847 0.923369
0.0321202 0.00936904 0.593545
0.088716 0.00863661 0.596338
0.691478 0.0132601 0.59649
0.983032 0.207919 0.644816
1 0.758419 0.873396
0.0117189 0.0623026 0.601175
0.0459907 0.0563821 0.601907
0.686778 0.0406806 0.600793
0.984482 0.242344 0.650919
1 0.760861 0.874067
0.00350958 0.626078 0.594293
0.00402838 0.623117 0.594614
0.590646 0.59382 0.593164
0.978408 0.527977 0.653407
1 0.773907 0.874922
0.0560464 0.923964 0.689555
0.0682383 0.923613 0.689265
0.267353 0.921599 0.68838
0.899687 0.90428 0.72285
1 0.877928 0.866957
0.713863 0.994156 0.911498
0.716381 0.994141 0.911467
0.733303 0.994034 0.911467
0.83949 0.992905 0.911086
0.984466 0.98677 0.924681
0.0068513 0.212604 0.918608
0.0135195 0.19855 0.918517
0.535698 0.137362 0.915892
0.954589 0.15198 0.909285
1 0.722057 0.915511
0.00631724 0.287404 0.9178
0.0126802 0.272786 0.917586
0.51548 0.205341 0.914992
0.953017 0.1944 0.908644
1 0.724346 0.915663
0.00585946 0.589853 0.912367
0.0111238 0.582834 0.912184
0.384924 0.547005 0.909773
0.943786 0.489235 0.904479
1 0.743557 0.915969
0.0346532 0.908156 0.894759
0.0420539 0.907881 0.894743
0.208103 0.905318 0.893645
0.888975 0.890333 0.889677
1 0.870115 0.910735
0.711376 0.993179 0.928374
0.713695 0.993164 0.928359
0.731197 0.993057 0.928252
0.838605 0.991867 0.927611
0.984085 0.985916 0.93666
0.00607309 0.812161 0.997909
0.00910964 0.808972 0.997864
0.0619974 0.794888 0.997452
0.87364 0.757336 0.995178
1 0.765713 0.992264
0.00627146 0.814191 0.997833
0.00944533 0.810849 0.997772
0.0623941 0.797406 0.99736
0.872862 0.76051 0.995102
1 0.768322 0.992233
0.00881972 0.827543 0.99736
0.0121462 0.825299 0.997284
0.0653849 0.81503 0.996796
0.868376 0.782177 0.994568
1 0.78558 0.991821
0.045655 0.904616 0.993011
0.0521553 0.904234 0.992966
0.114412 0.901717 0.992676
0.830884 0.887938 0.990753
0.998352 0.876875 0.988479
0.694697 0.988067 0.98352
0.697566 0.988052 0.983505
0.715084 0.987915 0.983413
0.830243 0.986587 0.982773
0.981369 0.981628 0.981628
