Luts/RED/REC709_MEDIUM_CONTRAST_Soft_VLog.cube
TITLE "Generated by Resolve"
LUT_3D_SIZE 33
0 0 0
0 0 0
0 0 0
0.000167849 0 0
0.0312963 0.00184634 0.00184634
0.0720989 0.00350958 0.00350958
0.0956283 0.00354009 0.00360113
0.125719 0.00369268 0.00392157
0.164645 0.00483711 0.0059205
0.212329 0.00741588 0.0104829
0.269871 0.0117342 0.0175174
0.337346 0.0175784 0.0257877
0.415503 0.0239261 0.034699
0.492592 0.0307622 0.0442359
0.568307 0.0384222 0.0549325
0.643488 0.0475166 0.0681773
0.710994 0.0574502 0.0848402
0.770489 0.068986 0.10396
0.820874 0.0821393 0.127291
0.864836 0.0979019 0.160357
0.901091 0.11664 0.206027
0.930983 0.140063 0.269429
0.954528 0.169451 0.345464
0.972381 0.206561 0.425956
0.985916 0.257069 0.501579
0.995651 0.325231 0.569894
0.999313 0.405463 0.630076
1 0.485374 0.684352
1 0.558251 0.732357
1 0.622293 0.774121
1 0.677378 0.810117
1 0.723918 0.841077
1 0.763607 0.867674
0 0 0
0 0 0
0 0 0
0.00030518 0 0
0.0369268 0.0021973 0.0021973
0.0740215 0.00350958 0.00350958
0.0981155 0.00355535 0.00361639
0.127703 0.00370794 0.00395209
0.166522 0.00488289 0.00601205
0.21413 0.00753796 0.0107118
0.271412 0.0118715 0.0177005
0.338399 0.0176699 0.0258946
0.416571 0.0240177 0.0348211
0.493263 0.0308232 0.0443122
0.567987 0.0383917 0.0548867
0.643168 0.047364 0.0688487
0.710719 0.0573129 0.0854047
0.770489 0.0688945 0.104707
0.821851 0.0823072 0.129046
0.865644 0.098085 0.162768
0.901854 0.116991 0.209354
0.931609 0.14078 0.27335
0.954955 0.170794 0.348684
0.972595 0.207965 0.427817
0.986084 0.258564 0.503182
0.995773 0.327611 0.571054
0.999344 0.408865 0.631189
1 0.488624 0.685435
1 0.5608 0.733272
1 0.623774 0.774639
1 0.678737 0.810651
1 0.724681 0.841291
1 0.763699 0.867582
0 0 0
0 0 0
0 0 0
0.000427253 0 0
0.0418708 0.00248722 0.00248722
0.0759442 0.00350958 0.00350958
0.100114 0.00357061 0.00364691
0.129046 0.0037232 0.00396735
0.167758 0.00492866 0.00608835
0.215152 0.00759899 0.0108339
0.272328 0.0119478 0.0178225
0.339467 0.0177462 0.0260166
0.417273 0.0240787 0.0348974
0.494285 0.0308995 0.0444495
0.569299 0.038529 0.0550698
0.645106 0.0475013 0.0699931
0.712352 0.0574655 0.0865797
0.772381 0.069398 0.10605
0.823102 0.0829786 0.130739
0.866728 0.0990768 0.165011
0.902831 0.118441 0.212406
0.931823 0.141863 0.275395
0.955047 0.171725 0.350195
0.972732 0.209171 0.429313
0.98616 0.259907 0.504097
0.995895 0.330404 0.572076
0.99939 0.413016 0.632593
1 0.492546 0.686793
1 0.563012 0.733715
1 0.626062 0.775525
1 0.679484 0.810742
1 0.72549 0.841642
1 0.76405 0.867735
0 3.0518e-05 0
0 3.0518e-05 0
0 3.0518e-05 0
3.0518e-05 1.5259e-05 0
0.0407111 0.00277714 0.00277714
0.0729686 0.00355535 0.00350958
0.0992447 0.00389105 0.00360113
0.129183 0.00454719 0.00384527
0.168704 0.00656138 0.00564584
0.216876 0.0101778 0.0102083
0.274296 0.0150301 0.016968
0.34139 0.020676 0.0251469
0.419333 0.0268559 0.0341192
0.496254 0.0334936 0.0437018
0.571756 0.0409247 0.0553902
0.646052 0.0496071 0.0701915
0.713832 0.0596323 0.0869001
0.772824 0.0711833 0.106233
0.823545 0.084535 0.131502
0.866819 0.100374 0.165896
0.902937 0.119554 0.213581
0.932036 0.143008 0.277256
0.955383 0.173236 0.352743
0.9729 0.210636 0.430671
0.986419 0.262913 0.505989
0.996109 0.334813 0.57377
0.99942 0.416464 0.633799
1 0.495735 0.687831
1 0.565774 0.734752
1 0.627527 0.775876
1 0.680995 0.811246
1 0.725719 0.841581
1 0.764477 0.867948
0.00196841 0.0289464 0.00196841
0.00201419 0.0295415 0.00201419
0.00205997 0.0301518 0.00205997
0.00207523 0.0281071 0.00205997
0.0306859 0.0269017 0.00332647
0.0657054 0.0232242 0.00350958
0.0959487 0.0180362 0.00352483
0.127642 0.0124666 0.00369268
0.16788 0.0135348 0.00502022
0.216358 0.0163119 0.00906386
0.273915 0.0203403 0.0154574
0.341192 0.0251316 0.023682
0.41912 0.0306401 0.0327611
0.496376 0.0367895 0.0425269
0.571862 0.0436103 0.0551461
0.646998 0.052018 0.070161
0.714199 0.0616617 0.0868849
0.772992 0.0729686 0.106264
0.823972 0.0861982 0.132097
0.867079 0.101793 0.166934
0.903304 0.120989 0.215351
0.932342 0.144411 0.279118
0.955627 0.175021 0.35462
0.97322 0.213428 0.432731
0.986587 0.265873 0.507179
0.996292 0.338933 0.575158
0.999466 0.421317 0.635203
1 0.498527 0.688594
1 0.567742 0.735348
1 0.629191 0.776394
1 0.68162 0.811292
1 0.726635 0.841917
1 0.764813 0.867994
0.00350958 0.0659342 0.00350958
0.00350958 0.0662852 0.00350958
0.00350958 0.0666056 0.00350958
0.00350958 0.0636606 0.00350958
0.0143587 0.0605631 0.00350958
0.057435 0.0559396 0.00350958
0.0918593 0.0487678 0.00350958
0.126268 0.0409705 0.00364691
0.166354 0.0330816 0.00454719
0.215625 0.0289311 0.00799573
0.273655 0.0284581 0.0139773
0.342245 0.0312963 0.0223087
0.419791 0.035523 0.0314488
0.496391 0.0406195 0.0421607
0.571893 0.0468299 0.0549172
0.646952 0.0547341 0.0699016
0.714305 0.0640269 0.086717
0.773419 0.0750744 0.106325
0.824598 0.0879988 0.132815
0.867521 0.1037 0.167834
0.903639 0.123049 0.216739
0.932708 0.146868 0.280858
0.955856 0.177203 0.356008
0.973434 0.216114 0.434226
0.986877 0.269902 0.50898
0.996506 0.343603 0.576776
0.999481 0.424857 0.636271
1 0.501869 0.689509
1 0.569909 0.736004
1 0.630655 0.776852
1 0.682795 0.811704
1 0.727199 0.842084
1 0.765133 0.86804
0.00350958 0.0900893 0.00350958
0.00350958 0.0904097 0.00350958
0.00350958 0.0906996 0.00350958
0.00350958 0.0888228 0.00350958
0.0052491 0.0870222 0.00350958
0.0415656 0.0850538 0.00350958
0.0809491 0.0803998 0.00350958
0.122103 0.0735637 0.00361639
0.163912 0.0616465 0.00415045
0.213855 0.0525673 0.00686656
0.272572 0.0463569 0.0122683
0.340887 0.0433204 0.020264
0.418936 0.0439918 0.0299382
0.496391 0.0473487 0.0411994
0.572412 0.0524147 0.0541085
0.64712 0.0594644 0.0691234
0.714397 0.0681926 0.0860761
0.773922 0.0788281 0.106584
0.824765 0.0914626 0.132952
0.867918 0.106691 0.168444
0.903883 0.12546 0.217685
0.933165 0.14963 0.282704
0.956283 0.180697 0.35819
0.9738 0.219898 0.436271
0.987091 0.273518 0.510292
0.996643 0.348531 0.57789
0.999496 0.428168 0.637171
1 0.505226 0.6907
1 0.572442 0.736858
1 0.632197 0.777325
1 0.683757 0.812024
1 0.727794 0.842191
1 0.765225 0.868025
0.00350958 0.119326 0.00350958
0.00350958 0.119493 0.00350958
0.00350958 0.119692 0.00350958
0.00350958 0.118563 0.00350958
0.00410468 0.117205 0.00350958
0.00741588 0.115724 0.00350958
0.0609903 0.113298 0.00350958
0.115084 0.109163 0.00355535
0.159319 0.102678 0.0037232
0.210773 0.0924239 0.00543221
0.270405 0.0784161 0.0099031
0.339452 0.0641337 0.0178988
0.417243 0.0575875 0.0281376
0.495201 0.0578317 0.0395972
0.571969 0.0610666 0.0525368
0.648157 0.0669413 0.0679026
0.715007 0.0745708 0.085069
0.774197 0.0844129 0.106371
0.825177 0.0965286 0.133669
0.868727 0.111711 0.169482
0.904418 0.130327 0.218372
0.933669 0.154208 0.284367
0.956695 0.184817 0.359686
0.974182 0.224674 0.438468
0.987442 0.280034 0.512154
0.996841 0.354238 0.579461
0.999527 0.433433 0.638376
1 0.508797 0.691661
1 0.574853 0.737408
1 0.633661 0.777737
1 0.685023 0.812497
1 0.728176 0.842298
1 0.765728 0.868162
0.00350958 0.156985 0.00350958
0.00350958 0.157382 0.00350958
0.00350958 0.157626 0.00350958
0.00350958 0.15642 0.00350958
0.00364691 0.155764 0.00350958
0.00534066 0.154635 0.00350958
0.0310063 0.1523 0.00350958
0.0745403 0.149584 0.00352483
0.146395 0.144976 0.00357061
0.202823 0.13666 0.00448615
0.264866 0.125704 0.0077821
0.335073 0.113695 0.014374
0.41416 0.101595 0.024506
0.492485 0.0888533 0.0358129
0.570809 0.082887 0.0493019
0.647669 0.0827955 0.0651102
0.715404 0.087068 0.0827344
0.77496 0.0943465 0.10547
0.825895 0.10457 0.134142
0.869154 0.118517 0.171069
0.905425 0.137499 0.219974
0.934157 0.161013 0.286091
0.957305 0.192432 0.362478
0.974563 0.231922 0.44062
0.987716 0.286854 0.514153
0.99707 0.36257 0.581262
0.999573 0.440162 0.640192
1 0.513329 0.692927
1 0.578378 0.738445
1 0.636423 0.778561
1 0.686244 0.812833
1 0.729046 0.842527
1 0.766171 0.868269
0.00350958 0.202808 0.00358587
0.00350958 0.20322 0.00360113
0.00350958 0.203052 0.00360113
0.00350958 0.202426 0.00360113
0.00354009 0.201526 0.00360113
0.00509651 0.200427 0.00358587
0.0106813 0.199008 0.00358587
0.0471504 0.19646 0.00358587
0.111681 0.193072 0.00360113
0.183642 0.186694 0.00395209
0.253834 0.177768 0.00593576
0.327413 0.167376 0.0107881
0.40824 0.154864 0.019501
0.488655 0.140581 0.0307622
0.568643 0.128725 0.0443427
0.646311 0.118441 0.0607309
0.715312 0.11371 0.0797894
0.775296 0.115145 0.102846
0.826627 0.121645 0.133104
0.869917 0.132723 0.172
0.906081 0.149203 0.222675
0.934936 0.171374 0.288136
0.957824 0.202152 0.365057
0.975036 0.242664 0.443168
0.988113 0.299443 0.516823
0.99733 0.373358 0.583429
0.999603 0.448218 0.642008
1 0.519539 0.694255
1 0.582666 0.739834
1 0.639094 0.77908
1 0.687816 0.813138
1 0.730297 0.842908
1 0.766537 0.86833
0.00350958 0.25713 0.00383001
0.00350958 0.257664 0.00384527
0.00350958 0.257527 0.00384527
0.00350958 0.256886 0.00384527
0.00350958 0.256107 0.00383001
0.00367742 0.255573 0.00381476
0.00395209 0.253971 0.00383001
0.0265202 0.251942 0.00383001
0.0648051 0.248905 0.00383001
0.15172 0.243915 0.0037995
0.232883 0.236606 0.00448615
0.313481 0.227207 0.00730907
0.396536 0.216144 0.0136568
0.481361 0.203845 0.0242924
0.565026 0.189441 0.0383154
0.644144 0.172854 0.0552224
0.713924 0.160266 0.0758373
0.77496 0.153094 0.100435
0.82678 0.151797 0.130556
0.870436 0.157092 0.17171
0.906645 0.169863 0.22472
0.935531 0.189761 0.290791
0.958434 0.218967 0.367468
0.975631 0.258259 0.446738
0.988418 0.314427 0.519478
0.997528 0.387198 0.585336
0.999634 0.45893 0.644038
1 0.527108 0.696071
1 0.587503 0.740581
1 0.642557 0.779965
1 0.690166 0.813794
1 0.731609 0.843229
1 0.767285 0.868482
0.00350958 0.320958 0.00430304
0.00350958 0.321538 0.00430304
0.00350958 0.321813 0.00430304
0.00350958 0.32137 0.00428779
0.00350958 0.320363 0.00428779
0.00361639 0.31986 0.00430304
0.00390631 0.318334 0.00430304
0.00563058 0.316579 0.00428779
0.0313726 0.313344 0.00428779
0.101396 0.309834 0.00425727
0.195712 0.303609 0.00419623
0.290929 0.294743 0.00512703
0.380972 0.284367 0.00865187
0.470817 0.272007 0.0171817
0.557443 0.257877 0.0318761
0.638483 0.242374 0.0496681
0.710491 0.226246 0.070634
0.772641 0.210224 0.0969253
0.82562 0.199847 0.128664
0.869917 0.197696 0.1691
0.906447 0.203555 0.224872
0.93579 0.21883 0.292988
0.958755 0.24538 0.370001
0.975906 0.283421 0.448936
0.988724 0.337743 0.52221
0.997818 0.404944 0.588434
0.999664 0.471916 0.646296
1 0.536049 0.697414
1 0.593591 0.74197
1 0.646891 0.780957
1 0.692927 0.814496
1 0.733028 0.843351
1 0.768231 0.86865
0.00350958 0.396582 0.00515755
0.00350958 0.396704 0.00515755
0.00350958 0.396368 0.00514229
0.00350958 0.396033 0.00512703
0.00354009 0.395102 0.00511177
0.00363165 0.39472 0.00515755
0.00386053 0.392706 0.00517281
0.00419623 0.391669 0.00521859
0.0114595 0.388891 0.0052491
0.0278477 0.385199 0.00527962
0.138384 0.379522 0.0052491
0.249882 0.37261 0.00523384
0.355932 0.362387 0.0065156
0.453361 0.348898 0.0118868
0.545419 0.334203 0.0248264
0.630289 0.318975 0.0442359
0.704707 0.302037 0.0662394
0.768399 0.285878 0.0922408
0.823087 0.270893 0.126329
0.868589 0.25977 0.168032
0.906035 0.255909 0.223636
0.935546 0.263279 0.294133
0.958633 0.284382 0.372381
0.975875 0.318624 0.450523
0.988739 0.368124 0.523995
0.997833 0.427802 0.590173
0.999664 0.487388 0.647974
1 0.547158 0.699168
1 0.601465 0.743191
1 0.652003 0.781949
1 0.696147 0.815015
1 0.735012 0.84361
1 0.769619 0.868879
0.00350958 0.472435 0.00743114
0.00350958 0.471855 0.00740063
0.00350958 0.471595 0.00740063
0.00350958 0.471672 0.00740063
0.00360113 0.470863 0.00735485
0.00369268 0.470558 0.0074464
0.00384527 0.469734 0.00755322
0.0041352 0.468101 0.00766003
0.00642405 0.466072 0.00784314
0.0200656 0.46305 0.0080415
0.062562 0.458717 0.00828565
0.178256 0.453056 0.00846876
0.307912 0.445319 0.00895705
0.427512 0.43566 0.0111543
0.526162 0.421378 0.0204776
0.616373 0.405249 0.0380255
0.694423 0.387717 0.0626383
0.760952 0.369909 0.0897993
0.818128 0.352499 0.122484
0.865293 0.337377 0.167452
0.903822 0.328176 0.221012
0.934203 0.32813 0.293126
0.957763 0.338827 0.37319
0.975372 0.364355 0.452506
0.988495 0.405203 0.525383
0.997635 0.454475 0.591516
0.999619 0.506844 0.649149
1 0.560342 0.700526
1 0.610239 0.744396
1 0.657679 0.782406
1 0.699702 0.815335
1 0.737545 0.844022
1 0.771252 0.869123
0.00363165 0.54226 0.0138399
0.00363165 0.541756 0.0138399
0.00363165 0.541558 0.0138399
0.00367742 0.541558 0.0138094
0.0037232 0.540932 0.0137484
0.00381476 0.540719 0.0137331
0.00389105 0.540246 0.0138705
0.00436408 0.538705 0.0140383
0.00505074 0.537346 0.0143435
0.0130617 0.534844 0.0147555
0.0285801 0.531884 0.0154726
0.118791 0.527138 0.0162356
0.23743 0.520638 0.0172427
0.371283 0.513802 0.0189517
0.495018 0.503624 0.0229648
0.591959 0.489097 0.037171
0.677226 0.473579 0.0581674
0.748684 0.457084 0.0891585
0.809049 0.440162 0.123278
0.858793 0.424613 0.16318
0.89926 0.41146 0.223194
0.931273 0.404974 0.290715
0.956024 0.40647 0.372717
0.974212 0.420249 0.452949
0.987778 0.44802 0.526146
0.99707 0.485634 0.591363
0.999527 0.529335 0.649714
1 0.575967 0.700771
1 0.621103 0.744427
1 0.664591 0.78294
1 0.704555 0.815793
1 0.740826 0.844266
1 0.772839 0.869093
0.00367742 0.605966 0.0264897
0.00370794 0.605844 0.0264897
0.0037232 0.605875 0.0265202
0.00375372 0.605356 0.0264286
0.00384527 0.60531 0.0263523
0.00392157 0.60499 0.0262913
0.00433356 0.600595 0.0283055
0.00489815 0.595346 0.0311742
0.0059968 0.592142 0.0330358
0.00865187 0.596582 0.0297704
0.0232853 0.598688 0.0282902
0.0595865 0.594888 0.0295567
0.16997 0.590585 0.0319371
0.303746 0.584543 0.0347448
0.440391 0.576959 0.0389563
0.558221 0.567315 0.0464942
0.649638 0.553658 0.0640116
0.729198 0.538521 0.0886397
0.795712 0.522423 0.12697
0.849149 0.506722 0.170779
0.892393 0.492912 0.220157
0.926253 0.482002 0.291997
0.952529 0.478126 0.368734
0.971786 0.481727 0.450034
0.98616 0.496925 0.524193
0.99617 0.523018 0.590814
0.999359 0.556588 0.649302
1 0.595346 0.700542
1 0.634531 0.744595
1 0.673976 0.783078
1 0.710735 0.8159
1 0.744411 0.844358
1 0.775769 0.869017
0.0037995 0.663249 0.0486763
0.00384527 0.663371 0.0486152
0.00390631 0.662913 0.0485237
0.0039826 0.662959 0.0483864
0.00410468 0.662852 0.0484474
0.00427253 0.66186 0.0483253
0.00444038 0.661707 0.0482032
0.00477607 0.661585 0.0480659
0.00572213 0.661143 0.0476692
0.00679026 0.660273 0.0471656
0.0160525 0.658412 0.0480964
0.0353857 0.655497 0.0504616
0.104753 0.652293 0.0543069
0.225666 0.647318 0.0584268
0.37232 0.641459 0.0651255
0.509621 0.634714 0.0747539
0.614328 0.62501 0.0877699
0.702083 0.612192 0.108186
0.776074 0.597818 0.136049
0.835538 0.583703 0.178775
0.882567 0.569375 0.233509
0.91931 0.557244 0.295369
0.947478 0.548363 0.371084
0.968475 0.546197 0.447272
0.983963 0.551095 0.522179
0.994736 0.566476 0.589334
0.999115 0.58938 0.647883
1 0.618143 0.699611
1 0.651087 0.744228
1 0.685435 0.78262
1 0.718456 0.815503
1 0.749493 0.844053
1 0.778897 0.868955
0.00408942 0.714763 0.085359
0.00415045 0.714427 0.0852522
0.00425727 0.714244 0.0851759
0.0043946 0.714275 0.0849775
0.00451667 0.713649 0.0848554
0.00469978 0.71368 0.0847028
0.005066 0.71339 0.0845045
0.00547799 0.713298 0.0843214
0.00596628 0.712718 0.0838331
0.0087892 0.711986 0.0832227
0.0126497 0.711284 0.0827802
0.0291905 0.709194 0.0837415
0.0547494 0.707027 0.0862287
0.16051 0.703136 0.0910048
0.294057 0.699001 0.0998093
0.445502 0.693492 0.109819
0.569726 0.686656 0.125261
0.66688 0.677119 0.145678
0.74844 0.665721 0.172992
0.815625 0.652476 0.205753
0.869001 0.639033 0.249516
0.909483 0.62623 0.308721
0.940673 0.615671 0.375769
0.963592 0.60856 0.448707
0.980682 0.607324 0.519478
0.992477 0.613321 0.586679
0.998749 0.627283 0.645106
1 0.64744 0.697643
1 0.672023 0.742977
1 0.699519 0.781674
1 0.728267 0.815076
1 0.756664 0.843824
1 0.783749 0.868635
0.004654 0.759533 0.145449
0.00477607 0.759609 0.145449
0.00488289 0.759319 0.145129
0.00517281 0.758953 0.144976
0.00543221 0.758968 0.144884
0.00567636 0.758785 0.144991
0.00590524 0.758831 0.144961
0.00663767 0.758404 0.144717
0.00796521 0.758053 0.143999
0.00958267 0.75758 0.143999
0.014374 0.757076 0.143481
0.0236362 0.755871 0.142748
0.0501869 0.754376 0.144396
0.102831 0.751568 0.149111
0.226902 0.748501 0.155032
0.372595 0.744274 0.164523
0.516335 0.738857 0.178683
0.625696 0.733074 0.197467
0.714839 0.724224 0.219776
0.78883 0.713451 0.246525
0.849042 0.70164 0.282902
0.896391 0.689845 0.329747
0.931197 0.678645 0.389792
0.956924 0.669581 0.4542
0.976104 0.663661 0.520272
0.989502 0.66334 0.584207
0.998123 0.668757 0.643458
0.999802 0.68101 0.695079
1 0.697734 0.740703
1 0.718318 0.780301
1 0.74139 0.814054
1 0.765652 0.843244
1 0.789776 0.868009
0.00582895 0.798733 0.220569
0.00604257 0.798611 0.221057
0.00627146 0.798688 0.220951
0.00660716 0.798581 0.220951
0.007187 0.798428 0.22089
0.00773632 0.798291 0.220859
0.00825513 0.798001 0.220523
0.00888075 0.797833 0.220417
0.0096437 0.797803 0.220508
0.0130312 0.797375 0.220722
0.0170443 0.79675 0.219898
0.0245975 0.795941 0.222034
0.0471046 0.793103 0.232959
0.0854658 0.790295 0.240818
0.17203 0.790234 0.235431
0.302373 0.787808 0.238117
0.452476 0.784085 0.248096
0.579889 0.779431 0.263096
0.677089 0.773526 0.283497
0.757626 0.765515 0.304982
0.824002 0.756085 0.332631
0.877958 0.745342 0.368765
0.918791 0.734798 0.414557
0.948211 0.724834 0.467933
0.969955 0.716777 0.526436
0.985382 0.712276 0.58526
0.995834 0.712291 0.641047
0.999237 0.717189 0.692607
1 0.727275 0.737621
1 0.741375 0.778241
1 0.758404 0.812634
1 0.777295 0.841947
1 0.797818 0.867384
0.00846876 0.833036 0.30605
0.00891127 0.832685 0.305379
0.00932326 0.832593 0.305516
0.00975052 0.832532 0.305135
0.0102388 0.832593 0.305135
0.0112612 0.832441 0.30573
0.012314 0.832334 0.305257
0.013489 0.832181 0.305791
0.0150607 0.832151 0.30547
0.0169223 0.8318 0.304768
0.0225071 0.830991 0.3075
0.0321355 0.829618 0.312154
0.0433051 0.828229 0.317113
0.0739757 0.828031 0.311681
0.114855 0.82797 0.307805
0.243534 0.825528 0.314565
0.382818 0.8224 0.323781
0.525826 0.819104 0.335958
0.63505 0.81474 0.349889
0.722164 0.809567 0.370077
0.794644 0.802533 0.390982
0.854047 0.793698 0.416678
0.901244 0.784222 0.449683
0.936568 0.774899 0.491371
0.961837 0.766323 0.538888
0.979858 0.75964 0.590707
0.992157 0.755962 0.64213
0.998505 0.755688 0.691676
0.999985 0.75967 0.736065
1 0.76762 0.775326
1 0.778958 0.81033
1 0.793027 0.840482
1 0.809247 0.866178
0.0140078 0.862272 0.393851
0.014725 0.862196 0.394049
0.0154421 0.862135 0.393744
0.0161288 0.862181 0.393866
0.0168002 0.862104 0.394095
0.01738 0.861936 0.393957
0.0183261 0.861753 0.393271
0.0201114 0.861631 0.393362
0.0222934 0.861601 0.39324
0.0250858 0.861402 0.393606
0.0286412 0.86128 0.393683
0.0346685 0.860945 0.393622
0.0485389 0.860319 0.393225
0.065156 0.8598 0.393332
0.118059 0.858732 0.395117
0.189654 0.85745 0.396902
0.327413 0.855207 0.404059
0.46952 0.852476 0.411902
0.594018 0.84921 0.422934
0.686885 0.845441 0.438148
0.763989 0.840772 0.455711
0.827039 0.834623 0.474586
0.879484 0.82678 0.495674
0.921065 0.818479 0.524681
0.951614 0.810208 0.561303
0.972824 0.802686 0.602792
0.987091 0.797131 0.647379
0.996857 0.793805 0.692042
0.999588 0.793347 0.734722
1 0.79646 0.773373
1 0.802594 0.808347
1 0.811643 0.838743
1 0.823453 0.86479
0.0232242 0.887373 0.476799
0.0242466 0.887312 0.47657
0.0251469 0.887358 0.476722
0.0260777 0.887312 0.476524
0.0269627 0.887251 0.476768
0.0277714 0.887205 0.476585
0.0286564 0.887144 0.476829
0.0296635 0.887083 0.4766
0.0318303 0.887083 0.476631
0.0357671 0.886931 0.476585
0.0406958 0.886671 0.475593
0.0469978 0.886412 0.4757
0.0547646 0.886107 0.475624
0.0780194 0.885679 0.475944
0.106828 0.884978 0.475257
0.179232 0.883909 0.478004
0.296925 0.882155 0.483146
0.422827 0.880415 0.487236
0.545937 0.87837 0.492622
0.649805 0.875578 0.503151
0.731746 0.872007 0.51516
0.79968 0.867903 0.531594
0.855573 0.862638 0.548486
0.900603 0.855772 0.566781
0.937499 0.848264 0.591379
0.963653 0.840879 0.622812
0.980652 0.834653 0.65864
0.99292 0.829511 0.697841
0.998489 0.826719 0.735683
1 0.825925 0.772915
1 0.828077 0.806317
1 0.8327 0.836606
1 0.840085 0.863005
0.0377356 0.908629 0.551781
0.0389868 0.908598 0.551644
0.0402228 0.908537 0.551873
0.0413977 0.908507 0.551736
0.0424811 0.908446 0.551995
0.0435798 0.908339 0.551537
0.0446937 0.908324 0.551019
0.0459754 0.908171 0.551324
0.047776 0.908202 0.551049
0.0501106 0.90811 0.551156
0.0558785 0.907973 0.551125
0.0644236 0.907851 0.551278
0.0753185 0.907591 0.551339
0.0882582 0.90721 0.550942
0.137041 0.905821 0.556237
0.211566 0.903777 0.565393
0.296941 0.902525 0.567742
0.397391 0.903395 0.558251
0.504799 0.902373 0.557977
0.615473 0.900175 0.565469
0.702022 0.897475 0.573739
0.773449 0.894148 0.585031
0.83209 0.890806 0.599405
0.879789 0.886168 0.614954
0.919631 0.880034 0.629404
0.951476 0.873472 0.650385
0.972381 0.867491 0.677653
0.987167 0.862211 0.708644
0.996719 0.857786 0.741497
0.999756 0.855161 0.774319
1 0.854139 0.806271
1 0.855436 0.835279
1 0.859007 0.861509
0.0595865 0.92668 0.616724
0.0610666 0.926741 0.616541
0.0625467 0.926711 0.616449
0.0641337 0.92668 0.616342
0.0655833 0.926635 0.616587
0.0670634 0.926604 0.616495
0.0684062 0.926589 0.616403
0.0701152 0.926543 0.616632
0.0724346 0.926497 0.61648
0.0754864 0.926421 0.616617
0.0791638 0.926406 0.616663
0.0853285 0.926223 0.616373
0.100099 0.925948 0.615961
0.118822 0.925704 0.615991
0.141695 0.925475 0.616114
0.188205 0.925048 0.616114
0.271641 0.924483 0.615824
0.369512 0.923766 0.616968
0.478676 0.92253 0.618692
0.582589 0.920989 0.623117
0.674784 0.918929 0.628717
0.747295 0.91664 0.635874
0.808713 0.913802 0.645869
0.859419 0.910597 0.658473
0.900938 0.906767 0.672023
0.934859 0.901625 0.684291
0.962188 0.895842 0.702419
0.979721 0.890593 0.725826
0.992142 0.886046 0.751904
0.998138 0.882094 0.780072
0.999985 0.879561 0.808179
1 0.878416 0.835218
1 0.879316 0.859922
0.0933547 0.941649 0.675059
0.0954147 0.941619 0.675273
0.0973068 0.941527 0.674983
0.0987716 0.941512 0.674937
0.10045 0.941482 0.674876
0.102327 0.94139 0.674876
0.104219 0.94136 0.674815
0.106523 0.941344 0.674739
0.109453 0.941299 0.674647
0.113176 0.941329 0.674739
0.118364 0.941253 0.674846
0.125048 0.941176 0.674617
0.133562 0.941054 0.674891
0.155612 0.940963 0.674693
0.190387 0.940703 0.674693
0.231785 0.940368 0.674083
0.289067 0.939971 0.674067
0.377966 0.939483 0.674006
0.477989 0.938735 0.674052
0.564721 0.937667 0.676509
0.648692 0.936294 0.679484
0.725368 0.934539 0.685039
0.786328 0.932372 0.69131
0.838849 0.9299 0.699397
0.88307 0.927138 0.710048
0.918593 0.923842 0.722332
0.947005 0.919432 0.732616
0.970184 0.91458 0.748104
0.985351 0.910185 0.7673
0.995895 0.906386 0.789715
0.999573 0.90309 0.813291
1 0.90074 0.837125
1 0.899367 0.860609
0.144213 0.953735 0.725902
0.147219 0.953704 0.725856
0.149462 0.953689 0.725811
0.152087 0.953674 0.725765
0.154711 0.953658 0.725719
0.157305 0.953628 0.725917
0.15993 0.953613 0.725872
0.162524 0.953658 0.72578
0.166262 0.953643 0.725719
0.171847 0.953597 0.725856
0.178958 0.953536 0.72575
0.188266 0.953475 0.725826
0.199573 0.953338 0.725689
0.214572 0.953231 0.725444
0.240146 0.953079 0.725322
0.288579 0.952834 0.725307
0.347097 0.952605 0.725368
0.416983 0.952209 0.724941
0.486229 0.951736 0.725124
0.566552 0.951156 0.725399
0.636515 0.950057 0.727214
0.707347 0.948852 0.73019
0.769055 0.947173 0.734142
0.821286 0.945235 0.739803
0.866728 0.943145 0.747127
0.904005 0.940673 0.755734
0.933486 0.937865 0.766125
0.957473 0.934173 0.775189
0.977081 0.930083 0.787839
0.990234 0.926284 0.803876
0.997528 0.922927 0.822416
1 0.920119 0.842206
1 0.917891 0.862821
0.223331 0.963989 0.769329
0.226459 0.963973 0.769314
0.229587 0.964019 0.769238
0.232074 0.964004 0.769223
0.235203 0.964004 0.769192
0.23827 0.963973 0.76936
0.241398 0.963958 0.769329
0.245777 0.963943 0.769299
0.250767 0.963928 0.769253
