Luts/RED/REC709_MEDIUM_CONTRAST_Soft_VLog.cube
TITLE "Generated by Resolve"
LUT_3D_SIZE 9
0 0 0
0.0312963 0.00184634 0.00184634
0.164645 0.00483711 0.0059205
0.415503 0.0239261 0.034699
0.710994 0.0574502 0.0848402
0.901091 0.11664 0.206027
0.985916 0.257069 0.501579
1 0.558251 0.732357
1 0.763607 0.867674
0.00196841 0.0289464 0.00196841
0.0306859 0.0269017 0.00332647
0.16788 0.0135348 0.00502022
0.41912 0.0306401 0.0327611
0.714199 0.0616617 0.0868849
0.903304 0.120989 0.215351
0.986587 0.265873 0.507179
1 0.567742 0.735348
1 0.764813 0.867994
0.00350958 0.156985 0.00350958
0.00364691 0.155764 0.00350958
0.146395 0.144976 0.00357061
0.41416 0.101595 0.024506
0.715404 0.087068 0.0827344
0.905425 0.137499 0.219974
0.987716 0.286854 0.514153
1 0.578378 0.738445
1 0.766171 0.868269
0.00350958 0.396582 0.00515755
0.00354009 0.395102 0.00511177
0.0114595 0.388891 0.0052491
0.355932 0.362387 0.0065156
0.704707 0.302037 0.0662394
0.906035 0.255909 0.223636
0.988739 0.368124 0.523995
1 0.601465 0.743191
1 0.769619 0.868879
0.0037995 0.663249 0.0486763
0.00410468 0.662852 0.0484474
0.00572213 0.661143 0.0476692
0.104753 0.652293 0.0543069
0.614328 0.62501 0.0877699
0.882567 0.569375 0.233509
0.983963 0.551095 0.522179
1 0.651087 0.744228
1 0.778897 0.868955
0.00846876 0.833036 0.30605
0.0102388 0.832593 0.305135
0.0150607 0.832151 0.30547
0.0433051 0.828229 0.317113
0.382818 0.8224 0.323781
0.794644 0.802533 0.390982
0.961837 0.766323 0.538888
0.999985 0.75967 0.736065
1 0.809247 0.866178
0.0595865 0.92668 0.616724
0.0655833 0.926635 0.616587
0.0724346 0.926497 0.61648
0.100099 0.925948 0.615961
0.271641 0.924483 0.615824
0.674784 0.918929 0.628717
0.900938 0.906767 0.672023
0.992142 0.886046 0.751904
1 0.879316 0.859922
0.35285 0.972488 0.80705
0.362005 0.972442 0.807157
0.372503 0.972396 0.807065
0.402213 0.972259 0.806973
0.489082 0.971878 0.806729
0.651713 0.970657 0.806516
0.84007 0.96701 0.812924
0.956466 0.959899 0.835721
0.999954 0.949065 0.875624
0.714244 0.994247 0.909163
0.715251 0.994247 0.909148
0.716503 0.994247 0.909224
0.7205 0.994232 0.909178
0.73341 0.994141 0.909133
0.767727 0.993851 0.90901
0.83975 0.993027 0.908721
0.926192 0.990784 0.912337
0.984527 0.986847 0.923217
0 0 1.5259e-05
0.0321202 0.00195315 0.00196841
0.164874 0.00454719 0.0136263
0.415351 0.0226139 0.0446784
0.710887 0.0556344 0.0985275
0.901228 0.113848 0.23476
0.985733 0.253574 0.511894
1 0.556344 0.734203
1 0.763409 0.867964
0.00337224 0.0310826 0.0195773
0.0176699 0.0171969 0.0168612
0.166552 0.0107118 0.0205386
0.419226 0.0291142 0.0484016
0.713802 0.0600137 0.103822
0.903075 0.118029 0.246067
0.986557 0.263569 0.517754
1 0.566705 0.737575
1 0.764523 0.868299
0.00350958 0.157534 0.00605783
0.00354009 0.15671 0.00560006
0.14403 0.145953 0.00779736
0.41352 0.100557 0.043473
0.715221 0.0845197 0.106905
0.904906 0.135073 0.252384
0.987549 0.284016 0.523781
1 0.576776 0.740322
1 0.765881 0.868574
0.00350958 0.393988 0.0137331
0.00354009 0.393027 0.0140078
0.0104067 0.387671 0.0137331
0.352117 0.360662 0.019852
0.702647 0.299077 0.0944533
0.905318 0.252064 0.256657
0.988571 0.365988 0.532815
1 0.60032 0.744869
1 0.769299 0.869184
0.00378424 0.660975 0.0866102
0.00404364 0.660349 0.0874342
0.00550851 0.658442 0.0870527
0.101518 0.650431 0.0929274
0.613397 0.623575 0.122957
0.881544 0.568078 0.264332
0.983688 0.549676 0.53164
1 0.650355 0.745754
1 0.778637 0.86923
0.00833143 0.832242 0.330358
0.0101015 0.831922 0.329854
0.014847 0.831495 0.329717
0.0395361 0.828916 0.333211
0.381247 0.821912 0.345754
0.794232 0.801877 0.409796
0.961501 0.765667 0.546822
0.999969 0.759335 0.73785
1 0.809064 0.866545
0.0593271 0.926574 0.621592
0.0653086 0.926452 0.62153
0.0721447 0.926299 0.621439
0.0997482 0.92575 0.620935
0.271275 0.924285 0.620844
0.674388 0.918868 0.632715
0.900893 0.9066 0.675303
0.99205 0.885893 0.753475
1 0.879225 0.860273
0.352514 0.972442 0.807919
0.36173 0.972396 0.807843
0.372183 0.972351 0.807919
0.401938 0.972213 0.807843
0.48893 0.971847 0.807431
0.651652 0.970611 0.807218
0.84004 0.966964 0.813733
0.956405 0.95993 0.836301
0.999954 0.949035 0.875944
0.714244 0.994263 0.909239
0.715251 0.994263 0.909239
0.716487 0.994247 0.909316
0.720485 0.994217 0.90927
0.733394 0.994141 0.909224
0.767727 0.993835 0.909117
0.83975 0.993027 0.908812
0.926192 0.990784 0.912413
0.984527 0.986847 0.923293
0.00350958 0.00350958 0.110094
0.0248417 0.00350958 0.11368
0.163287 0.00381476 0.113832
0.415015 0.018204 0.106157
0.709636 0.051194 0.142931
0.900923 0.109895 0.274052
0.98558 0.249744 0.523888
1 0.554849 0.736812
1 0.762768 0.868177
0.00355535 0.0104524 0.126467
0.00747692 0.00866712 0.130449
0.16321 0.00650034 0.131746
0.418616 0.0241855 0.124392
0.713817 0.0557412 0.157855
0.902708 0.114504 0.285298
0.986297 0.260151 0.528405
1 0.565316 0.739925
1 0.764218 0.86865
0.00350958 0.148882 0.129366
0.00352483 0.147295 0.135027
0.137499 0.138521 0.138384
0.411109 0.085771 0.130037
0.714611 0.0809033 0.161959
0.904723 0.13225 0.292393
0.987457 0.281575 0.535424
1 0.575372 0.74258
1 0.76556 0.868925
0.00350958 0.387854 0.0857404
0.00350958 0.386801 0.087068
0.00875868 0.382452 0.0855573
0.346578 0.355398 0.108949
0.701411 0.293706 0.157336
0.904341 0.2477 0.294789
0.988235 0.361501 0.544457
1 0.598871 0.74696
1 0.769055 0.869429
0.00375372 0.658534 0.134691
0.0039826 0.657374 0.135882
0.0053254 0.655619 0.136477
0.0972 0.648112 0.143175
0.61146 0.620844 0.189471
0.87985 0.565286 0.301793
0.983276 0.548119 0.542641
1 0.649409 0.747784
1 0.778149 0.869551
0.00813306 0.831266 0.358236
0.00988785 0.831052 0.358129
0.0145113 0.83061 0.358053
0.0373388 0.828717 0.357137
0.378622 0.821225 0.371771
0.793622 0.801297 0.431327
0.961028 0.765042 0.557015
0.999969 0.758846 0.740169
1 0.808835 0.866987
0.0591135 0.926345 0.627512
0.0650797 0.926207 0.627466
0.071931 0.926131 0.627329
0.0992752 0.925612 0.626825
0.27158 0.924041 0.626856
0.674144 0.918669 0.63801
0.900816 0.906355 0.67921
0.991928 0.885832 0.755352
1 0.879088 0.860822
0.352636 0.972381 0.808957
0.361349 0.972351 0.808881
0.371878 0.972305 0.808789
0.401648 0.972168 0.808713
0.488701 0.971786 0.808484
0.651576 0.970565 0.808103
0.839994 0.966918 0.814542
0.956405 0.959884 0.837064
0.999954 0.949004 0.876356
0.714214 0.994263 0.909438
0.715221 0.994247 0.909438
0.716472 0.994247 0.909422
0.72047 0.994217 0.909377
0.733364 0.994141 0.909407
0.767712 0.993835 0.909209
0.839734 0.993011 0.90901
0.926177 0.990768 0.912581
0.984512 0.986847 0.923369
0.0157473 0.00476081 0.310857
0.0260166 0.00471504 0.312108
0.139284 0.00444038 0.315175
0.411658 0.00614939 0.317098
0.708827 0.0366064 0.319478
0.899962 0.0983444 0.387289
0.984665 0.236439 0.558022
1 0.5514 0.743908
1 0.76199 0.869245
0.0103761 0.00823987 0.32105
0.0191196 0.00808728 0.324361
0.133852 0.0069276 0.326497
0.413016 0.00914015 0.328878
0.710994 0.0424659 0.327672
0.901244 0.104173 0.394629
0.985672 0.248783 0.562982
1 0.561746 0.746838
1 0.763058 0.869474
0.00456245 0.0933852 0.329244
0.00645457 0.0915694 0.331548
0.083238 0.0812695 0.332692
0.401526 0.0572824 0.334112
0.710262 0.0678111 0.33257
0.902831 0.122621 0.398627
0.986664 0.271077 0.568109
1 0.571893 0.749371
1 0.764477 0.869871
0.00350958 0.363745 0.329915
0.00350958 0.362051 0.331441
0.00611887 0.356847 0.332113
0.32871 0.335134 0.331945
0.693706 0.275547 0.332998
0.901259 0.235874 0.402029
0.987335 0.350851 0.574517
1 0.594858 0.752911
1 0.767941 0.870619
0.00364691 0.649287 0.313909
0.00381476 0.6486 0.314611
0.00479133 0.647028 0.314687
0.0862745 0.640497 0.313741
0.605768 0.613352 0.342397
0.875593 0.559335 0.401389
0.981933 0.542092 0.574258
1 0.646891 0.753323
1 0.777127 0.87097
0.00766003 0.828779 0.433173
0.00927749 0.82855 0.433326
0.01355 0.82771 0.432502
0.035584 0.826062 0.432609
0.373938 0.819242 0.439719
0.792157 0.799054 0.487861
0.959716 0.763684 0.583963
0.999954 0.75729 0.746639
1 0.808118 0.868345
0.0583658 0.925765 0.643931
0.0644388 0.925704 0.643854
0.0710613 0.925551 0.644114
0.0986954 0.925017 0.643656
0.270726 0.923522 0.643473
0.67364 0.918212 0.652598
0.900542 0.905776 0.690349
0.991638 0.885435 0.760571
1 0.878782 0.862318
0.351629 0.97229 0.811536
0.360357 0.972259 0.81146
0.370855 0.972198 0.811536
0.400793 0.97203 0.811322
0.488762 0.971664 0.81091
0.651255 0.970474 0.810712
0.83978 0.966842 0.817105
0.956374 0.959777 0.838895
0.999954 0.948928 0.877272
0.714153 0.994232 0.909834
0.715404 0.994232 0.909819
0.716381 0.994217 0.909911
0.720638 0.994186 0.909865
0.733532 0.994125 0.909789
0.767636 0.993835 0.909682
0.839719 0.992981 0.909499
0.926162 0.990738 0.912963
0.984512 0.986816 0.923659
0.0321202 0.00936904 0.593545
0.038529 0.00923171 0.594827
0.088716 0.00863661 0.596338
0.384283 0.00675975 0.598474
0.691478 0.0132601 0.59649
0.892638 0.0701152 0.591623
0.983032 0.207919 0.644816
1 0.540139 0.765209
1 0.758419 0.873396
0.0220645 0.0186923 0.598032
0.0274968 0.0183719 0.599023
0.069398 0.0168002 0.5991
0.373388 0.0124208 0.60119
0.690623 0.0196384 0.5991
0.894011 0.0802319 0.594858
0.98381 0.221927 0.647715
1 0.549294 0.767224
1 0.75964 0.873762
0.0117189 0.0623026 0.601175
0.015259 0.0612497 0.601755
0.0459907 0.0563821 0.601907
0.34995 0.0420081 0.602487
0.686778 0.0406806 0.600793
0.894636 0.0991379 0.596521
0.984482 0.242344 0.650919
1 0.558862 0.768795
1 0.760861 0.874067
0.00428779 0.309575 0.602213
0.00497444 0.307225 0.602731
0.0124666 0.300542 0.60235
0.266697 0.277272 0.600244
0.666514 0.231464 0.598306
0.890379 0.199908 0.596796
0.984527 0.317342 0.654505
1 0.581781 0.771908
1 0.764263 0.874586
0.00350958 0.626078 0.594293
0.00361639 0.625162 0.594858
0.00402838 0.623117 0.594614
0.0559701 0.615885 0.593469
0.590646 0.59382 0.593164
0.862348 0.542123 0.592447
0.978408 0.527977 0.653407
1 0.637247 0.772442
1 0.773907 0.874922
0.00642405 0.821591 0.592477
0.00770581 0.821073 0.591897
0.0110018 0.8206 0.591943
0.0307012 0.818875 0.590845
0.362737 0.81239 0.588632
0.787686 0.792569 0.61033
0.955734 0.758831 0.654978
0.999847 0.753658 0.766842
1 0.805982 0.872328
0.0560464 0.923964 0.689555
0.0619211 0.923827 0.68954
0.0682383 0.923613 0.689265
0.0958419 0.923125 0.689128
0.267353 0.921599 0.68838
0.670878 0.916671 0.692378
0.899687 0.90428 0.72285
0.990707 0.88426 0.777218
1 0.877928 0.866957
0.349264 0.971862 0.820523
0.35816 0.971817 0.820447
0.36817 0.971771 0.820539
0.398505 0.971572 0.820188
0.486595 0.971267 0.820096
0.650782 0.970047 0.819455
0.839292 0.966506 0.824704
0.956207 0.959442 0.845563
0.999939 0.948775 0.880415
0.713863 0.994156 0.911498
0.715129 0.994141 0.911482
0.716381 0.994141 0.911467
0.720394 0.994125 0.911513
0.733303 0.994034 0.911467
0.767468 0.993744 0.91136
0.83949 0.992905 0.911086
0.926055 0.990692 0.914046
0.984466 0.98677 0.924681
0.0215763 0.0389563 0.800565
0.0245975 0.0386664 0.80087
0.0431678 0.0367895 0.800732
0.27303 0.0311284 0.800397
0.658061 0.0242313 0.799863
0.866209 0.0428168 0.795117
0.978714 0.166842 0.784848
1 0.506722 0.81799
1 0.748501 0.885191
0.0166934 0.0618753 0.800946
0.0196078 0.0612039 0.801251
0.0355688 0.0581674 0.801114
0.245533 0.0486 0.800198
0.650538 0.0370336 0.799634
0.865309 0.0532082 0.795773
0.978622 0.179889 0.785473
1 0.515084 0.818814
1 0.749477 0.88542
0.0124514 0.106371 0.800992
0.0152743 0.104402 0.801114
0.028687 0.0995346 0.800778
0.21268 0.0835431 0.799741
0.641245 0.0627146 0.799344
0.863401 0.0733806 0.795697
0.978454 0.197177 0.786297
1 0.523781 0.819272
1 0.750698 0.885618
0.00694286 0.281865 0.800031
0.00857557 0.27892 0.799771
0.0163577 0.271366 0.799771
0.142611 0.24683 0.798703
0.614679 0.199802 0.796796
0.856657 0.16347 0.794125
0.976791 0.262394 0.786801
1 0.548455 0.82034
1 0.753826 0.88603
0.0043946 0.586694 0.7935
0.005066 0.585046 0.79353
0.007187 0.582223 0.79321
0.0437018 0.573083 0.792279
0.533227 0.548318 0.789227
0.832746 0.514046 0.787518
0.968765 0.495537 0.783642
1 0.613565 0.821057
1 0.76495 0.886412
0.00480659 0.804059 0.781033
0.0055848 0.803571 0.780774
0.00691234 0.803082 0.780575
0.0218662 0.800702 0.779934
0.326085 0.793851 0.778027
0.773968 0.777676 0.77641
0.945342 0.747189 0.778225
0.999176 0.743389 0.817273
1 0.799893 0.884794
0.0489509 0.918669 0.782849
0.0541848 0.918547 0.78265
0.0599374 0.918456 0.782605
0.0860914 0.917906 0.781994
0.252491 0.91632 0.781033
0.664515 0.911635 0.780087
0.897108 0.899886 0.795132
0.988098 0.881025 0.818845
1 0.8757 0.880369
0.341344 0.970657 0.845701
0.349889 0.970581 0.845685
0.360235 0.970581 0.845579
0.392477 0.970443 0.845487
0.48249 0.970092 0.845258
0.648508 0.968856 0.844617
0.838026 0.965469 0.846754
0.955703 0.958434 0.862654
0.999756 0.947997 0.88957
0.713405 0.993896 0.915908
0.714412 0.993912 0.915969
0.715679 0.993896 0.915953
0.719722 0.993881 0.915908
0.732677 0.993774 0.915938
0.766842 0.993469 0.915633
0.839323 0.99263 0.915236
0.925795 0.990463 0.917861
0.984436 0.986557 0.92784
0.0068513 0.212604 0.918608
0.00816358 0.207889 0.918593
0.0135195 0.19855 0.918517
0.0670481 0.172824 0.917647
0.535698 0.137362 0.915892
0.831312 0.11249 0.914031
0.954589 0.15198 0.909285
1 0.443809 0.900008
1 0.722057 0.915511
0.00650034 0.243732 0.918334
0.00775158 0.238163 0.918227
0.0129854 0.228946 0.918135
0.0626688 0.202564 0.917281
0.526497 0.163897 0.91545
0.828885 0.137819 0.913481
0.953872 0.171633 0.909102
1 0.453803 0.900191
1 0.723232 0.915618
0.00631724 0.287404 0.9178
0.00762951 0.281743 0.917693
0.0126802 0.272786 0.917586
0.0590219 0.246204 0.916762
0.51548 0.205341 0.914992
0.826215 0.170977 0.913085
0.953017 0.1944 0.908644
1 0.463905 0.900298
1 0.724346 0.915663
0.00572213 0.401648 0.916457
0.00708019 0.395972 0.916396
0.0113527 0.387732 0.916259
0.0478828 0.36228 0.915419
0.488334 0.309651 0.913436
0.818616 0.258015 0.911681
0.950988 0.263325 0.907897
1 0.496208 0.90045
1 0.728985 0.915785
0.00585946 0.589853 0.912367
0.00740063 0.586542 0.912184
0.0111238 0.582834 0.912184
0.0369116 0.572183 0.911513
0.384924 0.547005 0.909773
0.794827 0.509682 0.907393
0.943786 0.489235 0.904479
0.999512 0.579507 0.899763
1 0.743557 0.915969
0.00769055 0.783551 0.9037
0.00936904 0.782834 0.903593
0.012253 0.781979 0.903456
0.0283513 0.779309 0.902953
0.232654 0.771298 0.90161
0.740001 0.754879 0.898787
0.925566 0.736629 0.897231
0.996796 0.728908 0.895735
1 0.787213 0.914961
0.0346532 0.908156 0.894759
0.0381018 0.907973 0.894774
0.0420539 0.907881 0.894743
0.0650645 0.907225 0.894347
0.208103 0.905318 0.893645
0.648295 0.900313 0.891615
0.888975 0.890333 0.889677
0.98175 0.873686 0.890043
1 0.870115 0.910735
0.316777 0.967453 0.895094
0.32607 0.967422 0.895048
0.337377 0.967376 0.895003
0.371145 0.967285 0.894911
0.468147 0.966827 0.894606
0.641794 0.96553 0.893812
0.835096 0.962386 0.892927
0.954131 0.955718 0.900465
0.999069 0.946029 0.912718
0.711376 0.993179 0.928374
0.712398 0.993164 0.928374
0.713695 0.993164 0.928359
0.71809 0.993133 0.928313
0.731197 0.993057 0.928252
0.765469 0.992721 0.928008
0.838605 0.991867 0.927611
0.925231 0.989837 0.928878
0.984085 0.985916 0.93666
0.00411994 0.597711 0.975265
0.00454719 0.59266 0.975113
0.00588998 0.586358 0.974914
0.0184176 0.56817 0.974319
0.180072 0.533745 0.97319
0.743343 0.486091 0.971496
0.927062 0.457008 0.969604
0.990951 0.506523 0.966247
1 0.696162 0.959792
0.00416571 0.604776 0.975021
0.00459297 0.600519 0.974975
0.00602731 0.593927 0.974746
0.0184482 0.57705 0.974197
0.176562 0.544366 0.973083
0.741466 0.498268 0.971298
0.926436 0.469474 0.969467
0.990829 0.515358 0.966232
1 0.697948 0.959808
0.00421149 0.614313 0.974853
0.00463874 0.610437 0.974777
0.0061799 0.60444 0.974563
0.0185397 0.588251 0.973999
0.173404 0.557717 0.9729
0.7393 0.513832 0.971099
0.925887 0.485069 0.969284
0.990646 0.526116 0.966155
1 0.699931 0.959716
0.00437934 0.640009 0.974319
0.00479133 0.636973 0.974258
0.00666819 0.630915 0.973983
0.0185855 0.618189 0.97348
0.164233 0.592737 0.972427
0.733989 0.553643 0.970657
0.923949 0.523842 0.968795
0.990021 0.550256 0.965698
1 0.706691 0.959686
0.00537118 0.692592 0.972534
0.00677501 0.689891 0.972427
0.00852979 0.686534 0.972259
0.022034 0.678401 0.971862
0.147478 0.660243 0.970932
0.713054 0.63061 0.969131
0.918227 0.606119 0.967269
0.988128 0.617243 0.964523
1 0.725887 0.95935
0.0114137 0.793423 0.968078
0.0131685 0.792523 0.967987
0.0162966 0.791547 0.96791
0.0275883 0.78883 0.967666
0.11194 0.781506 0.96698
0.657847 0.765469 0.965225
0.902602 0.746929 0.963317
0.982834 0.7393 0.961273
1 0.777523 0.958038
0.0369879 0.896376 0.960433
0.0413214 0.896147 0.960433
0.0463417 0.896025 0.960372
0.0603647 0.895445 0.96025
0.134661 0.893324 0.959808
0.585412 0.887709 0.958572
0.868635 0.877836 0.956283
0.970382 0.868711 0.954849
1 0.864713 0.954284
0.268803 0.961761 0.95407
0.279225 0.961715 0.95404
0.291279 0.961685 0.953933
0.325567 0.961486 0.953872
0.428305 0.961089 0.953674
0.622782 0.959655 0.953094
0.829297 0.956359 0.951858
0.950881 0.951064 0.951064
0.997162 0.942382 0.950576
0.705852 0.991272 0.954086
0.707225 0.991257 0.95407
0.708598 0.991241 0.954055
0.713252 0.991211 0.954025
0.726223 0.991135 0.953964
0.762371 0.990829 0.953719
0.83682 0.989929 0.953216
0.924178 0.988022 0.952407
0.983352 0.984314 0.955917
0.00607309 0.812161 0.997909
0.00712596 0.810819 0.997909
0.00910964 0.808972 0.997864
0.0142672 0.804044 0.997772
0.0619974 0.794888 0.997452
0.516472 0.778302 0.996536
0.87364 0.757336 0.995178
0.972671 0.747723 0.993912
1 0.765713 0.992264
0.00616464 0.813001 0.997879
0.00730907 0.811688 0.997879
0.00927749 0.809873 0.997833
0.0144198 0.805051 0.997726
0.062211 0.796033 0.997406
0.515908 0.779599 0.996506
0.873289 0.758785 0.995148
0.972564 0.749187 0.993866
1 0.766918 0.992233
0.00627146 0.814191 0.997833
0.00755322 0.812696 0.997833
0.00944533 0.810849 0.997772
0.0147555 0.806439 0.997681
0.0623941 0.797406 0.99736
0.514687 0.781445 0.99646
0.872862 0.76051 0.995102
0.972473 0.750851 0.993851
1 0.768322 0.992233
0.00657664 0.817334 0.997787
0.00822461 0.815641 0.997711
0.010132 0.814023 0.997681
0.0158541 0.810178 0.99762
0.0634775 0.801587 0.997269
0.512657 0.785611 0.996338
0.872007 0.765774 0.99501
0.972122 0.756008 0.993744
1 0.772274 0.992081
0.00881972 0.827543 0.99736
0.0103609 0.826505 0.99733
0.0121462 0.825299 0.997284
0.0194553 0.822003 0.997177
0.0653849 0.81503 0.996796
0.501991 0.801251 0.995926
0.868376 0.782177 0.994568
0.970871 0.772549 0.993347
1 0.78558 0.991821
0.0155184 0.854429 0.996124
0.0168002 0.853819 0.996078
0.0198978 0.85333 0.996048
0.0289769 0.851591 0.995956
0.0716411 0.847181 0.99559
0.472374 0.837018 0.994812
0.85716 0.821668 0.993408
0.966995 0.811734 0.992157
0.999939 0.816785 0.99086
0.045655 0.904616 0.993011
0.0485542 0.904448 0.992996
0.0521553 0.904234 0.992966
0.062211 0.903593 0.99292
0.114412 0.901717 0.992676
0.457923 0.896864 0.99202
0.830884 0.887938 0.990753
0.957702 0.879255 0.989441
0.998352 0.876875 0.988479
0.218753 0.955657 0.988098
0.223758 0.955627 0.988083
0.229587 0.955566 0.988067
0.247974 0.955428 0.988037
0.351751 0.954849 0.987869
0.573343 0.953338 0.987472
0.807279 0.94995 0.986542
0.940856 0.944381 0.985122
0.992401 0.939971 0.984344
0.694697 0.988067 0.98352
0.695964 0.988052 0.98352
0.697566 0.988052 0.983505
0.701396 0.988006 0.98349
0.715084 0.987915 0.983413
0.753292 0.987594 0.983261
0.830243 0.986587 0.982773
0.921294 0.984604 0.981918
0.981369 0.981628 0.981628
