Luts/Lecia/L-Log_to_Natural_VLog.cube
TITLE "Generated by Resolve"
LUT_3D_SIZE 5
0 0 0
0.119646 0 0
0.565103 0 0.000793469
1 0 0.0583658
1 0 0.0801404
0 0.0954604 0
0.0832227 0.0843519 0
0.561257 0 0.000808728
1 0 0.0583658
1 0 0.0801404
0 0.50193 0
0 0.499947 0
0.470863 0.477775 0
1 0.128466 0.0298466
1 0 0.0801404
0 0.97377 0.217182
0 0.97377 0.217182
0 0.972503 0.213809
0.91902 0.951934 0.202976
1 0.694255 0
0 1 0.823728
0 1 0.823728
0 1 0.823728
0.00695811 1 0.824308
1 1 0.816571
0 0 0.0800183
0.111437 0 0.0795911
0.564446 0 0.0844587
1 0 0.0623636
1 0 0.0801404
0 0.0874495 0.0762188
0.0752117 0.076051 0.0762646
0.560647 0 0.0826581
1 0 0.0607767
1 0 0.0801404
0 0.500526 0
0 0.498421 0
0.469459 0.47599 0
1 0.116289 0.0319524
1 0 0.0801404
0 0.973617 0.216785
0 0.973617 0.216785
0 0.972351 0.213397
0.919097 0.951751 0.202518
1 0.693004 0
0 1 0.823728
0 1 0.823728
0 1 0.823728
0.00695811 1 0.824308
1 1 0.816571
0 0 0.46479
0 0 0.464942
0.547478 0 0.46537
1 0 0.449073
1 0 0.0801404
0 0 0.464088
0 0 0.463996
0.547234 0 0.464652
1 0 0.447852
1 0 0.0801404
0 0.475959 0.451118
0 0.474403 0.450752
0.449653 0.450828 0.45153
1 0.0680705 0.446281
1 0 0.0801404
0 0.962783 0.446204
0 0.962798 0.445914
0 0.961822 0.444038
0.9149 0.941466 0.428351
1 0.686061 0
0 1 0.823728
0 1 0.823728
0 1 0.823728
0 1 0.824277
1 1 0.816571
0 0.433768 0.911665
0 0.433768 0.911665
0.303319 0.424582 0.912093
0.99585 0.256565 0.916609
1 0 0.911299
0 0.433463 0.911528
0 0.433463 0.911528
0.302373 0.424628 0.912077
0.99585 0.256565 0.916609
1 0 0.911131
0 0.432868 0.911238
0 0.432868 0.911238
0.295644 0.423896 0.91165
0.995926 0.254948 0.916182
1 0 0.910796
0 0.915572 0.888762
0 0.915572 0.888762
0 0.914733 0.888884
0.890684 0.891829 0.891707
1 0.628183 0.889845
0 1 0.918883
0 1 0.918837
0 1 0.918837
0 1 0.919158
1 1 0.912596
0.719783 0.949966 1
0.719783 0.949966 1
0.719783 0.949966 1
0.862593 0.946639 1
1 0.912016 1
0.719783 0.949966 1
0.719783 0.949966 1
0.719783 0.949966 1
0.862516 0.946639 1
1 0.912016 1
0.719783 0.949966 1
0.719783 0.949966 1
0.719783 0.949966 1
0.862348 0.946654 1
1 0.912016 1
0.719783 0.949966 1
0.719783 0.949966 1
0.719783 0.949966 1
0.859937 0.946731 1
1 0.912016 1
0 1 1
0 1 1
0 1 1
0 1 1
1 1 1
