Luts/Lecia/L-Log_to_Natural_VLog.cube
TITLE "Generated by Resolve"
LUT_3D_SIZE 33
0 0 0
0 0 0
0.00137331 0 0
0.0106661 0 0
0.0276799 0 0
0.0458381 0 0
0.0665751 0 0
0.0910048 0 0
0.119646 0 0
0.152758 0 0
0.19144 0 0
0.238453 0 0
0.295933 0 0
0.359915 0 0
0.427527 0 0
0.496406 0 0
0.565103 0 0.000793469
0.633539 0 0.00468452
0.701564 0 0.0111696
0.768811 0 0.018265
0.835218 0 0.0256962
0.900008 0 0.0331426
0.962524 0 0.0415503
0.997604 0 0.0507515
1 0 0.0583658
1 0 0.0645304
1 0 0.0694133
1 0 0.0731365
1 0 0.0758679
1 0 0.0777752
1 0 0.0790265
1 0 0.0797894
1 0 0.0801404
0 0 0
0 0 0
0.00112917 0 0
0.00981155 0 0
0.0269932 0 0
0.0452735 0 0
0.0660868 0 0
0.0907149 0 0
0.119524 0 0
0.152468 0 0
0.191272 0 0
0.238453 0 0
0.295933 0 0
0.359915 0 0
0.427527 0 0
0.496406 0 0
0.565103 0 0.000793469
0.633539 0 0.00468452
0.701564 0 0.0111696
0.768811 0 0.018265
0.835218 0 0.0256962
0.900008 0 0.0331426
0.962524 0 0.0415503
0.997604 0 0.0507515
1 0 0.0583658
1 0 0.0645304
1 0 0.0694133
1 0 0.0731365
1 0 0.0758679
1 0 0.0777752
1 0 0.0790265
1 0 0.0797894
1 0 0.0801404
0 0 0
0 0 0
0.00030518 0 0
0.00508125 0 0
0.0219425 0 0
0.0406806 0 0
0.0618448 0 0
0.087129 0 0
0.116411 0 0
0.150195 0 0
0.189456 0 0
0.237201 0 0
0.294926 0 0
0.359564 0 0
0.427466 0 0
0.496406 0 0
0.565103 0 0.000793469
0.633539 0 0.00468452
0.701564 0 0.0111696
0.768811 0 0.018265
0.835218 0 0.0256962
0.900008 0 0.0331426
0.962524 0 0.0415503
0.997589 0 0.050721
1 0 0.0583658
1 0 0.0645304
1 0 0.0694133
1 0 0.0731365
1 0 0.0758679
1 0 0.0777752
1 0 0.0790265
1 0 0.0797894
1 0 0.0801404
0 0.00434882 0
0 0.00399786 0
0 0.00337224 0
0.00236515 0.00277714 0
0.0164797 0.00221256 0
0.0356603 0.00169375 0
0.057496 0.00117494 0
0.083299 0.00062562 0
0.113176 0.00015259 0
0.147463 0 0
0.187137 0 0
0.235294 0 0
0.293477 0 0
0.358144 0 0
0.426703 0 0
0.495674 0 0
0.565057 0 0.000839246
0.63328 0 0.00466926
0.701305 0 0.0111543
0.768811 0 0.018265
0.835218 0 0.0256962
0.900008 0 0.0331426
0.962524 0 0.0415503
0.997589 0 0.050721
1 0 0.0583658
1 0 0.0645304
1 0 0.0694133
1 0 0.0731365
1 0 0.0758679
1 0 0.0777752
1 0 0.0790265
1 0 0.0797894
1 0 0.0801404
0 0.0165713 0
0 0.0161288 0
0 0.014847 0
0.00122072 0.0134737 0
0.0107576 0.0121004 0
0.0301671 0.0106813 0
0.05243 0.0089723 0
0.0790112 0.00682078 0
0.109712 0.00415045 0
0.144686 0.00190738 0
0.184894 0.000518807 0
0.233524 0 0
0.291752 0 0
0.356893 0 0
0.425467 0 0
0.495033 0 0
0.564752 0 0.00105287
0.63328 0 0.005066
0.701305 0 0.0111543
0.768811 0 0.018265
0.835218 0 0.0256962
0.900008 0 0.0331426
0.962524 0 0.0415503
0.997589 0 0.050721
1 0 0.0583658
1 0 0.0645304
1 0 0.0694133
1 0 0.0731365
1 0 0.0758679
1 0 0.0777752
1 0 0.0790265
1 0 0.0797894
1 0 0.0801404
0 0.0315099 0
0 0.0309758 0
0 0.0295872 0
0.000289921 0.0281834 0
0.00529488 0.0267491 0
0.0240024 0.0252384 0
0.0466926 0.0235904 0
0.0741283 0.0212863 0
0.105821 0.0181277 0
0.141573 0.0137484 0
0.18233 0.00782788 0
0.231434 0.00115969 0
0.290211 0 0
0.355688 0 0
0.42446 0 0
0.494377 0 0
0.563973 0 0.00115969
0.633082 0 0.00581369
0.701305 0 0.0116274
0.768811 0 0.018265
0.835218 0 0.0256962
0.900008 0 0.0331426
0.962524 0 0.0415503
0.997589 0 0.050721
1 0 0.0583658
1 0 0.0645304
1 0 0.0694133
1 0 0.0731365
1 0 0.0758679
1 0 0.0777752
1 0 0.0790265
1 0 0.0797894
1 0 0.0801404
0 0.0488746 0
0 0.0483253 0
0 0.0469062 0
0 0.0455024 0
0.00207523 0.0441138 0
0.0158694 0.0425269 0
0.0391699 0.0408789 0
0.0680095 0.0386206 0
0.101045 0.0354314 0
0.137758 0.0310369 0
0.179278 0.024979 0
0.229007 0.0160678 0
0.288273 0.004654 0
0.354192 0 0
0.423484 0 0
0.493675 0 0
0.563378 0 0.00111391
0.632715 0 0.0061799
0.701152 0 0.0124056
0.768765 0 0.018555
0.835218 0 0.0256962
0.900008 0 0.0331426
0.962524 0 0.0415503
0.997589 0 0.050721
1 0 0.0583658
1 0 0.0645304
1 0 0.0694133
1 0 0.0731365
1 0 0.0758679
1 0 0.0777752
1 0 0.0790265
1 0 0.0797894
1 0 0.0801404
0 0.0699626 0
0 0.0694133 0
0 0.0680858 0
0 0.0667277 0
0.000579843 0.0653391 0
0.00709545 0.0638895 0
0.0280919 0.0622416 0
0.0589914 0.0601053 0
0.0941482 0.0571145 0
0.13228 0.0529335 0
0.175128 0.0470741 0
0.225681 0.0382849 0
0.28574 0.0251926 0
0.352117 0.00846876 0
0.421698 0 0
0.492378 0 0
0.562478 0 0.00102235
0.632136 0 0.00605783
0.700969 0 0.0132906
0.768704 0 0.0195163
0.834974 0 0.0256657
0.900008 0 0.0331426
0.962524 0 0.0415503
0.997589 0 0.050721
1 0 0.0583658
1 0 0.0645304
1 0 0.0694133
1 0 0.0731365
1 0 0.0758679
1 0 0.0777752
1 0 0.0790265
1 0 0.0797894
1 0 0.0801404
0 0.0954604 0
0 0.0950942 0
0 0.0939651 0
0 0.0927291 0
0 0.0914626 0
0.00134279 0.0901808 0
0.0134279 0.0888075 0
0.0443732 0.0869612 0
0.0832227 0.0843519 0
0.12401 0.0808728 0
0.16878 0.0757763 0
0.220569 0.0682841 0
0.281666 0.0571145 0
0.348898 0.0403296 0
0.419516 0.0171511 0
0.490517 0.000381476 0
0.561257 0 0.000808728
0.631266 0 0.00547799
0.700328 0 0.0135958
0.768185 0 0.020737
0.834714 0 0.0269017
0.900008 0 0.0331426
0.962524 0 0.0415503
0.997589 0 0.050721
1 0 0.0583658
1 0 0.0645304
1 0 0.0694133
1 0 0.0731365
1 0 0.0758679
1 0 0.0777752
1 0 0.0790265
1 0 0.0797894
1 0 0.0801404
0 0.125124 0
0 0.124849 0
0 0.123705 0
0 0.122667 0
0 0.121706 0
0 0.120699 0
0.00260929 0.119326 0
0.0222629 0.117952 0
0.0659648 0.115679 0
0.111391 0.112688 0
0.159213 0.108476 0
0.213169 0.102373 0
0.275685 0.0936141 0
0.344259 0.0802472 0
0.415946 0.0609293 0
0.48806 0.032578 0
0.559136 0.00743114 0.000320439
0.629679 0 0.00411994
0.69955 0 0.0128328
0.767742 0 0.0217746
0.834516 0 0.0285191
0.899886 0 0.0342718
0.962524 0 0.0415503
0.997589 0 0.050721
1 0 0.0583658
1 0 0.0645304
1 0 0.0694133
1 0 0.0731365
1 0 0.0758679
1 0 0.0777752
1 0 0.0790265
1 0 0.0797894
1 0 0.0801404
0 0.159884 0
0 0.159594 0
0 0.15845 0
0 0.157763 0
0 0.156847 0
0 0.156024 0
0 0.154879 0
0.00408942 0.153521 0
0.0379339 0.15172 0
0.0910811 0.14905 0
0.144503 0.145541 0
0.201999 0.140444 0
0.266911 0.133196 0
0.337591 0.122606 0
0.411109 0.107698 0
0.484092 0.086656 0
0.556298 0.054902 1.5259e-05
0.627451 0.0173037 0.00202945
0.697627 0 0.0105898
0.766751 0 0.0209506
0.83415 0 0.0303807
0.899718 0 0.0363775
0.962524 0 0.0421607
0.997589 0 0.050721
1 0 0.0583658
1 0 0.0645304
1 0 0.0694133
1 0 0.0731365
1 0 0.0758679
1 0 0.0777752
1 0 0.0790265
1 0 0.0797894
1 0 0.0801404
0 0.201389 0
0 0.201038 0
0 0.200305 0
0 0.199527 0
0 0.198825 0
0 0.197833 0
0 0.196994 0
0.000534066 0.195789 0
0.0102235 0.194049 0
0.0557259 0.191974 0
0.119677 0.188754 0
0.184436 0.18436 0
0.253849 0.178256 0
0.327901 0.169512 0
0.403418 0.157366 0
0.47837 0.141329 0
0.551858 0.118257 0
0.624186 0.082948 0.000228885
0.695048 0.0337377 0.005066
0.764904 0.00373846 0.017319
0.833021 0 0.0295415
0.899046 0 0.038941
0.96202 0 0.0437629
0.997589 0 0.0507057
1 0 0.0583658
1 0 0.0645304
1 0 0.0694133
1 0 0.0731365
1 0 0.0758679
1 0 0.0777752
1 0 0.0790265
1 0 0.0797894
1 0 0.0801404
0 0.251438 0
0 0.251225 0
0 0.250751 0
0 0.250126 0
0 0.249226 0
0 0.248219 0
0 0.247639 0
0 0.246647 0
0.000854505 0.245075 0
0.0168154 0.243214 0
0.0740673 0.240543 0
0.154055 0.236652 0
0.232837 0.231464 0
0.312749 0.224002 0
0.392218 0.214115 0
0.469703 0.20116 0
0.545419 0.182803 0
0.619013 0.157153 0
0.691173 0.119005 0.000686656
0.761868 0.061265 0.0083772
0.830945 0.00935378 0.0237888
0.897902 0 0.038117
0.961669 0 0.0471962
0.997452 0 0.0513008
1 0 0.0583505
1 0 0.0645304
1 0 0.0694133
1 0 0.0731365
1 0 0.0758679
1 0 0.0777752
1 0 0.0790265
1 0 0.0797894
1 0 0.0801404
0 0.309407 0
0 0.309178 0
0 0.308721 0
0 0.308171 0
0 0.307256 0
0 0.306844 0
0 0.306416 0
0 0.305653 0
0 0.30428 0
0.000976577 0.302525 0
0.0221714 0.300374 0
0.0961013 0.297475 0
0.197711 0.293416 0
0.288731 0.287205 0
0.374655 0.27924 0
0.456397 0.268727 0
0.534783 0.254337 0
0.610803 0.234409 0
0.684764 0.206088 0
0.756725 0.164446 0.000747692
0.826856 0.0982223 0.0102998
0.895323 0.0185397 0.0294041
0.960555 0 0.0461738
0.997314 0 0.0542611
1 0 0.05832
1 0 0.0645304
1 0 0.0694133
1 0 0.0731365
1 0 0.0758679
1 0 0.0777752
1 0 0.0790265
1 0 0.0797894
1 0 0.0801404
0 0.372259 0
0 0.372015 0
0 0.371572 0
0 0.371283 0
0 0.370611 0
0 0.370459 0
0 0.36994 0
0 0.369314 0
0 0.368383 0
0 0.367025 0
0.00111391 0.365301 0
0.0291142 0.362982 0
0.130968 0.35996 0
0.250782 0.355093 0
0.348196 0.348882 0
0.436927 0.340566 0
0.519692 0.329427 0
0.598795 0.314122 0
0.674998 0.293019 0
0.748791 0.264164 0
0.820768 0.220279 0.000732433
0.890486 0.147295 0.0109407
0.957122 0.0424811 0.0332494
0.996231 0 0.0529488
1 0 0.0601053
1 0 0.0645151
1 0 0.0694133
1 0 0.0731365
1 0 0.0758679
1 0 0.0777752
1 0 0.0790265
1 0 0.0797894
1 0 0.0801404
0 0.436866 0
0 0.436866 0
0 0.436545 0
0 0.436332 0
0 0.436042 0
0 0.435645 0
0 0.435523 0
0 0.434745 0
0 0.43415 0
0 0.433082 0
0 0.432105 0
0.00210575 0.429908 0
0.0472114 0.427573 0
0.186099 0.424231 0
0.309178 0.419348 0
0.409461 0.413108 0
0.498924 0.404364 0
0.582269 0.393317 0
0.661463 0.378134 0
0.737697 0.357412 0
0.811276 0.328008 0
0.882719 0.282994 0.000564584
0.950713 0.20763 0.00843824
0.993515 0.0823987 0.0333715
1 0 0.0576944
1 0 0.0652323
1 0 0.069398
1 0 0.0731365
1 0 0.0758679
1 0 0.0777752
1 0 0.0790265
1 0 0.0797894
1 0 0.0801404
0 0.50193 0
0 0.50193 0
0 0.501686 0
0 0.501595 0
0 0.501366 0
0 0.500984 0
0 0.500877 0
0 0.500435 0
0 0.499947 0
0 0.499168 0
0 0.498131 0
0 0.497108 0
0.00422675 0.495094 0
0.0830854 0.492424 0
0.249638 0.488823 0
0.371206 0.483894 0
0.470863 0.477775 0
0.560265 0.469215 0
0.644022 0.458045 0
0.722805 0.443183 0
0.798672 0.422461 0
0.872068 0.393606 0
0.941497 0.349905 0.000137331
0.988983 0.275578 0.00508125
1 0.128466 0.0298466
1 0 0.0603494
1 0 0.0693675
1 0 0.0731212
1 0 0.0758679
1 0 0.0777752
1 0 0.0790265
1 0 0.0797894
1 0 0.0801404
0 0.566659 0
0 0.566659 0
0 0.566659 0
0 0.566278 0
0 0.56614 0
0 0.566003 0
0 0.565881 0
0 0.565484 0
0 0.564858 0
0 0.564523 0
0 0.564095 0
0 0.562936 0
0 0.561593 0
0.00979629 0.559548 0
0.139025 0.556634 0
0.31606 0.553033 0
0.433265 0.548424 0
0.532326 0.541939 0
0.621286 0.533593 0
0.704692 0.522408 0
0.783078 0.507683 0
0.858198 0.487922 0
0.92932 0.459968 0
0.982971 0.417441 0
1 0.346014 0.00244144
1 0.200809 0.0219577
1 0.0226444 0.0607614
1 0 0.073106
1 0 0.0758526
1 0 0.0777752
1 0 0.0790265
1 0 0.0797894
1 0 0.0801404
0 0.630961 0
0 0.630961 0
0 0.630732 0
0 0.630655 0
0 0.630518 0
0 0.630381 0
0 0.63035 0
0 0.629953 0
0 0.629755 0
0 0.629465 0
0 0.628794 0
0 0.628153 0
0 0.627222 0
0.000595102 0.62562 0
0.0359045 0.62356 0
0.223468 0.620584 0
0.379995 0.61706 0
0.495399 0.612039 0
0.593317 0.605676 0
0.681971 0.597284 0
0.764202 0.586542 0
0.84184 0.572183 0
0.914992 0.552621 0
0.975509 0.525567 0
1 0.484993 0
1 0.416663 0
1 0.278889 0.0137331
1 0.0446479 0.0578775
1 0 0.0758526
1 0 0.0777752
1 0 0.0790265
1 0 0.0797894
1 0 0.0801404
0 0.694224 0
0 0.694224 0
0 0.694224 0
0 0.694224 0
0 0.69398 0
0 0.693858 0
0 0.693736 0
0 0.69369 0
0 0.693629 0
0 0.693126 0
0 0.692897 0
0 0.692363 0
0 0.691676 0
0 0.690654 0
0.0033875 0.688914 0
0.0883345 0.686564 0
0.290333 0.683635 0
0.444312 0.679744 0
0.556664 0.674723 0
0.653407 0.668574 0
0.740963 0.660655 0
0.821973 0.650156 0
0.89752 0.63621 0
0.964874 0.617166 0
0.998825 0.590829 0
1 0.552071 0
1 0.486168 0
1 0.353643 0.00430304
1 0.0545052 0.0521401
1 0 0.0777752
1 0 0.0790265
1 0 0.0797742
1 0 0.0801404
0 0.756436 0
0 0.756436 0
0 0.756207 0
0 0.756207 0
0 0.756207 0
0 0.756207 0
0 0.756161 0
0 0.756115 0
0 0.756054 0
0 0.755627 0
0 0.75555 0
0 0.755261 0
0 0.754604 0
0 0.75375 0
0 0.752758 0
0.00914015 0.750851 0
0.150729 0.748226 0
0.365408 0.745434 0
0.507362 0.741573 0
0.616831 0.736751 0
0.712215 0.730739 0
0.798337 0.722972 0
0.877455 0.712627 0
0.947143 0.699306 0
0.990448 0.681208 0
1 0.655848 0
1 0.618494 0
1 0.554284 0
1 0.424536 0
1 0.0474403 0.0509499
1 0 0.0790265
1 0 0.0797742
1 0 0.0801404
0 0.81709 0
0 0.81709 0
0 0.81709 0
0 0.81709 0
0 0.81709 0
0 0.816861 0
0 0.8168 0
0 0.816693 0
0 0.816709 0
0 0.816617 0
0 0.81648 0
0 0.816068 0
0 0.815778 0
0 0.815198 0
0 0.814649 0
0 0.813153 0
0.0369421 0.810971 0
0.229892 0.808759 0
0.436896 0.805646 0
0.569436 0.802029 0
0.67657 0.797131 0
0.769833 0.791241 0
0.853758 0.783688 0
0.92668 0.773999 0
0.980774 0.761318 0
1 0.744076 0
1 0.719722 0
1 0.683604 0
1 0.620417 0
1 0.491798 0
1 0.0506294 0.0485084
1 0 0.0797742
1 0 0.0801404
0 0.875349 0.0128481
0 0.875349 0.0128481
0 0.875349 0.0128481
0 0.875349 0.0128481
0 0.875349 0.0128481
0 0.87512 0.0127718
0 0.87512 0.0127718
0 0.875105 0.0127718
0 0.875044 0.0127718
0 0.874998 0.0128481
0 0.874861 0.0129549
0 0.874815 0.0127718
0 0.874342 0.0126955
0 0.874159 0.0128481
0 0.873518 0.0129702
0 0.872541 0.014023
0.00103761 0.871046 0.0152438
0.0734569 0.869154 0.0171817
0.320485 0.866606 0.0191501
0.505074 0.863828 0.0213779
0.631205 0.859998 0.0238956
0.735027 0.855344 0.0260929
0.825528 0.849851 0.0269627
0.90312 0.84268 0.0256046
0.965499 0.833585 0.0209964
0.996658 0.821607 0.0131533
1 0.805539 0.00360113
1 0.781796 7.62951e-05
1 0.746868 0
1 0.684794 0
1 0.55642 0
1 0.125765 0.0389105
1 0 0.0801404
0 0.928801 0.104509
0 0.928618 0.104036
0 0.928618 0.104036
0 0.928618 0.104036
0 0.928618 0.104036
0 0.928618 0.104036
0 0.928618 0.104036
0 0.928618 0.104036
0 0.928618 0.104036
0 0.928618 0.104036
0 0.928542 0.103548
0 0.928512 0.103471
0 0.928161 0.102647
0 0.9281 0.102495
0 0.927901 0.10193
0 0.927214 0.101549
0 0.926055 0.101701
0.00337224 0.924529 0.102556
0.126574 0.922591 0.103365
0.413245 0.920195 0.103883
0.572839 0.917327 0.104051
0.692546 0.913909 0.104555
0.792325 0.909712 0.103075
0.876448 0.904433 0.0993515
0.943084 0.89839 0.0915389
0.987045 0.890517 0.0776074
1 0.879622 0.0550698
1 0.864149 0.0334173
1 0.842008 0.0174258
1 0.80827 0.0030518
1 0.747402 0
1 0.603906 0
1 0.22594 0.00720226
0 0.97377 0.217182
0 0.97377 0.217182
0 0.97377 0.217182
0 0.97377 0.217182
0 0.97377 0.217182
0 0.97377 0.217182
0 0.97377 0.217182
0 0.97377 0.217182
0 0.97377 0.217182
0 0.9738 0.216785
0 0.97377 0.216754
0 0.973678 0.216617
0 0.973632 0.216205
0 0.973358 0.215717
0 0.973281 0.214969
0 0.973159 0.214298
0 0.972503 0.213809
0 0.971283 0.214481
0.0195468 0.969665 0.215274
0.255894 0.967681 0.2159
0.496635 0.965499 0.215595
0.641688 0.962692 0.214847
0.754559 0.959838 0.213169
0.846784 0.956222 0.209567
0.91902 0.951934 0.202976
0.972763 0.946853 0.192828
0.997253 0.940124 0.177554
1 0.930602 0.154818
1 0.917372 0.125338
1 0.897566 0.0755627
1 0.866865 0.014313
1 0.805264 0
1 0.694255 0
0 0.996689 0.316045
0 0.996689 0.316045
0 0.996689 0.316045
0 0.996689 0.316045
0 0.996689 0.316045
0 0.996689 0.316045
0 0.996689 0.316045
0 0.996628 0.315679
0 0.996628 0.315679
0 0.996628 0.315679
0 0.996628 0.315587
0 0.996597 0.315251
0 0.996597 0.315221
0 0.996597 0.314839
0 0.996567 0.314733
0 0.996475 0.313817
0 0.996429 0.313558
0 0.996155 0.313375
0 0.995773 0.31426
0.0643168 0.995285 0.315206
0.368185 0.994781 0.31577
0.578805 0.994079 0.31577
0.711284 0.99324 0.315038
0.815122 0.992264 0.313329
0.89453 0.990906 0.309758
0.953643 0.988922 0.303777
0.990311 0.985336 0.294789
1 0.979919 0.281437
1 0.972671 0.262333
1 0.96202 0.225254
1 0.946181 0.159884
1 0.919158 0.0686656
1 0.873106 0
0 1 0.403708
0 1 0.403708
0 1 0.403708
0 1 0.403708
0 1 0.403708
0 1 0.403708
0 1 0.403708
0 1 0.403708
0 1 0.403708
0 1 0.403708
0 1 0.403708
0 1 0.403708
0 1 0.403311
0 1 0.403235
0 1 0.402945
0 1 0.402625
0 1 0.402426
0 1 0.401709
0 1 0.401999
0 1 0.402701
0.098024 1 0.403464
0.484581 1 0.4038
0.657694 1 0.403494
0.779217 1 0.402686
0.869017 1 0.400549
0.933577 0.999939 0.396796
0.979568 0.999512 0.390814
0.998291 0.998535 0.382071
1 0.99704 0.369528
1 0.99443 0.350408
1 0.989807 0.318151
1 0.981048 0.264317
1 0.965988 0.183505
0 1 0.486076
0 1 0.486076
0 1 0.486076
0 1 0.486076
0 1 0.486076
0 1 0.486076
0 1 0.486076
0 1 0.486076
0 1 0.486076
