Luts/Lecia/L-Log_to_Natural_VLog.cube
TITLE "Generated by Resolve"
LUT_3D_SIZE 9
0 0 0
0.0276799 0 0
0.119646 0 0
0.295933 0 0
0.565103 0 0.000793469
0.835218 0 0.0256962
1 0 0.0583658
1 0 0.0758679
1 0 0.0801404
0 0.0165713 0
0.0107576 0.0121004 0
0.109712 0.00415045 0
0.291752 0 0
0.564752 0 0.00105287
0.835218 0 0.0256962
1 0 0.0583658
1 0 0.0758679
1 0 0.0801404
0 0.0954604 0
0 0.0914626 0
0.0832227 0.0843519 0
0.281666 0.0571145 0
0.561257 0 0.000808728
0.834714 0 0.0269017
1 0 0.0583658
1 0 0.0758679
1 0 0.0801404
0 0.251438 0
0 0.249226 0
0.000854505 0.245075 0
0.232837 0.231464 0
0.545419 0.182803 0
0.830945 0.00935378 0.0237888
1 0 0.0583505
1 0 0.0758679
1 0 0.0801404
0 0.50193 0
0 0.501366 0
0 0.499947 0
0.00422675 0.495094 0
0.470863 0.477775 0
0.798672 0.422461 0
1 0.128466 0.0298466
1 0 0.0758679
1 0 0.0801404
0 0.756436 0
0 0.756207 0
0 0.756054 0
0 0.754604 0
0.150729 0.748226 0
0.712215 0.730739 0
0.990448 0.681208 0
1 0.424536 0
1 0 0.0801404
0 0.97377 0.217182
0 0.97377 0.217182
0 0.97377 0.217182
0 0.973632 0.216205
0 0.972503 0.213809
0.496635 0.965499 0.215595
0.91902 0.951934 0.202976
1 0.917372 0.125338
1 0.694255 0
0 1 0.564675
0 1 0.564675
0 1 0.564675
0 1 0.564675
0 1 0.564263
0 1 0.563195
0.802991 1 0.564523
0.999725 1 0.550607
1 1 0.48629
0 1 0.823728
0 1 0.823728
0 1 0.823728
0 1 0.823728
0 1 0.823728
0 1 0.823423
0.00695811 1 0.824308
0.972412 1 0.825727
1 1 0.816571
0 0 0.009308
0.0224155 0 0.00926223
0.116442 0 0.00978103
0.29456 0 0.0130617
0.564645 0 0.0244297
0.834928 0 0.0369116
1 0 0.0583658
1 0 0.0758679
1 0 0.0801404
0 0.0116579 0.00714122
0.00740063 0.00741588 0.00727855
0.107591 0.00102235 0.00798047
0.290929 0 0.0113375
0.56437 0 0.0236362
0.834928 0 0.0358282
1 0 0.0583658
1 0 0.0758679
1 0 0.0801404
0 0.0926986 0.00213626
0 0.088716 0.00248722
0.0806439 0.0816968 0.00340276
0.280537 0.0539101 0.00682078
0.56112 0 0.0213321
0.834623 0 0.0353704
1 0 0.0583658
1 0 0.0758679
1 0 0.0801404
0 0.250599 0
0 0.248325 0
0 0.244404 0
0.231418 0.230579 0
0.545068 0.180194 0.000198367
0.830854 0.00607309 0.0294499
1 0 0.0583658
1 0 0.0758679
1 0 0.0801404
0 0.500984 0
0 0.500191 0
0 0.49897 0
0.00187686 0.494041 0
0.470436 0.476524 0
0.798642 0.420996 0
1 0.122667 0.0308385
1 0 0.0758679
1 0 0.0801404
0 0.755978 0
0 0.755978 0
0 0.755627 0
0 0.754391 0
0.149355 0.747768 0
0.712123 0.730251 0
0.990509 0.680629 0
1 0.42237 0
1 0 0.0801404
0 0.97377 0.217182
0 0.97377 0.217182
0 0.97377 0.217182
0 0.973465 0.215808
0 0.972335 0.213397
0.496941 0.965331 0.215167
0.91902 0.951934 0.202976
1 0.917174 0.124819
1 0.693629 0
0 1 0.564675
0 1 0.564675
0 1 0.564675
0 1 0.564675
0 1 0.564263
0 1 0.563195
0.803143 1 0.564248
0.999725 1 0.550622
1 1 0.485908
0 1 0.823728
0 1 0.823728
0 1 0.823728
0 1 0.823728
0 1 0.823728
0 1 0.823423
0.00695811 1 0.824308
0.972412 1 0.825727
1 1 0.816571
0 0 0.0800183
0.0129091 0 0.0796674
0.111437 0 0.0795911
0.292638 0 0.0804608
0.564446 0 0.0844587
0.834745 0 0.0811017
1 0 0.0623636
1 0 0.0758679
1 0 0.0801404
0 0.00274662 0.0789349
0.00363165 0.00105287 0.0785992
0.10396 0 0.0783856
0.289815 0 0.0793164
0.564034 0 0.0829938
0.834745 0 0.0797894
1 0 0.0615549
1 0 0.0758679
1 0 0.0801404
0 0.0874495 0.0762188
0 0.0835889 0.0760967
0.0752117 0.076051 0.0762646
0.279026 0.0467842 0.0777447
0.560647 0 0.0826581
0.834501 0 0.0788891
1 0 0.0607767
1 0 0.0758679
1 0 0.0801404
0 0.25034 0.0541848
0 0.24802 0.0542306
0 0.244007 0.0546426
0.228473 0.230701 0.0574807
0.544411 0.179232 0.0683909
0.830579 0.00187686 0.0779583
1 0 0.0596933
1 0 0.0758679
1 0 0.0801404
0 0.500526 0
0 0.499886 0
0 0.498421 0
0 0.493477 0
0.469459 0.47599 0
0.798123 0.421103 0
1 0.116289 0.0319524
1 0 0.0758679
1 0 0.0801404
0 0.755459 0
0 0.755474 0
0 0.755123 0
0 0.753933 0
0.147036 0.747311 0
0.712016 0.729763 0
0.990448 0.680095 0
1 0.421134 0
1 0 0.0801404
0 0.973617 0.216785
0 0.973617 0.216785
0 0.973617 0.216785
0 0.973144 0.215015
0 0.972351 0.213397
0.49575 0.965347 0.215167
0.919097 0.951751 0.202518
1 0.917174 0.124819
1 0.693004 0
0 1 0.564675
0 1 0.564675
0 1 0.564675
0 1 0.564675
0 1 0.563989
0 1 0.563195
0.803143 1 0.564248
0.999725 1 0.550622
1 1 0.485908
0 1 0.823728
0 1 0.823728
0 1 0.823728
0 1 0.823728
0 1 0.823728
0 1 0.823438
0.00695811 1 0.824308
0.972412 1 0.825727
1 1 0.816571
0 0 0.227741
0 0 0.227207
0.0870375 0 0.227131
0.284779 0 0.226886
0.561669 0 0.226703
0.833585 0 0.220752
1 0 0.181811
1 0 0.0758679
1 0 0.0801404
0 0 0.226673
0 0 0.226352
0.0837568 0 0.226017
0.28394 0 0.225864
0.56141 0 0.225589
0.8336 0 0.219745
1 0 0.180926
1 0 0.0758679
1 0 0.0801404
0 0.0430152 0.226032
0 0.0388037 0.225727
0.047013 0.0281071 0.225635
0.27216 0.00318914 0.225528
0.558587 0 0.225788
0.8336 0 0.218387
1 0 0.17966
1 0 0.0758679
1 0 0.0801404
0 0.239567 0.220645
0 0.238315 0.220233
0 0.233982 0.22034
0.218708 0.220127 0.220371
0.540871 0.166339 0.222049
0.82884 0 0.220295
1 0 0.17612
1 0 0.0758679
1 0 0.0801404
0 0.496101 0.194263
0 0.495628 0.193835
0 0.494255 0.193545
0 0.489097 0.193652
0.465461 0.471901 0.195331
0.796216 0.417212 0.193378
1 0.115892 0.177661
1 0 0.0758679
1 0 0.0801404
0 0.75111 0.150591
0 0.75111 0.150134
0 0.750454 0.149355
0 0.749584 0.147433
0.143236 0.743191 0.14609
0.70959 0.725734 0.135531
0.990005 0.677409 0.0649577
1 0.415534 0
1 0 0.0801404
0 0.973297 0.215961
0 0.973297 0.215961
0 0.973297 0.215961
0 0.973159 0.215091
0 0.972061 0.212573
0.494697 0.965042 0.214298
0.918822 0.951431 0.201633
1 0.916732 0.123751
1 0.691737 0
0 1 0.564675
0 1 0.564675
0 1 0.564401
0 1 0.564401
0 1 0.564019
0 1 0.562921
0.802777 1 0.564248
0.999725 1 0.550317
1 1 0.485908
0 1 0.823728
0 1 0.823728
0 1 0.823728
0 1 0.823728
0 1 0.823728
0 1 0.823438
0.00231937 1 0.824292
0.972274 1 0.825742
1 1 0.816571
0 0 0.46479
0 0 0.46479
0 0 0.464942
0.243946 0 0.464942
0.547478 0 0.46537
0.82739 0 0.464164
1 0 0.449073
1 0 0.369879
1 0 0.0801404
0 0 0.464561
0 0 0.464332
0 0 0.464469
0.243259 0 0.464469
0.547478 0 0.465126
0.827405 0 0.463706
1 0 0.448585
1 0 0.369345
1 0 0.0801404
0 0 0.464088
0 0 0.463859
0 0 0.463996
0.242573 0 0.463996
0.547234 0 0.464652
0.82742 0 0.463233
1 0 0.447852
1 0 0.368521
1 0 0.0801404
0 0.180682 0.461158
0 0.179156 0.461173
0 0.174502 0.461326
0.166064 0.153292 0.461463
0.528634 0.0698253 0.462318
0.822782 0 0.462425
1 0 0.446403
1 0 0.366064
1 0 0.0801404
0 0.475959 0.451118
0 0.475502 0.450904
0 0.474403 0.450752
0 0.469261 0.450904
0.449653 0.450828 0.45153
0.78854 0.392386 0.452018
1 0.0680705 0.446281
1 0 0.358144
1 0 0.0801404
0 0.737392 0.436957
0 0.737392 0.436957
0 0.737163 0.436622
0 0.736309 0.43621
0.120958 0.729671 0.436484
0.701854 0.711666 0.435523
0.98735 0.661753 0.423575
1 0.401694 0.365057
1 0 0.0801404
0 0.962783 0.446204
0 0.962783 0.446067
0 0.962798 0.445914
0 0.962524 0.44538
0 0.961822 0.444038
0.484855 0.954635 0.442771
0.9149 0.941466 0.428351
1 0.908797 0.35172
1 0.686061 0
0 1 0.564111
0 1 0.564111
0 1 0.564111
0 1 0.563821
0 1 0.5635
0 1 0.562325
0.801694 1 0.563394
0.999725 1 0.549722
1 1 0.484794
0 1 0.823728
0 1 0.823728
0 1 0.823728
0 1 0.823728
0 1 0.823728
0 1 0.823453
0 1 0.824277
0.972152 1 0.825742
1 1 0.816571
0 0.054612 0.704753
0 0.054612 0.704753
0 0.054612 0.704753
0.0153658 0.0433967 0.705196
0.495109 0.0144961 0.705867
0.802945 0 0.70753
1 0 0.70779
1 0 0.690303
1 0 0.606104
0 0.054612 0.704753
0 0.054612 0.704753
0 0.054612 0.704753
0.0149081 0.0430304 0.704967
0.49485 0.0145724 0.705867
0.802976 0 0.707317
1 0 0.707576
1 0 0.690303
1 0 0.605814
0 0.0542 0.704524
0 0.0542 0.704524
0 0.0542 0.704524
0.0144503 0.0430915 0.704967
0.494606 0.014313 0.705653
0.802716 0 0.707301
1 0 0.707576
1 0 0.690059
1 0 0.605539
0 0.0533913 0.704097
0 0.0533913 0.704097
0 0.0533913 0.704097
0.0128023 0.0424506 0.704509
0.493874 0.0139315 0.705211
0.802777 0 0.706874
1 0 0.707134
1 0 0.689586
1 0 0.604974
0 0.440955 0.696849
0 0.440574 0.696849
0 0.440009 0.696864
0 0.436011 0.696925
0.41091 0.415747 0.698054
0.77113 0.350835 0.699962
1 0.0170443 0.702602
1 0 0.687892
1 0 0.602457
0 0.712978 0.684886
0 0.712978 0.684886
0 0.712764 0.684886
0 0.711696 0.684733
0.0651255 0.705409 0.685512
0.685466 0.686336 0.686549
0.981399 0.63389 0.686305
1 0.345098 0.679698
1 0 0.594324
0 0.941558 0.678782
0 0.941558 0.678782
0 0.941558 0.678782
0 0.941558 0.678782
0 0.940566 0.678447
0.464134 0.933288 0.679255
0.905272 0.918898 0.676982
1 0.885008 0.659876
1 0.652293 0.593698
0 1 0.719142
0 1 0.719142
0 1 0.719036
0 1 0.719036
0 1 0.718624
0 1 0.717586
0.795102 1 0.716838
0.998154 1 0.701427
1 1 0.629343
0 1 0.823728
0 1 0.823728
0 1 0.823728
0 1 0.823728
0 1 0.823728
0 1 0.823514
0 1 0.824216
0.971756 1 0.825742
1 1 0.816571
0 0.433768 0.911665
0 0.433768 0.911665
0 0.433768 0.911665
0 0.433768 0.911665
0.303319 0.424582 0.912093
0.735256 0.383719 0.913787
0.99585 0.256565 0.916609
1 0.002533 0.921859
1 0 0.911299
0 0.433768 0.911665
0 0.433768 0.911665
0 0.433463 0.911528
0 0.433463 0.911528
0.302831 0.424598 0.912093
0.735027 0.383383 0.913649
0.99585 0.256565 0.916609
1 0.002533 0.921859
1 0 0.911299
0 0.433463 0.911528
0 0.433463 0.911528
0 0.433463 0.911528
0 0.433463 0.911528
0.302373 0.424628 0.912077
0.735027 0.383383 0.913649
0.99585 0.256565 0.916609
1 0.002533 0.921859
1 0 0.911131
0 0.433463 0.911528
0 0.433463 0.911528
0 0.433463 0.911528
0 0.433463 0.911528
0.300862 0.424353 0.91194
0.734783 0.383413 0.913649
0.995895 0.255985 0.916457
1 0.002533 0.921721
1 0 0.911131
0 0.432868 0.911238
0 0.432868 0.911238
0 0.432868 0.911238
0 0.432868 0.911238
0.295644 0.423896 0.91165
0.734081 0.382803 0.913359
0.995926 0.254948 0.916182
1 0.00242618 0.921447
1 0 0.910796
0 0.691493 0.900847
0 0.691249 0.90071
0 0.691081 0.90071
0 0.690761 0.900725
0.00309758 0.686336 0.901259
0.653986 0.666682 0.903075
0.968002 0.615534 0.905837
1 0.353613 0.911391
1 0 0.909636
0 0.915572 0.888762
0 0.915572 0.888762
0 0.915572 0.888762
0 0.915434 0.888762
0 0.914733 0.888884
0.41912 0.906722 0.890364
0.890684 0.891829 0.891707
1 0.857099 0.890944
1 0.628183 0.889845
0 1 0.892226
0 1 0.892226
0 1 0.892226
0 1 0.892073
0 1 0.892073
0 1 0.891997
0.785458 1 0.894209
0.994598 0.999054 0.891981
1 0.992935 0.878187
0 1 0.918883
0 1 0.918837
0 1 0.918837
0 1 0.918837
0 1 0.918837
0 1 0.918547
0 1 0.919158
0.965499 1 0.920439
1 1 0.912596
0.325612 0.74519 0.999969
0.325612 0.74519 0.999969
0.325612 0.74519 0.999969
0.325612 0.74519 0.999969
0.325612 0.74519 0.999969
0.600107 0.739025 1
0.936034 0.714534 1
1 0.649165 1
1 0.196109 1
0.325612 0.74519 0.999969
0.325612 0.74519 0.999969
0.325612 0.74519 0.999969
0.325612 0.74519 0.999969
0.325612 0.74519 0.999969
0.599954 0.73904 1
0.936034 0.714534 1
1 0.649165 1
1 0.196109 1
0.325612 0.74519 0.999969
0.325612 0.74519 0.999969
0.325612 0.74519 0.999969
0.325612 0.74519 0.999969
0.325612 0.74519 0.999969
0.599954 0.73904 1
0.936034 0.714534 1
1 0.649165 1
1 0.196109 1
0.325612 0.74519 0.999969
0.325612 0.74519 0.999969
0.325612 0.74519 0.999969
0.325612 0.74519 0.999969
0.325612 0.74519 0.999969
0.599634 0.73904 1
0.936034 0.714534 1
1 0.649165 1
1 0.196109 1
0.325612 0.74519 0.999969
0.325612 0.74519 0.999969
0.325612 0.74519 0.999969
0.325612 0.74519 0.999969
0.325216 0.74493 0.999969
0.598581 0.738796 1
0.935912 0.71426 1
1 0.648859 1
1 0.194659 1
0.324819 0.744656 0.999969
0.324819 0.744656 0.999969
0.324819 0.744656 0.999969
0.324819 0.744656 0.999969
0.324422 0.744396 0.999969
0.594827 0.738369 1
0.935485 0.713726 1
1 0.648035 1
1 0.19176 1
0 0.911269 0.994492
0 0.911269 0.994492
0 0.911269 0.994492
0 0.911192 0.994492
0 0.911009 0.994507
0.362478 0.907164 0.994919
0.876188 0.893828 0.995972
1 0.865766 0.997009
1 0.697917 1
0 1 0.987045
0 1 0.987045
0 1 0.987045
0 1 0.987045
0 1 0.987045
0 0.999969 0.98732
0.77702 0.996017 0.990127
0.990036 0.991333 0.99118
1 0.979858 0.990768
0 1 0.989395
0 1 0.989395
0 1 0.989395
0 1 0.989395
0 1 0.989395
0 1 0.989364
0.0578622 1 0.990356
0.960601 1 0.993255
1 1 0.99266
0.719783 0.949966 1
0.719783 0.949966 1
0.719783 0.949966 1
0.719783 0.949966 1
0.719783 0.949966 1
0.719783 0.949966 1
0.862593 0.946639 1
0.999756 0.938064 1
1 0.912016 1
0.719783 0.949966 1
0.719783 0.949966 1
0.719783 0.949966 1
0.719783 0.949966 1
0.719783 0.949966 1
0.719783 0.949966 1
0.862516 0.946639 1
0.999756 0.938064 1
1 0.912016 1
0.719783 0.949966 1
0.719783 0.949966 1
0.719783 0.949966 1
0.719783 0.949966 1
0.719783 0.949966 1
0.719783 0.949966 1
0.862516 0.946639 1
0.999756 0.938064 1
1 0.912016 1
0.719783 0.949966 1
0.719783 0.949966 1
0.719783 0.949966 1
0.719783 0.949966 1
0.719783 0.949966 1
0.719783 0.949966 1
0.862516 0.946639 1
0.999756 0.938064 1
1 0.912016 1
0.719783 0.949966 1
0.719783 0.949966 1
0.719783 0.949966 1
0.719783 0.949966 1
0.719783 0.949966 1
0.719783 0.949966 1
0.862348 0.946654 1
0.999756 0.938064 1
1 0.912016 1
0.719783 0.949966 1
0.719783 0.949966 1
0.719783 0.949966 1
0.719783 0.949966 1
0.719783 0.949966 1
0.719783 0.949966 1
0.861738 0.94667 1
0.999741 0.938064 1
1 0.912016 1
0.719783 0.949966 1
0.719783 0.949966 1
0.719783 0.949966 1
0.719783 0.949966 1
0.719783 0.949966 1
0.719783 0.949966 1
0.859937 0.946731 1
0.999664 0.938094 1
1 0.912016 1
0.559228 1 1
0.559228 1 1
0.559228 1 1
0.559426 1 1
0.559426 1 1
0.560021 1 1
0.784787 0.998734 1
0.988205 0.994934 1
1 0.987167 1
0 1 1
0 1 1
0 1 1
0 1 1
0 1 1
0 1 1
0 1 1
0.959701 1 1
1 1 1
